( Made using CamBam - http://www.cambam.co.uk )
( ensignofjupiter 5/10/2014 6:15:08 PM )
( T0 : 0.125 )
G20 G90 G64 G40
G0 Z0.125
( T0 : 0.125 )
T0 M6
( Engrave1 )
G17
M3 S25000
G0 X59.8057 Y-66.7526
G0 Z-4.9375
G1 F10.0 Z-5.25
G1 F30.0 X59.9189 Y-66.8038
G1 X60.0153 Y-66.8315
G1 X60.2502 Y-66.8859
G1 X60.3613
G1 X60.5296
G1 X60.7534 Y-66.8933
G1 X60.9517 Y-66.9168
G1 X61.1532 Y-66.9578
G1 X61.3497 Y-67.0182
G1 X61.3615 Y-67.0225
G1 X61.4641 Y-67.0705
G1 X61.5137 Y-67.1024
G1 X61.5874 Y-67.1666
G1 X61.6464 Y-67.2444
G1 X61.6758 Y-67.301
G1 X61.7093 Y-67.4058
G1 X61.7233 Y-67.515
G1 X61.7235 Y-67.5527
G1 X61.7166 Y-67.7196
G1 X61.6898 Y-67.8845
G1 X61.6651 Y-67.979
G1 X61.6166 Y-68.0977
G1 X61.5718 Y-68.1758
G1 X61.5034 Y-68.2621
G1 X61.4217 Y-68.3337
G1 X61.3026 Y-68.4064
G1 X61.2106 Y-68.4478
G1 X61.04 Y-68.5004
G1 X60.8646 Y-68.5335
G1 X60.8623 Y-68.5338
G1 X60.7732 Y-68.5441
G1 X60.5042 Y-68.556
G1 X60.4298 Y-68.7554
G1 X60.2058 Y-69.3532
G1 X59.5295 Y-71.1605
G1 X58.9167 Y-72.7994
G1 X58.8482 Y-72.624
G1 X58.7301 Y-72.3162
G1 X58.3864 Y-71.3893
G1 X57.9863 Y-70.2784
G1 X57.5896 Y-69.1663
G1 X56.872 Y-67.1527
G1 X56.8267 Y-67.0774
G1 X56.7675 Y-67.0158
G1 X56.681 Y-66.9588
G1 X56.618 Y-66.9305
G1 X56.4554 Y-66.8784
G1 X56.3746 Y-66.8509
G1 X56.2942 Y-66.8225
G1 X57.8944
G1 X57.7953 Y-66.8853
G1 X57.7811 Y-66.8964
G1 X57.7334 Y-66.9462
G1 X57.7104 Y-66.9936
G1 X57.7071 Y-67.0098
G1 X57.7008 Y-67.0779
G1 X57.6975 Y-67.1463
G1 X57.6874 Y-67.1979
G1 X57.688 Y-67.2108
G1 X57.6982 Y-67.3315
G1 X57.7138 Y-67.4364
G1 X57.7472 Y-67.6189
G1 X57.8042 Y-67.8913
G1 X57.8658 Y-68.1626
G1 X58.0136 Y-68.7912
G1 X58.2386 Y-69.7333
G1 X58.4659 Y-70.6748
G1 X58.5207 Y-70.9018
G1 X58.7101 Y-71.6965
G1 X58.8019 Y-72.0946
G1 X58.813 Y-72.1445
G1 X58.8511 Y-72.3191
G1 X58.8602 Y-72.3629
G1 X58.885 Y-72.4946
G1 X59.0423 Y-72.0728
G1 X59.1961 Y-71.6497
G1 X59.511 Y-70.7701
G1 X59.8248 Y-69.8901
G1 X60.1014 Y-69.11
G1 X60.2381 Y-68.7195
G1 X60.3055 Y-68.5238
G1 X60.3138 Y-68.4992
G1 X60.3708 Y-68.3274
G1 X60.6875 Y-68.3196
G1 X60.8448 Y-68.3082
G1 X60.9041 Y-68.3019
G1 X61.0791 Y-68.2739
G1 X61.1099 Y-68.2669
G1 X61.2171 Y-68.2343
G1 X61.3043 Y-68.1909
G1 X61.375 Y-68.1309
G1 X61.4312 Y-68.0571
G1 X61.4652 Y-67.9869
G1 X61.4963 Y-67.8721
G1 X61.5076 Y-67.7537
G1 X61.5075 Y-67.7305
G1 X61.5004 Y-67.6312
G1 X61.4735 Y-67.5353
G1 X61.4571 Y-67.498
G1 X61.4084 Y-67.4267
G1 X61.3445 Y-67.3684
G1 X61.2852 Y-67.3336
G1 X61.1522 Y-67.2803
G1 X61.0154 Y-67.2464
G1 X60.8437 Y-67.2254
G1 X60.7328 Y-67.2225
G1 X60.5417 Y-67.2283
G1 X60.4058 Y-67.2447
G1 X60.3034 Y-67.2668
G1 X60.2026 Y-67.2955
G1 X60.0945 Y-67.3319
G1 X59.9867 Y-67.3686
G1 X59.8409 Y-67.4246
G1 X59.7994 Y-67.4447
G1 X59.8057 Y-66.7526
G1 F10.0 Z-5.5
G1 F30.0 X59.9189 Y-66.8038
G1 X60.0153 Y-66.8315
G1 X60.2502 Y-66.8859
G1 X60.3613
G1 X60.5296
G1 X60.7534 Y-66.8933
G1 X60.9517 Y-66.9168
G1 X61.1532 Y-66.9578
G1 X61.3497 Y-67.0182
G1 X61.3615 Y-67.0225
G1 X61.4641 Y-67.0705
G1 X61.5137 Y-67.1024
G1 X61.5874 Y-67.1666
G1 X61.6464 Y-67.2444
G1 X61.6758 Y-67.301
G1 X61.7093 Y-67.4058
G1 X61.7233 Y-67.515
G1 X61.7235 Y-67.5527
G1 X61.7166 Y-67.7196
G1 X61.6898 Y-67.8845
G1 X61.6651 Y-67.979
G1 X61.6166 Y-68.0977
G1 X61.5718 Y-68.1758
G1 X61.5034 Y-68.2621
G1 X61.4217 Y-68.3337
G1 X61.3026 Y-68.4064
G1 X61.2106 Y-68.4478
G1 X61.04 Y-68.5004
G1 X60.8646 Y-68.5335
G1 X60.8623 Y-68.5338
G1 X60.7732 Y-68.5441
G1 X60.5042 Y-68.556
G1 X60.4298 Y-68.7554
G1 X60.2058 Y-69.3532
G1 X59.5295 Y-71.1605
G1 X58.9167 Y-72.7994
G1 X58.8482 Y-72.624
G1 X58.7301 Y-72.3162
G1 X58.3864 Y-71.3893
G1 X57.9863 Y-70.2784
G1 X57.5896 Y-69.1663
G1 X56.872 Y-67.1527
G1 X56.8267 Y-67.0774
G1 X56.7675 Y-67.0158
G1 X56.681 Y-66.9588
G1 X56.618 Y-66.9305
G1 X56.4554 Y-66.8784
G1 X56.3746 Y-66.8509
G1 X56.2942 Y-66.8225
G1 X57.8944
G1 X57.7953 Y-66.8853
G1 X57.7811 Y-66.8964
G1 X57.7334 Y-66.9462
G1 X57.7104 Y-66.9936
G1 X57.7071 Y-67.0098
G1 X57.7008 Y-67.0779
G1 X57.6975 Y-67.1463
G1 X57.6874 Y-67.1979
G1 X57.688 Y-67.2108
G1 X57.6982 Y-67.3315
G1 X57.7138 Y-67.4364
G1 X57.7472 Y-67.6189
G1 X57.8042 Y-67.8913
G1 X57.8658 Y-68.1626
G1 X58.0136 Y-68.7912
G1 X58.2386 Y-69.7333
G1 X58.4659 Y-70.6748
G1 X58.5207 Y-70.9018
G1 X58.7101 Y-71.6965
G1 X58.8019 Y-72.0946
G1 X58.813 Y-72.1445
G1 X58.8511 Y-72.3191
G1 X58.8602 Y-72.3629
G1 X58.885 Y-72.4946
G1 X59.0423 Y-72.0728
G1 X59.1961 Y-71.6497
G1 X59.511 Y-70.7701
G1 X59.8248 Y-69.8901
G1 X60.1014 Y-69.11
G1 X60.2381 Y-68.7195
G1 X60.3055 Y-68.5238
G1 X60.3138 Y-68.4992
G1 X60.3708 Y-68.3274
G1 X60.6875 Y-68.3196
G1 X60.8448 Y-68.3082
G1 X60.9041 Y-68.3019
G1 X61.0791 Y-68.2739
G1 X61.1099 Y-68.2669
G1 X61.2171 Y-68.2343
G1 X61.3043 Y-68.1909
G1 X61.375 Y-68.1309
G1 X61.4312 Y-68.0571
G1 X61.4652 Y-67.9869
G1 X61.4963 Y-67.8721
G1 X61.5076 Y-67.7537
G1 X61.5075 Y-67.7305
G1 X61.5004 Y-67.6312
G1 X61.4735 Y-67.5353
G1 X61.4571 Y-67.498
G1 X61.4084 Y-67.4267
G1 X61.3445 Y-67.3684
G1 X61.2852 Y-67.3336
G1 X61.1522 Y-67.2803
G1 X61.0154 Y-67.2464
G1 X60.8437 Y-67.2254
G1 X60.7328 Y-67.2225
G1 X60.5417 Y-67.2283
G1 X60.4058 Y-67.2447
G1 X60.3034 Y-67.2668
G1 X60.2026 Y-67.2955
G1 X60.0945 Y-67.3319
G1 X59.9867 Y-67.3686
G1 X59.8409 Y-67.4246
G1 X59.7994 Y-67.4447
G1 X59.8057 Y-66.7526
G0 Z0.125
G0 X61.674 Y-66.8225
G0 Z-4.9375
G1 F10.0 Z-5.25
G1 F30.0 X63.2743
G1 X63.1751 Y-66.8853
G1 X63.1609 Y-66.8964
G1 X63.1133 Y-66.9462
G1 X63.0902 Y-66.9936
G1 X63.0869 Y-67.0098
G1 X63.0807 Y-67.0779
G1 X63.0774 Y-67.1463
G1 X63.0672 Y-67.1979
G1 X63.0678 Y-67.2108
G1 X63.078 Y-67.3315
G1 X63.0937 Y-67.4364
G1 X63.127 Y-67.6189
G1 X63.1841 Y-67.8913
G1 X63.2457 Y-68.1626
G1 X63.3935 Y-68.7912
G1 X63.6184 Y-69.7333
G1 X63.8457 Y-70.6748
G1 X63.9006 Y-70.9018
G1 X64.09 Y-71.6965
G1 X64.1817 Y-72.0946
G1 X64.1929 Y-72.1445
G1 X64.2309 Y-72.3191
G1 X64.24 Y-72.3629
G1 X64.2648 Y-72.4946
G1 X64.4222 Y-72.0728
G1 X64.576 Y-71.6497
G1 X64.8908 Y-70.7701
G1 X65.2046 Y-69.8901
G1 X65.4812 Y-69.11
G1 X65.6179 Y-68.7195
G1 X65.6853 Y-68.5238
G1 X65.6937 Y-68.4992
G1 X65.7507 Y-68.3274
G1 X66.0674 Y-68.3196
G1 X66.2246 Y-68.3082
G1 X66.2839 Y-68.3019
G1 X66.459 Y-68.2739
G1 X66.4897 Y-68.2669
G1 X66.597 Y-68.2343
G1 X66.6841 Y-68.1909
G1 X66.7548 Y-68.1309
G1 X66.811 Y-68.0571
G1 X66.8451 Y-67.9869
G1 X66.8761 Y-67.8721
G1 X66.8875 Y-67.7537
G1 X66.8874 Y-67.7305
G1 X66.8802 Y-67.6312
G1 X66.8534 Y-67.5353
G1 X66.837 Y-67.498
G1 X66.7882 Y-67.4267
G1 X66.7244 Y-67.3684
G1 X66.6651 Y-67.3336
G1 X66.5321 Y-67.2803
G1 X66.3953 Y-67.2464
G1 X66.2235 Y-67.2254
G1 X66.1127 Y-67.2225
G1 X65.9216 Y-67.2283
G1 X65.7856 Y-67.2447
G1 X65.6833 Y-67.2668
G1 X65.5825 Y-67.2955
G1 X65.4744 Y-67.3319
G1 X65.3666 Y-67.3686
G1 X65.2208 Y-67.4246
G1 X65.1792 Y-67.4447
G1 X65.1856 Y-66.7526
G1 X65.2987 Y-66.8038
G1 X65.3951 Y-66.8315
G1 X65.6301 Y-66.8859
G1 X65.7412
G1 X65.9095
G1 X66.1333 Y-66.8933
G1 X66.3316 Y-66.9168
G1 X66.5331 Y-66.9578
G1 X66.7296 Y-67.0182
G1 X66.7413 Y-67.0225
G1 X66.844 Y-67.0705
G1 X66.8936 Y-67.1024
G1 X66.9672 Y-67.1666
G1 X67.0263 Y-67.2444
G1 X67.0557 Y-67.301
G1 X67.0892 Y-67.4058
G1 X67.1031 Y-67.515
G1 X67.1033 Y-67.5527
G1 X67.0964 Y-67.7196
G1 X67.0697 Y-67.8845
G1 X67.045 Y-67.979
G1 X66.9965 Y-68.0977
G1 X66.9517 Y-68.1758
G1 X66.8832 Y-68.2621
G1 X66.8016 Y-68.3337
G1 X66.6824 Y-68.4064
G1 X66.5905 Y-68.4478
G1 X66.4199 Y-68.5004
G1 X66.2445 Y-68.5335
G1 X66.2421 Y-68.5338
G1 X66.153 Y-68.5441
G1 X65.8841 Y-68.556
G1 X65.8096 Y-68.7554
G1 X65.5857 Y-69.3532
G1 X64.9094 Y-71.1605
G1 X64.2966 Y-72.7994
G1 X64.228 Y-72.624
G1 X64.11 Y-72.3162
G1 X63.7663 Y-71.3893
G1 X63.3662 Y-70.2784
G1 X62.9695 Y-69.1663
G1 X62.2518 Y-67.1527
G1 X62.2066 Y-67.0774
G1 X62.1474 Y-67.0158
G1 X62.0609 Y-66.9588
G1 X61.9979 Y-66.9305
G1 X61.8353 Y-66.8784
G1 X61.7545 Y-66.8509
G1 X61.674 Y-66.8225
G1 F10.0 Z-5.5
G1 F30.0 X63.2743
G1 X63.1751 Y-66.8853
G1 X63.1609 Y-66.8964
G1 X63.1133 Y-66.9462
G1 X63.0902 Y-66.9936
G1 X63.0869 Y-67.0098
G1 X63.0807 Y-67.0779
G1 X63.0774 Y-67.1463
G1 X63.0672 Y-67.1979
G1 X63.0678 Y-67.2108
G1 X63.078 Y-67.3315
G1 X63.0937 Y-67.4364
G1 X63.127 Y-67.6189
G1 X63.1841 Y-67.8913
G1 X63.2457 Y-68.1626
G1 X63.3935 Y-68.7912
G1 X63.6184 Y-69.7333
G1 X63.8457 Y-70.6748
G1 X63.9006 Y-70.9018
G1 X64.09 Y-71.6965
G1 X64.1817 Y-72.0946
G1 X64.1929 Y-72.1445
G1 X64.2309 Y-72.3191
G1 X64.24 Y-72.3629
G1 X64.2648 Y-72.4946
G1 X64.4222 Y-72.0728
G1 X64.576 Y-71.6497
G1 X64.8908 Y-70.7701
G1 X65.2046 Y-69.8901
G1 X65.4812 Y-69.11
G1 X65.6179 Y-68.7195
G1 X65.6853 Y-68.5238
G1 X65.6937 Y-68.4992
G1 X65.7507 Y-68.3274
G1 X66.0674 Y-68.3196
G1 X66.2246 Y-68.3082
G1 X66.2839 Y-68.3019
G1 X66.459 Y-68.2739
G1 X66.4897 Y-68.2669
G1 X66.597 Y-68.2343
G1 X66.6841 Y-68.1909
G1 X66.7548 Y-68.1309
G1 X66.811 Y-68.0571
G1 X66.8451 Y-67.9869
G1 X66.8761 Y-67.8721
G1 X66.8875 Y-67.7537
G1 X66.8874 Y-67.7305
G1 X66.8802 Y-67.6312
G1 X66.8534 Y-67.5353
G1 X66.837 Y-67.498
G1 X66.7882 Y-67.4267
G1 X66.7244 Y-67.3684
G1 X66.6651 Y-67.3336
G1 X66.5321 Y-67.2803
G1 X66.3953 Y-67.2464
G1 X66.2235 Y-67.2254
G1 X66.1127 Y-67.2225
G1 X65.9216 Y-67.2283
G1 X65.7856 Y-67.2447
G1 X65.6833 Y-67.2668
G1 X65.5825 Y-67.2955
G1 X65.4744 Y-67.3319
G1 X65.3666 Y-67.3686
G1 X65.2208 Y-67.4246
G1 X65.1792 Y-67.4447
G1 X65.1856 Y-66.7526
G1 X65.2987 Y-66.8038
G1 X65.3951 Y-66.8315
G1 X65.6301 Y-66.8859
G1 X65.7412
G1 X65.9095
G1 X66.1333 Y-66.8933
G1 X66.3316 Y-66.9168
G1 X66.5331 Y-66.9578
G1 X66.7296 Y-67.0182
G1 X66.7413 Y-67.0225
G1 X66.844 Y-67.0705
G1 X66.8936 Y-67.1024
G1 X66.9672 Y-67.1666
G1 X67.0263 Y-67.2444
G1 X67.0557 Y-67.301
G1 X67.0892 Y-67.4058
G1 X67.1031 Y-67.515
G1 X67.1033 Y-67.5527
G1 X67.0964 Y-67.7196
G1 X67.0697 Y-67.8845
G1 X67.045 Y-67.979
G1 X66.9965 Y-68.0977
G1 X66.9517 Y-68.1758
G1 X66.8832 Y-68.2621
G1 X66.8016 Y-68.3337
G1 X66.6824 Y-68.4064
G1 X66.5905 Y-68.4478
G1 X66.4199 Y-68.5004
G1 X66.2445 Y-68.5335
G1 X66.2421 Y-68.5338
G1 X66.153 Y-68.5441
G1 X65.8841 Y-68.556
G1 X65.8096 Y-68.7554
G1 X65.5857 Y-69.3532
G1 X64.9094 Y-71.1605
G1 X64.2966 Y-72.7994
G1 X64.228 Y-72.624
G1 X64.11 Y-72.3162
G1 X63.7663 Y-71.3893
G1 X63.3662 Y-70.2784
G1 X62.9695 Y-69.1663
G1 X62.2518 Y-67.1527
G1 X62.2066 Y-67.0774
G1 X62.1474 Y-67.0158
G1 X62.0609 Y-66.9588
G1 X61.9979 Y-66.9305
G1 X61.8353 Y-66.8784
G1 X61.7545 Y-66.8509
G1 X61.674 Y-66.8225
G0 Z0.125
G0 X54.0858 Y-55.5399
G0 Z-4.9375
G1 F10.0 Z-5.25
G1 F30.0 X54.0032 Y-55.5336
G1 X54.0085 Y-55.4861
G1 X54.0096 Y-55.4383
G1 X54.0022 Y-55.3635
G1 X53.9877 Y-55.3193
G1 X53.9574 Y-55.2762
G1 X53.9132 Y-55.2474
G1 X53.8952 Y-55.2415
G1 X53.7877 Y-55.2297
G1 X53.6256 Y-55.2202
G1 X53.4634 Y-55.2129
G1 X53.394 Y-55.2103
G1 X53.1336 Y-55.2034
G1 X52.7429 Y-55.1984
G1 X52.3522 Y-55.1971
G1 X52.2354 Y-55.1978
G1 X51.8855 Y-55.2097
G1 X51.6614 Y-55.2255
G1 X51.6054 Y-55.2305
G1 X51.4379 Y-55.2478
G1 X51.3743 Y-55.1843
G1 X51.552 Y-55.0198
G1 X51.7028 Y-54.8702
G1 X51.8302 Y-54.7343
G1 X51.8844 Y-54.6732
G1 X52.0541 Y-54.4634
G1 X52.0757 Y-54.4343
G1 X52.1936 Y-54.2584
G1 X52.2944 Y-54.0722
G1 X52.3103 Y-54.0384
G1 X52.3681 Y-53.885
G1 X52.3864 Y-53.8199
G1 X52.4106 Y-53.6856
G1 X52.4157 Y-53.5904
G1 X52.4072 Y-53.4886
G1 X52.3844 Y-53.4043
G1 X52.3453 Y-53.3318
G1 X52.2899 Y-53.2708
G1 X52.2214 Y-53.225
G1 X52.1873 Y-53.21
G1 X52.0726 Y-53.1776
G1 X51.9542 Y-53.1649
G1 X51.9141 Y-53.1651
G1 X51.7417 Y-53.1809
G1 X51.5722 Y-53.2166
G1 X51.5521 Y-53.2222
G1 X51.5204 Y-53.1205
G1 X51.6804 Y-53.0375
G1 X51.8486 Y-52.9726
G1 X51.9897 Y-52.934
G1 X52.2019 Y-52.8973
G1 X52.4166 Y-52.8805
G1 X52.4919 Y-52.8793
G1 X52.5683 Y-52.8809
G1 X52.7235 Y-52.8957
G1 X52.8334 Y-52.9187
G1 X52.9453 Y-52.9566
G1 X53.0491 Y-53.0129
G1 X53.0762 Y-53.0316
G1 X53.1501 Y-53.0964
G1 X53.2094 Y-53.1747
G1 X53.2515 Y-53.2635
G1 X53.2749 Y-53.3589
G1 X53.2793 Y-53.4381
G1 X53.2687 Y-53.5402
G1 X53.2385 Y-53.6383
G1 X53.1898 Y-53.7288
G1 X53.1682 Y-53.7587
G1 X53.037 Y-53.9122
G1 X52.8912 Y-54.052
G1 X52.8665 Y-54.0731
G1 X52.5649 Y-54.3214
G1 X52.4157 Y-54.435
G1 X52.2735 Y-54.5459
G1 X52.2209 Y-54.5885
G1 X52.04 Y-54.741
G1 X51.8633 Y-54.8985
G1 X52.7361 Y-54.746
G1 X52.8914 Y-54.721
G1 X53.1492 Y-54.6806
G1 X53.3428 Y-54.6523
G1 X53.4156 Y-54.6423
G1 X53.6707 Y-54.6111
G1 X53.8971 Y-54.5944
G1 X53.9269 Y-54.5937
G1 X53.9875 Y-54.6021
G1 X54.0161 Y-54.6136
G1 X54.0583 Y-54.6472
G1 X54.0794 Y-54.6795
G1 X54.1085 Y-54.7664
G1 X54.1161 Y-54.8153
G1 X54.1238 Y-54.9557
G1 X54.113 Y-55.2484
G1 X54.1011 Y-55.3943
G1 X54.0858 Y-55.5399
G1 F10.0 Z-5.5
G1 F30.0 X54.0032 Y-55.5336
G1 X54.0085 Y-55.4861
G1 X54.0096 Y-55.4383
G1 X54.0022 Y-55.3635
G1 X53.9877 Y-55.3193
G1 X53.9574 Y-55.2762
G1 X53.9132 Y-55.2474
G1 X53.8952 Y-55.2415
G1 X53.7877 Y-55.2297
G1 X53.6256 Y-55.2202
G1 X53.4634 Y-55.2129
G1 X53.394 Y-55.2103
G1 X53.1336 Y-55.2034
G1 X52.7429 Y-55.1984
G1 X52.3522 Y-55.1971
G1 X52.2354 Y-55.1978
G1 X51.8855 Y-55.2097
G1 X51.6614 Y-55.2255
G1 X51.6054 Y-55.2305
G1 X51.4379 Y-55.2478
G1 X51.3743 Y-55.1843
G1 X51.552 Y-55.0198
G1 X51.7028 Y-54.8702
G1 X51.8302 Y-54.7343
G1 X51.8844 Y-54.6732
G1 X52.0541 Y-54.4634
G1 X52.0757 Y-54.4343
G1 X52.1936 Y-54.2584
G1 X52.2944 Y-54.0722
G1 X52.3103 Y-54.0384
G1 X52.3681 Y-53.885
G1 X52.3864 Y-53.8199
G1 X52.4106 Y-53.6856
G1 X52.4157 Y-53.5904
G1 X52.4072 Y-53.4886
G1 X52.3844 Y-53.4043
G1 X52.3453 Y-53.3318
G1 X52.2899 Y-53.2708
G1 X52.2214 Y-53.225
G1 X52.1873 Y-53.21
G1 X52.0726 Y-53.1776
G1 X51.9542 Y-53.1649
G1 X51.9141 Y-53.1651
G1 X51.7417 Y-53.1809
G1 X51.5722 Y-53.2166
G1 X51.5521 Y-53.2222
G1 X51.5204 Y-53.1205
G1 X51.6804 Y-53.0375
G1 X51.8486 Y-52.9726
G1 X51.9897 Y-52.934
G1 X52.2019 Y-52.8973
G1 X52.4166 Y-52.8805
G1 X52.4919 Y-52.8793
G1 X52.5683 Y-52.8809
G1 X52.7235 Y-52.8957
G1 X52.8334 Y-52.9187
G1 X52.9453 Y-52.9566
G1 X53.0491 Y-53.0129
G1 X53.0762 Y-53.0316
G1 X53.1501 Y-53.0964
G1 X53.2094 Y-53.1747
G1 X53.2515 Y-53.2635
G1 X53.2749 Y-53.3589
G1 X53.2793 Y-53.4381
G1 X53.2687 Y-53.5402
G1 X53.2385 Y-53.6383
G1 X53.1898 Y-53.7288
G1 X53.1682 Y-53.7587
G1 X53.037 Y-53.9122
G1 X52.8912 Y-54.052
G1 X52.8665 Y-54.0731
G1 X52.5649 Y-54.3214
G1 X52.4157 Y-54.435
G1 X52.2735 Y-54.5459
G1 X52.2209 Y-54.5885
G1 X52.04 Y-54.741
G1 X51.8633 Y-54.8985
G1 X52.7361 Y-54.746
G1 X52.8914 Y-54.721
G1 X53.1492 Y-54.6806
G1 X53.3428 Y-54.6523
G1 X53.4156 Y-54.6423
G1 X53.6707 Y-54.6111
G1 X53.8971 Y-54.5944
G1 X53.9269 Y-54.5937
G1 X53.9875 Y-54.6021
G1 X54.0161 Y-54.6136
G1 X54.0583 Y-54.6472
G1 X54.0794 Y-54.6795
G1 X54.1085 Y-54.7664
G1 X54.1161 Y-54.8153
G1 X54.1238 Y-54.9557
G1 X54.113 Y-55.2484
G1 X54.1011 Y-55.3943
G1 X54.0858 Y-55.5399
G0 Z0.125
G0 X80.0185 Y-56.2391
G0 Z-4.9375
G1 F10.0 Z-5.25
G1 F30.0 X81.6187
G1 X81.5196 Y-56.302
G1 X81.5054 Y-56.3131
G1 X81.4577 Y-56.3628
G1 X81.4347 Y-56.4103
G1 X81.4314 Y-56.4264
G1 X81.4251 Y-56.4946
G1 X81.4218 Y-56.563
G1 X81.4117 Y-56.6145
G1 X81.4123 Y-56.6274
G1 X81.4225 Y-56.7482
G1 X81.4381 Y-56.8531
G1 X81.4715 Y-57.0356
G1 X81.5285 Y-57.308
G1 X81.5901 Y-57.5793
G1 X81.7379 Y-58.2079
G1 X81.9629 Y-59.15
G1 X82.1902 Y-60.0915
G1 X82.245 Y-60.3185
G1 X82.4345 Y-61.1132
G1 X82.5262 Y-61.5113
G1 X82.5373 Y-61.5611
G1 X82.5754 Y-61.7358
G1 X82.5845 Y-61.7795
G1 X82.6093 Y-61.9113
G1 X82.7666 Y-61.4895
G1 X82.9204 Y-61.0664
G1 X83.2353 Y-60.1868
G1 X83.5491 Y-59.3068
G1 X83.8257 Y-58.5267
G1 X83.9624 Y-58.1361
G1 X84.0298 Y-57.9404
G1 X84.0381 Y-57.9159
G1 X84.0951 Y-57.7441
G1 X84.4118 Y-57.7362
G1 X84.5691 Y-57.7249
G1 X84.6284 Y-57.7186
G1 X84.8034 Y-57.6906
G1 X84.8342 Y-57.6835
G1 X84.9414 Y-57.651
G1 X85.0286 Y-57.6076
G1 X85.0993 Y-57.5476
G1 X85.1555 Y-57.4738
G1 X85.1895 Y-57.4036
G1 X85.2206 Y-57.2888
G1 X85.2319 Y-57.1704
G1 X85.2318 Y-57.1472
G1 X85.2247 Y-57.0478
G1 X85.1978 Y-56.9519
G1 X85.1814 Y-56.9147
G1 X85.1327 Y-56.8433
G1 X85.0688 Y-56.7851
G1 X85.0095 Y-56.7503
G1 X84.8765 Y-56.6969
G1 X84.7398 Y-56.663
G1 X84.568 Y-56.6421
G1 X84.4571 Y-56.6392
G1 X84.2661 Y-56.645
G1 X84.1301 Y-56.6614
G1 X84.0277 Y-56.6835
G1 X83.9269 Y-56.7122
G1 X83.8188 Y-56.7485
G1 X83.711 Y-56.7853
G1 X83.5652 Y-56.8413
G1 X83.5237 Y-56.8614
G1 X83.53 Y-56.1693
G1 X83.6432 Y-56.2205
G1 X83.7396 Y-56.2482
G1 X83.9745 Y-56.3026
G1 X84.0857
G1 X84.2539
G1 X84.4777 Y-56.31
G1 X84.676 Y-56.3334
G1 X84.8775 Y-56.3745
G1 X85.074 Y-56.4349
G1 X85.0858 Y-56.4392
G1 X85.1884 Y-56.4872
G1 X85.238 Y-56.5191
G1 X85.3117 Y-56.5833
G1 X85.3707 Y-56.6611
G1 X85.4001 Y-56.7176
G1 X85.4336 Y-56.8225
G1 X85.4476 Y-56.9317
G1 X85.4478 Y-56.9694
G1 X85.4409 Y-57.1363
G1 X85.4141 Y-57.3012
G1 X85.3894 Y-57.3956
G1 X85.3409 Y-57.5144
G1 X85.2961 Y-57.5925
G1 X85.2277 Y-57.6788
G1 X85.1461 Y-57.7504
G1 X85.0269 Y-57.823
G1 X84.9349 Y-57.8645
G1 X84.7643 Y-57.917
G1 X84.589 Y-57.9502
G1 X84.5866 Y-57.9505
G1 X84.4975 Y-57.9607
G1 X84.2285 Y-57.9727
G1 X84.1541 Y-58.1721
G1 X83.9301 Y-58.7699
G1 X83.2538 Y-60.5772
G1 X82.641 Y-62.2161
G1 X82.5725 Y-62.0406
G1 X82.4544 Y-61.7329
G1 X82.1108 Y-60.8059
G1 X81.7106 Y-59.695
G1 X81.3139 Y-58.583
G1 X80.5963 Y-56.5694
G1 X80.551 Y-56.494
G1 X80.4918 Y-56.4325
G1 X80.4053 Y-56.3754
G1 X80.3423 Y-56.3471
G1 X80.1797 Y-56.295
G1 X80.0989 Y-56.2675
G1 X80.0185 Y-56.2391
G1 F10.0 Z-5.5
G1 F30.0 X81.6187
G1 X81.5196 Y-56.302
G1 X81.5054 Y-56.3131
G1 X81.4577 Y-56.3628
G1 X81.4347 Y-56.4103
G1 X81.4314 Y-56.4264
G1 X81.4251 Y-56.4946
G1 X81.4218 Y-56.563
G1 X81.4117 Y-56.6145
G1 X81.4123 Y-56.6274
G1 X81.4225 Y-56.7482
G1 X81.4381 Y-56.8531
G1 X81.4715 Y-57.0356
G1 X81.5285 Y-57.308
G1 X81.5901 Y-57.5793
G1 X81.7379 Y-58.2079
G1 X81.9629 Y-59.15
G1 X82.1902 Y-60.0915
G1 X82.245 Y-60.3185
G1 X82.4345 Y-61.1132
G1 X82.5262 Y-61.5113
G1 X82.5373 Y-61.5611
G1 X82.5754 Y-61.7358
G1 X82.5845 Y-61.7795
G1 X82.6093 Y-61.9113
G1 X82.7666 Y-61.4895
G1 X82.9204 Y-61.0664
G1 X83.2353 Y-60.1868
G1 X83.5491 Y-59.3068
G1 X83.8257 Y-58.5267
G1 X83.9624 Y-58.1361
G1 X84.0298 Y-57.9404
G1 X84.0381 Y-57.9159
G1 X84.0951 Y-57.7441
G1 X84.4118 Y-57.7362
G1 X84.5691 Y-57.7249
G1 X84.6284 Y-57.7186
G1 X84.8034 Y-57.6906
G1 X84.8342 Y-57.6835
G1 X84.9414 Y-57.651
G1 X85.0286 Y-57.6076
G1 X85.0993 Y-57.5476
G1 X85.1555 Y-57.4738
G1 X85.1895 Y-57.4036
G1 X85.2206 Y-57.2888
G1 X85.2319 Y-57.1704
G1 X85.2318 Y-57.1472
G1 X85.2247 Y-57.0478
G1 X85.1978 Y-56.9519
G1 X85.1814 Y-56.9147
G1 X85.1327 Y-56.8433
G1 X85.0688 Y-56.7851
G1 X85.0095 Y-56.7503
G1 X84.8765 Y-56.6969
G1 X84.7398 Y-56.663
G1 X84.568 Y-56.6421
G1 X84.4571 Y-56.6392
G1 X84.2661 Y-56.645
G1 X84.1301 Y-56.6614
G1 X84.0277 Y-56.6835
G1 X83.9269 Y-56.7122
G1 X83.8188 Y-56.7485
G1 X83.711 Y-56.7853
G1 X83.5652 Y-56.8413
G1 X83.5237 Y-56.8614
G1 X83.53 Y-56.1693
G1 X83.6432 Y-56.2205
G1 X83.7396 Y-56.2482
G1 X83.9745 Y-56.3026
G1 X84.0857
G1 X84.2539
G1 X84.4777 Y-56.31
G1 X84.676 Y-56.3334
G1 X84.8775 Y-56.3745
G1 X85.074 Y-56.4349
G1 X85.0858 Y-56.4392
G1 X85.1884 Y-56.4872
G1 X85.238 Y-56.5191
G1 X85.3117 Y-56.5833
G1 X85.3707 Y-56.6611
G1 X85.4001 Y-56.7176
G1 X85.4336 Y-56.8225
G1 X85.4476 Y-56.9317
G1 X85.4478 Y-56.9694
G1 X85.4409 Y-57.1363
G1 X85.4141 Y-57.3012
G1 X85.3894 Y-57.3956
G1 X85.3409 Y-57.5144
G1 X85.2961 Y-57.5925
G1 X85.2277 Y-57.6788
G1 X85.1461 Y-57.7504
G1 X85.0269 Y-57.823
G1 X84.9349 Y-57.8645
G1 X84.7643 Y-57.917
G1 X84.589 Y-57.9502
G1 X84.5866 Y-57.9505
G1 X84.4975 Y-57.9607
G1 X84.2285 Y-57.9727
G1 X84.1541 Y-58.1721
G1 X83.9301 Y-58.7699
G1 X83.2538 Y-60.5772
G1 X82.641 Y-62.2161
G1 X82.5725 Y-62.0406
G1 X82.4544 Y-61.7329
G1 X82.1108 Y-60.8059
G1 X81.7106 Y-59.695
G1 X81.3139 Y-58.583
G1 X80.5963 Y-56.5694
G1 X80.551 Y-56.494
G1 X80.4918 Y-56.4325
G1 X80.4053 Y-56.3754
G1 X80.3423 Y-56.3471
G1 X80.1797 Y-56.295
G1 X80.0989 Y-56.2675
G1 X80.0185 Y-56.2391
G0 Z0.125
G0 X89.1907
G0 Z-4.9375
G1 F10.0 Z-5.25
G1 F30.0 X90.7909
G1 X90.6918 Y-56.302
G1 X90.6776 Y-56.3131
G1 X90.63 Y-56.3628
G1 X90.6069 Y-56.4103
G1 X90.6036 Y-56.4264
G1 X90.5973 Y-56.4946
G1 X90.594 Y-56.563
G1 X90.5839 Y-56.6145
G1 X90.5845 Y-56.6274
G1 X90.5947 Y-56.7482
G1 X90.6103 Y-56.8531
G1 X90.6437 Y-57.0356
G1 X90.7007 Y-57.308
G1 X90.7623 Y-57.5793
G1 X90.9102 Y-58.2079
G1 X91.1351 Y-59.15
G1 X91.3624 Y-60.0915
G1 X91.4173 Y-60.3185
G1 X91.6067 Y-61.1132
G1 X91.6984 Y-61.5113
G1 X91.7096 Y-61.5611
G1 X91.7476 Y-61.7358
G1 X91.7567 Y-61.7795
G1 X91.7815 Y-61.9113
G1 X91.9388 Y-61.4895
G1 X92.0927 Y-61.0664
G1 X92.4075 Y-60.1868
G1 X92.7213 Y-59.3068
G1 X92.9979 Y-58.5267
G1 X93.1346 Y-58.1361
G1 X93.202 Y-57.9404
G1 X93.2103 Y-57.9159
G1 X93.2673 Y-57.7441
G1 X93.584 Y-57.7362
G1 X93.7413 Y-57.7249
G1 X93.8006 Y-57.7186
G1 X93.9756 Y-57.6906
G1 X94.0064 Y-57.6835
G1 X94.1136 Y-57.651
G1 X94.2008 Y-57.6076
G1 X94.2715 Y-57.5476
G1 X94.3277 Y-57.4738
G1 X94.3618 Y-57.4036
G1 X94.3928 Y-57.2888
G1 X94.4042 Y-57.1704
G1 X94.4041 Y-57.1472
G1 X94.3969 Y-57.0478
G1 X94.3701 Y-56.9519
G1 X94.3537 Y-56.9147
G1 X94.3049 Y-56.8433
G1 X94.241 Y-56.7851
G1 X94.1818 Y-56.7503
G1 X94.0488 Y-56.6969
G1 X93.912 Y-56.663
G1 X93.7402 Y-56.6421
G1 X93.6293 Y-56.6392
G1 X93.4383 Y-56.645
G1 X93.3023 Y-56.6614
G1 X93.1999 Y-56.6835
G1 X93.0991 Y-56.7122
G1 X92.9911 Y-56.7485
G1 X92.8832 Y-56.7853
G1 X92.7375 Y-56.8413
G1 X92.6959 Y-56.8614
G1 X92.7023 Y-56.1693
G1 X92.8154 Y-56.2205
G1 X92.9118 Y-56.2482
G1 X93.1468 Y-56.3026
G1 X93.2579
G1 X93.4262
G1 X93.6499 Y-56.31
G1 X93.8483 Y-56.3334
G1 X94.0497 Y-56.3745
G1 X94.2462 Y-56.4349
G1 X94.258 Y-56.4392
G1 X94.3606 Y-56.4872
G1 X94.4102 Y-56.5191
G1 X94.4839 Y-56.5833
G1 X94.5429 Y-56.6611
G1 X94.5723 Y-56.7176
G1 X94.6058 Y-56.8225
G1 X94.6198 Y-56.9317
G1 X94.62 Y-56.9694
G1 X94.6131 Y-57.1363
G1 X94.5864 Y-57.3012
G1 X94.5616 Y-57.3956
G1 X94.5131 Y-57.5144
G1 X94.4683 Y-57.5925
G1 X94.3999 Y-57.6788
G1 X94.3183 Y-57.7504
G1 X94.1991 Y-57.823
G1 X94.1071 Y-57.8645
G1 X93.9365 Y-57.917
G1 X93.7612 Y-57.9502
G1 X93.7588 Y-57.9505
G1 X93.6697 Y-57.9607
G1 X93.4008 Y-57.9727
G1 X93.3263 Y-58.1721
G1 X93.1023 Y-58.7699
G1 X92.4261 Y-60.5772
G1 X91.8133 Y-62.2161
G1 X91.7447 Y-62.0406
G1 X91.6266 Y-61.7329
G1 X91.283 Y-60.8059
G1 X90.8829 Y-59.695
G1 X90.4861 Y-58.583
G1 X89.7685 Y-56.5694
G1 X89.7232 Y-56.494
G1 X89.664 Y-56.4325
G1 X89.5776 Y-56.3754
G1 X89.5145 Y-56.3471
G1 X89.3519 Y-56.295
G1 X89.2711 Y-56.2675
G1 X89.1907 Y-56.2391
G1 F10.0 Z-5.5
G1 F30.0 X90.7909
G1 X90.6918 Y-56.302
G1 X90.6776 Y-56.3131
G1 X90.63 Y-56.3628
G1 X90.6069 Y-56.4103
G1 X90.6036 Y-56.4264
G1 X90.5973 Y-56.4946
G1 X90.594 Y-56.563
G1 X90.5839 Y-56.6145
G1 X90.5845 Y-56.6274
G1 X90.5947 Y-56.7482
G1 X90.6103 Y-56.8531
G1 X90.6437 Y-57.0356
G1 X90.7007 Y-57.308
G1 X90.7623 Y-57.5793
G1 X90.9102 Y-58.2079
G1 X91.1351 Y-59.15
G1 X91.3624 Y-60.0915
G1 X91.4173 Y-60.3185
G1 X91.6067 Y-61.1132
G1 X91.6984 Y-61.5113
G1 X91.7096 Y-61.5611
G1 X91.7476 Y-61.7358
G1 X91.7567 Y-61.7795
G1 X91.7815 Y-61.9113
G1 X91.9388 Y-61.4895
G1 X92.0927 Y-61.0664
G1 X92.4075 Y-60.1868
G1 X92.7213 Y-59.3068
G1 X92.9979 Y-58.5267
G1 X93.1346 Y-58.1361
G1 X93.202 Y-57.9404
G1 X93.2103 Y-57.9159
G1 X93.2673 Y-57.7441
G1 X93.584 Y-57.7362
G1 X93.7413 Y-57.7249
G1 X93.8006 Y-57.7186
G1 X93.9756 Y-57.6906
G1 X94.0064 Y-57.6835
G1 X94.1136 Y-57.651
G1 X94.2008 Y-57.6076
G1 X94.2715 Y-57.5476
G1 X94.3277 Y-57.4738
G1 X94.3618 Y-57.4036
G1 X94.3928 Y-57.2888
G1 X94.4042 Y-57.1704
G1 X94.4041 Y-57.1472
G1 X94.3969 Y-57.0478
G1 X94.3701 Y-56.9519
G1 X94.3537 Y-56.9147
G1 X94.3049 Y-56.8433
G1 X94.241 Y-56.7851
G1 X94.1818 Y-56.7503
G1 X94.0488 Y-56.6969
G1 X93.912 Y-56.663
G1 X93.7402 Y-56.6421
G1 X93.6293 Y-56.6392
G1 X93.4383 Y-56.645
G1 X93.3023 Y-56.6614
G1 X93.1999 Y-56.6835
G1 X93.0991 Y-56.7122
G1 X92.9911 Y-56.7485
G1 X92.8832 Y-56.7853
G1 X92.7375 Y-56.8413
G1 X92.6959 Y-56.8614
G1 X92.7023 Y-56.1693
G1 X92.8154 Y-56.2205
G1 X92.9118 Y-56.2482
G1 X93.1468 Y-56.3026
G1 X93.2579
G1 X93.4262
G1 X93.6499 Y-56.31
G1 X93.8483 Y-56.3334
G1 X94.0497 Y-56.3745
G1 X94.2462 Y-56.4349
G1 X94.258 Y-56.4392
G1 X94.3606 Y-56.4872
G1 X94.4102 Y-56.5191
G1 X94.4839 Y-56.5833
G1 X94.5429 Y-56.6611
G1 X94.5723 Y-56.7176
G1 X94.6058 Y-56.8225
G1 X94.6198 Y-56.9317
G1 X94.62 Y-56.9694
G1 X94.6131 Y-57.1363
G1 X94.5864 Y-57.3012
G1 X94.5616 Y-57.3956
G1 X94.5131 Y-57.5144
G1 X94.4683 Y-57.5925
G1 X94.3999 Y-57.6788
G1 X94.3183 Y-57.7504
G1 X94.1991 Y-57.823
G1 X94.1071 Y-57.8645
G1 X93.9365 Y-57.917
G1 X93.7612 Y-57.9502
G1 X93.7588 Y-57.9505
G1 X93.6697 Y-57.9607
G1 X93.4008 Y-57.9727
G1 X93.3263 Y-58.1721
G1 X93.1023 Y-58.7699
G1 X92.4261 Y-60.5772
G1 X91.8133 Y-62.2161
G1 X91.7447 Y-62.0406
G1 X91.6266 Y-61.7329
G1 X91.283 Y-60.8059
G1 X90.8829 Y-59.695
G1 X90.4861 Y-58.583
G1 X89.7685 Y-56.5694
G1 X89.7232 Y-56.494
G1 X89.664 Y-56.4325
G1 X89.5776 Y-56.3754
G1 X89.5145 Y-56.3471
G1 X89.3519 Y-56.295
G1 X89.2711 Y-56.2675
G1 X89.1907 Y-56.2391
G0 Z0.125
G0 X88.133 Y-68.7994
G0 Z-4.9375
G1 F10.0 Z-5.25
G1 F30.0 X87.979 Y-69.0062
G1 X87.8415 Y-69.2244
G1 X87.7665 Y-69.3615
G1 X87.6526 Y-69.6013
G1 X87.5662 Y-69.8227
G1 X87.4672 Y-70.1342
G1 X87.4538 Y-70.1824
G1 X87.3762 Y-70.5214
G1 X87.3182 Y-70.8643
G1 X87.2801 Y-71.21
G1 X87.2737 Y-71.2971
G1 X87.2306 Y-71.7701
G1 X87.1677 Y-72.2408
G1 X87.0937 Y-72.6637
G1 X87.0116 Y-73.0339
G1 X86.91 Y-73.3992
G1 X86.7894 Y-73.7586
G1 X86.7022 Y-73.9852
G1 X86.6016 Y-74.197
G1 X86.4833 Y-74.3993
G1 X86.4797 Y-74.405
G1 X86.2963 Y-74.6671
G1 X86.0969 Y-74.9173
G1 X85.9716 Y-75.0593
G1 X85.6627 Y-75.3823
G1 X85.3397 Y-75.6911
G1 X85.0788 Y-75.9214
G1 X84.961 Y-76.0223
G1 X84.4622 Y-76.4283
G1 X84.1114 Y-76.6988
G1 X83.9975 Y-76.7155
G1 X83.9929 Y-76.7157
G1 X83.9363 Y-76.7087
G1 X83.9104 Y-76.6938
G1 X83.8997 Y-76.6659
G1 Y-76.665
G1 X83.9141 Y-76.6186
G1 X83.9187 Y-76.6109
G1 X83.9505 Y-76.5634
G1 X84.2679 Y-76.3367
G1 X84.5732 Y-76.0941
G1 X84.8658 Y-75.8361
G1 X85.1142 Y-75.5947
G1 X85.3509 Y-75.3402
G1 X85.5726 Y-75.0726
G1 X85.7786 Y-74.7926
G1 X85.9681 Y-74.5012
G1 X86.0333 Y-74.3917
G1 X86.1839 Y-74.1091
G1 X86.3166 Y-73.8176
G1 X86.4308 Y-73.5184
G1 X86.5262 Y-73.2127
G1 X86.5905 Y-72.9557
G1 X86.6609 Y-72.5922
G1 X86.7115 Y-72.2255
G1 X86.7423 Y-71.8566
G1 X86.7532 Y-71.4865
G1 X86.753 Y-71.4241
G1 X86.7462 Y-70.9742
G1 X86.7194 Y-70.5251
G1 X86.681 Y-70.1456
G1 X86.6346 Y-69.8499
G1 X86.626 Y-69.8064
G1 X86.5341 Y-69.3918
G1 X86.5119 Y-69.3038
G1 X86.3797 Y-68.8333
G1 X86.372 Y-68.8079
G1 X88.133 Y-68.7994
G0 Z0.125
G0 X89.7624 Y-74.544
G0 Z-4.9375
G1 F10.0 Z-5.25
G1 F30.0 X90.309 Y-74.3959
G1 X90.3005 Y-75.8861
G1 X90.1686 Y-75.8017
G1 X90.0269 Y-75.7349
G1 X89.8779 Y-75.6867
G1 X89.724 Y-75.6578
G1 X89.5677 Y-75.6488
G1 X89.5554 Y-75.649
G1 X89.3503 Y-75.6597
G1 X89.1473 Y-75.6904
G1 X89.0563 Y-75.7108
G1 X88.818 Y-75.7766
G1 X88.5859 Y-75.8614
G1 X88.5775 Y-75.8649
G1 X88.482 Y-75.904
G1 X88.3042 Y-75.98
G1 X88.1496 Y-76.0488
G1 X88.0822 Y-76.0794
G1 X87.8307 Y-76.1966
G1 X87.7367 Y-76.2414
G1 X87.4091 Y-76.4007
G1 X87.2459 Y-76.4817
G1 X87.0832 Y-76.5634
G1 X86.7334 Y-76.6324
G1 X86.4765 Y-76.6702
G1 X86.1706 Y-76.7073
G1 X85.864 Y-76.7369
G1 X84.5009 Y-76.8512
G1 X84.4924 Y-76.6396
G1 X84.6601 Y-76.6386
G1 X85.0768 Y-76.6253
G1 X85.2465 Y-76.6141
G1 X85.3928 Y-76.6004
G1 X85.6113 Y-76.5705
G1 X85.8259 Y-76.521
G1 X86.0809 Y-76.4371
G1 X86.1394 Y-76.4148
G1 X86.3352 Y-76.3301
G1 X86.4397 Y-76.2755
G1 X86.661 Y-76.1711
G1 X86.7092 Y-76.1479
G1 X86.8954 Y-76.0567
G1 X86.9766 Y-76.0161
G1 X87.4235 Y-75.7812
G1 X87.5766 Y-75.6953
G1 X87.6136 Y-75.6741
G1 X87.7511 Y-75.5934
G1 X87.9548 Y-75.4678
G1 X88.055 Y-75.4026
G1 X88.1542 Y-75.3357
G1 X88.2572 Y-75.2651
G1 X88.4379 Y-75.1425
G1 X88.7113 Y-74.9621
G1 X88.7805 Y-74.9182
G1 X88.99 Y-74.7951
G1 X88.9924 Y-74.7938
G1 X89.1397 Y-74.7339
G1 X89.1522 Y-74.7298
G1 X89.2952 Y-74.6825
G1 X89.5472 Y-74.6061
G1 X89.7624 Y-74.544
G0 Z0.125
G0 X91.6492 Y-75.6334
G0 Z-4.9375
G1 F10.0 Z-5.25
G1 F30.0 X91.6276 Y-75.6709
G1 X87.1593 Y-83.41
G1 X82.691 Y-75.6709
G1 X78.2229 Y-67.9317
G1 X87.1593
G1 X96.0957
G1 X91.6492 Y-75.6334
G0 Z0.125
G0 X90.302 Y-75.6257
G0 Z-5.1875
G1 F10.0 Z-5.5
G1 F30.0 X90.3005 Y-75.8861
G1 X90.1686 Y-75.8017
G1 X90.0269 Y-75.7349
G1 X89.8779 Y-75.6867
G1 X89.724 Y-75.6578
G1 X89.5677 Y-75.6488
G1 X89.5554 Y-75.649
G1 X89.3503 Y-75.6597
G1 X89.1473 Y-75.6904
G1 X89.0563 Y-75.7108
G1 X88.818 Y-75.7766
G1 X88.5859 Y-75.8614
G1 X88.5775 Y-75.8649
G1 X88.482 Y-75.904
G1 X88.3042 Y-75.98
G1 X88.1496 Y-76.0488
G1 X88.0822 Y-76.0794
G1 X87.8307 Y-76.1966
G1 X87.7367 Y-76.2414
G1 X87.4091 Y-76.4007
G1 X87.2459 Y-76.4817
G1 X87.0832 Y-76.5634
G1 X86.7334 Y-76.6324
G1 X86.4765 Y-76.6702
G1 X86.1706 Y-76.7073
G1 X85.864 Y-76.7369
G1 X84.5009 Y-76.8512
G1 X84.4924 Y-76.6396
G1 X84.6601 Y-76.6386
G1 X85.0768 Y-76.6253
G1 X85.2465 Y-76.6141
G1 X85.3928 Y-76.6004
G1 X85.6113 Y-76.5705
G1 X85.8259 Y-76.521
G1 X86.0809 Y-76.4371
G1 X86.1394 Y-76.4148
G1 X86.3352 Y-76.3301
G1 X86.4397 Y-76.2755
G1 X86.661 Y-76.1711
G1 X86.7092 Y-76.1479
G1 X86.8954 Y-76.0567
G1 X86.9766 Y-76.0161
G1 X87.4235 Y-75.7812
G1 X87.5766 Y-75.6953
G1 X87.6136 Y-75.6741
G1 X87.7511 Y-75.5934
G1 X87.9548 Y-75.4678
G1 X88.055 Y-75.4026
G1 X88.1542 Y-75.3357
G1 X88.2572 Y-75.2651
G1 X88.4379 Y-75.1425
G1 X88.7113 Y-74.9621
G1 X88.7805 Y-74.9182
G1 X88.99 Y-74.7951
G1 X88.9924 Y-74.7938
G1 X89.1397 Y-74.7339
G1 X89.1522 Y-74.7298
G1 X89.2952 Y-74.6825
G1 X89.5472 Y-74.6061
G1 X90.2168 Y-74.4199
G1 X90.309 Y-74.3959
G1 X90.302 Y-75.6257
G0 Z0.125
G0 X86.685 Y-74.025
G0 Z-5.1875
G1 F10.0 Z-5.5
G1 F30.0 X86.581 Y-74.2352
G1 X86.4797 Y-74.405
G1 X86.2963 Y-74.6671
G1 X86.0969 Y-74.9173
G1 X85.9716 Y-75.0593
G1 X85.6627 Y-75.3823
G1 X85.3397 Y-75.6911
G1 X85.0788 Y-75.9214
G1 X84.961 Y-76.0223
G1 X84.4622 Y-76.4283
G1 X84.1114 Y-76.6988
G1 X83.9975 Y-76.7155
G1 X83.9929 Y-76.7157
G1 X83.9363 Y-76.7087
G1 X83.9104 Y-76.6938
G1 X83.8997 Y-76.6659
G1 Y-76.665
G1 X83.9141 Y-76.6186
G1 X83.9187 Y-76.6109
G1 X83.9505 Y-76.5634
G1 X84.2679 Y-76.3367
G1 X84.5732 Y-76.0941
G1 X84.8658 Y-75.8361
G1 X85.1142 Y-75.5947
G1 X85.3509 Y-75.3402
G1 X85.5726 Y-75.0726
G1 X85.7786 Y-74.7926
G1 X85.9681 Y-74.5012
G1 X86.0333 Y-74.3917
G1 X86.1839 Y-74.1091
G1 X86.3166 Y-73.8176
G1 X86.4308 Y-73.5184
G1 X86.5262 Y-73.2127
G1 X86.5905 Y-72.9557
G1 X86.6609 Y-72.5922
G1 X86.7115 Y-72.2255
G1 X86.7423 Y-71.8566
G1 X86.7532 Y-71.4865
G1 X86.753 Y-71.4241
G1 X86.7462 Y-70.9742
G1 X86.7194 Y-70.5251
G1 X86.681 Y-70.1456
G1 X86.6346 Y-69.8499
G1 X86.626 Y-69.8064
G1 X86.5341 Y-69.3918
G1 X86.5119 Y-69.3038
G1 X86.3797 Y-68.8333
G1 X86.372 Y-68.8079
G1 X88.133 Y-68.7994
G1 X87.979 Y-69.0062
G1 X87.8415 Y-69.2244
G1 X87.7665 Y-69.3615
G1 X87.6526 Y-69.6013
G1 X87.5662 Y-69.8227
G1 X87.4672 Y-70.1342
G1 X87.4538 Y-70.1824
G1 X87.3762 Y-70.5214
G1 X87.3182 Y-70.8643
G1 X87.2801 Y-71.21
G1 X87.2737 Y-71.2971
G1 X87.2306 Y-71.7701
G1 X87.1677 Y-72.2408
G1 X87.0937 Y-72.6637
G1 X87.0116 Y-73.0339
G1 X86.91 Y-73.3992
G1 X86.7894 Y-73.7586
G1 X86.7022 Y-73.9852
G1 X86.685 Y-74.025
G0 Z0.125
G0 X82.9768 Y-76.166
G0 Z-5.1875
G1 F10.0 Z-5.5
G1 F30.0 X82.691 Y-75.6709
G1 X78.2229 Y-67.9317
G1 X87.1593
G1 X96.0957
G1 X91.6276 Y-75.6709
G1 X87.1593 Y-83.41
G1 X82.9768 Y-76.166
G0 Z0.125
G0 X71.8794 Y-84.5319
G0 Z-4.9375
G1 F10.0 Z-5.25
G1 F30.0 X71.9303 Y-84.616
G1 X71.963 Y-84.7086
G1 X71.9764 Y-84.8059
G1 X71.9765 Y-84.8353
G1 X71.9659 Y-84.9374
G1 X71.9357 Y-85.0356
G1 X71.8871 Y-85.126
G1 X71.8654 Y-85.156
G1 X71.7342 Y-85.3095
G1 X71.5884 Y-85.4492
G1 X71.5638 Y-85.4703
G1 X71.2622 Y-85.7186
G1 X71.113 Y-85.8322
G1 X70.9707 Y-85.9431
G1 X70.9181 Y-85.9857
G1 X70.7373 Y-86.1383
G1 X70.5606 Y-86.2958
G1 X71.4333 Y-86.1432
G1 X71.5886 Y-86.1182
G1 X71.8464 Y-86.0779
G1 X72.04 Y-86.0495
G1 X72.1128 Y-86.0395
G1 X72.3679 Y-86.0084
G1 X72.5943 Y-85.9917
G1 X72.6242 Y-85.991
G1 X72.6848 Y-85.9993
G1 X72.7134 Y-86.0108
G1 X72.7555 Y-86.0444
G1 X72.7766 Y-86.0767
G1 X72.8057 Y-86.1636
G1 X72.8134 Y-86.2126
G1 X72.8211 Y-86.353
G1 X72.8103 Y-86.6456
G1 X72.7983 Y-86.7915
G1 X72.783 Y-86.9372
G1 X72.7005 Y-86.9308
G1 X72.7057 Y-86.8833
G1 X72.7068 Y-86.8355
G1 X72.6994 Y-86.7608
G1 X72.685 Y-86.7165
G1 X72.6547 Y-86.6734
G1 X72.6105 Y-86.6446
G1 X72.5925 Y-86.6387
G1 X72.4849 Y-86.627
G1 X72.3228 Y-86.6174
G1 X72.1606 Y-86.6101
G1 X72.0912 Y-86.6075
G1 X71.8308 Y-86.6006
G1 X71.4401 Y-86.5956
G1 X71.0494 Y-86.5943
G1 X70.9326 Y-86.595
G1 X70.5828 Y-86.6069
G1 X70.3586 Y-86.6227
G1 X70.3026 Y-86.6277
G1 X70.1351 Y-86.645
G1 X70.0715 Y-86.5815
G1 X70.2492 Y-86.417
G1 X70.4 Y-86.2674
G1 X70.5274 Y-86.1316
G1 X70.5816 Y-86.0704
G1 X70.7514 Y-85.8606
G1 X70.773 Y-85.8315
G1 X70.8908 Y-85.6556
G1 X70.9916 Y-85.4694
G1 X71.0075 Y-85.4356
G1 X71.0653 Y-85.2822
G1 X71.0836 Y-85.2171
G1 X71.1078 Y-85.0828
G1 X71.113 Y-84.9877
G1 X71.1045 Y-84.8858
G1 X71.0816 Y-84.8015
G1 X71.0425 Y-84.729
G1 X70.9871 Y-84.668
G1 X70.9186 Y-84.6222
G1 X70.8845 Y-84.6073
G1 X70.7699 Y-84.5749
G1 X70.6514 Y-84.5621
G1 X70.6114 Y-84.5623
G1 X70.4389 Y-84.5781
G1 X70.2694 Y-84.6138
G1 X70.2493 Y-84.6194
G1 X70.2176 Y-84.5178
G1 X70.3776 Y-84.4347
G1 X70.5459 Y-84.3698
G1 X70.687 Y-84.3312
G1 X70.8991 Y-84.2945
G1 X71.1138 Y-84.2777
G1 X71.1891 Y-84.2765
G1 X71.2656 Y-84.2781
G1 X71.4207 Y-84.293
G1 X71.5306 Y-84.3159
G1 X71.6425 Y-84.3539
G1 X71.7463 Y-84.4102
G1 X71.7734 Y-84.4289
G1 X71.8473 Y-84.4936
G1 X71.8794 Y-84.5319
G1 F10.0 Z-5.5
G1 F30.0 X71.9303 Y-84.616
G1 X71.963 Y-84.7086
G1 X71.9764 Y-84.8059
G1 X71.9765 Y-84.8353
G1 X71.9659 Y-84.9374
G1 X71.9357 Y-85.0356
G1 X71.8871 Y-85.126
G1 X71.8654 Y-85.156
G1 X71.7342 Y-85.3095
G1 X71.5884 Y-85.4492
G1 X71.5638 Y-85.4703
G1 X71.2622 Y-85.7186
G1 X71.113 Y-85.8322
G1 X70.9707 Y-85.9431
G1 X70.9181 Y-85.9857
G1 X70.7373 Y-86.1383
G1 X70.5606 Y-86.2958
G1 X71.4333 Y-86.1432
G1 X71.5886 Y-86.1182
G1 X71.8464 Y-86.0779
G1 X72.04 Y-86.0495
G1 X72.1128 Y-86.0395
G1 X72.3679 Y-86.0084
G1 X72.5943 Y-85.9917
G1 X72.6242 Y-85.991
G1 X72.6848 Y-85.9993
G1 X72.7134 Y-86.0108
G1 X72.7555 Y-86.0444
G1 X72.7766 Y-86.0767
G1 X72.8057 Y-86.1636
G1 X72.8134 Y-86.2126
G1 X72.8211 Y-86.353
G1 X72.8103 Y-86.6456
G1 X72.7983 Y-86.7915
G1 X72.783 Y-86.9372
G1 X72.7005 Y-86.9308
G1 X72.7057 Y-86.8833
G1 X72.7068 Y-86.8355
G1 X72.6994 Y-86.7608
G1 X72.685 Y-86.7165
G1 X72.6547 Y-86.6734
G1 X72.6105 Y-86.6446
G1 X72.5925 Y-86.6387
G1 X72.4849 Y-86.627
G1 X72.3228 Y-86.6174
G1 X72.1606 Y-86.6101
G1 X72.0912 Y-86.6075
G1 X71.8308 Y-86.6006
G1 X71.4401 Y-86.5956
G1 X71.0494 Y-86.5943
G1 X70.9326 Y-86.595
G1 X70.5828 Y-86.6069
G1 X70.3586 Y-86.6227
G1 X70.3026 Y-86.6277
G1 X70.1351 Y-86.645
G1 X70.0715 Y-86.5815
G1 X70.2492 Y-86.417
G1 X70.4 Y-86.2674
G1 X70.5274 Y-86.1316
G1 X70.5816 Y-86.0704
G1 X70.7514 Y-85.8606
G1 X70.773 Y-85.8315
G1 X70.8908 Y-85.6556
G1 X70.9916 Y-85.4694
G1 X71.0075 Y-85.4356
G1 X71.0653 Y-85.2822
G1 X71.0836 Y-85.2171
G1 X71.1078 Y-85.0828
G1 X71.113 Y-84.9877
G1 X71.1045 Y-84.8858
G1 X71.0816 Y-84.8015
G1 X71.0425 Y-84.729
G1 X70.9871 Y-84.668
G1 X70.9186 Y-84.6222
G1 X70.8845 Y-84.6073
G1 X70.7699 Y-84.5749
G1 X70.6514 Y-84.5621
G1 X70.6114 Y-84.5623
G1 X70.4389 Y-84.5781
G1 X70.2694 Y-84.6138
G1 X70.2493 Y-84.6194
G1 X70.2176 Y-84.5178
G1 X70.3776 Y-84.4347
G1 X70.5459 Y-84.3698
G1 X70.687 Y-84.3312
G1 X70.8991 Y-84.2945
G1 X71.1138 Y-84.2777
G1 X71.1891 Y-84.2765
G1 X71.2656 Y-84.2781
G1 X71.4207 Y-84.293
G1 X71.5306 Y-84.3159
G1 X71.6425 Y-84.3539
G1 X71.7463 Y-84.4102
G1 X71.7734 Y-84.4289
G1 X71.8473 Y-84.4936
G1 X71.8794 Y-84.5319
G0 Z0.125
G0 X69.1763 Y-93.8481
G0 Z-4.9375
G1 F10.0 Z-5.25
G1 F30.0 X69.2866 Y-93.8906
G1 X69.3881 Y-93.9509
G1 X69.3921 Y-93.9539
G1 X69.4661 Y-94.0186
G1 X69.5253 Y-94.097
G1 X69.5675 Y-94.1857
G1 X69.5908 Y-94.2811
G1 X69.5952 Y-94.3603
G1 X69.5846 Y-94.4624
G1 X69.5545 Y-94.5606
G1 X69.5058 Y-94.651
G1 X69.4841 Y-94.681
G1 X69.3529 Y-94.8345
G1 X69.2072 Y-94.9742
G1 X69.1825 Y-94.9953
G1 X68.8809 Y-95.2436
G1 X68.7317 Y-95.3572
G1 X68.5895 Y-95.4681
G1 X68.5369 Y-95.5107
G1 X68.356 Y-95.6633
G1 X68.1793 Y-95.8208
G1 X69.052 Y-95.6682
G1 X69.2074 Y-95.6432
G1 X69.4651 Y-95.6029
G1 X69.6588 Y-95.5745
G1 X69.7316 Y-95.5645
G1 X69.9866 Y-95.5334
G1 X70.2131 Y-95.5167
G1 X70.2429 Y-95.516
G1 X70.3035 Y-95.5243
G1 X70.3321 Y-95.5358
G1 X70.3743 Y-95.5694
G1 X70.3954 Y-95.6017
G1 X70.4245 Y-95.6886
G1 X70.4321 Y-95.7376
G1 X70.4398 Y-95.878
G1 X70.429 Y-96.1706
G1 X70.4171 Y-96.3165
G1 X70.4017 Y-96.4622
G1 X70.3192 Y-96.4558
G1 X70.3244 Y-96.4083
G1 X70.3256 Y-96.3605
G1 X70.3181 Y-96.2858
G1 X70.3037 Y-96.2415
G1 X70.2734 Y-96.1984
G1 X70.2292 Y-96.1696
G1 X70.2112 Y-96.1637
G1 X70.1037 Y-96.152
G1 X69.9415 Y-96.1424
G1 X69.7794 Y-96.1351
G1 X69.7099 Y-96.1325
G1 X69.4496 Y-96.1256
G1 X69.0589 Y-96.1206
G1 X68.6682 Y-96.1193
G1 X68.5514 Y-96.12
G1 X68.2015 Y-96.1319
G1 X67.9774 Y-96.1477
G1 X67.9214 Y-96.1527
G1 X67.7538 Y-96.17
G1 X67.6903 Y-96.1065
G1 X67.868 Y-95.942
G1 X68.0187 Y-95.7924
G1 X68.1462 Y-95.6566
G1 X68.2003 Y-95.5954
G1 X68.3701 Y-95.3856
G1 X68.3917 Y-95.3565
G1 X68.5096 Y-95.1806
G1 X68.6104 Y-94.9944
G1 X68.6263 Y-94.9606
G1 X68.6841 Y-94.8072
G1 X68.7024 Y-94.7421
G1 X68.7266 Y-94.6078
G1 X68.7317 Y-94.5127
G1 X68.7232 Y-94.4108
G1 X68.7003 Y-94.3265
G1 X68.6613 Y-94.254
G1 X68.6059 Y-94.193
G1 X68.5374 Y-94.1472
G1 X68.5033 Y-94.1323
G1 X68.3886 Y-94.0999
G1 X68.2702 Y-94.0871
G1 X68.2301 Y-94.0873
G1 X68.0576 Y-94.1031
G1 X67.8881 Y-94.1388
G1 X67.868 Y-94.1444
G1 X67.8363 Y-94.0428
G1 X67.9964 Y-93.9597
G1 X68.1646 Y-93.8948
G1 X68.3057 Y-93.8562
G1 X68.5179 Y-93.8195
G1 X68.7326 Y-93.8027
G1 X68.8079 Y-93.8015
G1 X68.8843 Y-93.8031
G1 X69.0395 Y-93.818
G1 X69.1494 Y-93.8409
G1 X69.1763 Y-93.8481
G1 F10.0 Z-5.5
G1 F30.0 X69.2866 Y-93.8906
G1 X69.3881 Y-93.9509
G1 X69.3921 Y-93.9539
G1 X69.4661 Y-94.0186
G1 X69.5253 Y-94.097
G1 X69.5675 Y-94.1857
G1 X69.5908 Y-94.2811
G1 X69.5952 Y-94.3603
G1 X69.5846 Y-94.4624
G1 X69.5545 Y-94.5606
G1 X69.5058 Y-94.651
G1 X69.4841 Y-94.681
G1 X69.3529 Y-94.8345
G1 X69.2072 Y-94.9742
G1 X69.1825 Y-94.9953
G1 X68.8809 Y-95.2436
G1 X68.7317 Y-95.3572
G1 X68.5895 Y-95.4681
G1 X68.5369 Y-95.5107
G1 X68.356 Y-95.6633
G1 X68.1793 Y-95.8208
G1 X69.052 Y-95.6682
G1 X69.2074 Y-95.6432
G1 X69.4651 Y-95.6029
G1 X69.6588 Y-95.5745
G1 X69.7316 Y-95.5645
G1 X69.9866 Y-95.5334
G1 X70.2131 Y-95.5167
G1 X70.2429 Y-95.516
G1 X70.3035 Y-95.5243
G1 X70.3321 Y-95.5358
G1 X70.3743 Y-95.5694
G1 X70.3954 Y-95.6017
G1 X70.4245 Y-95.6886
G1 X70.4321 Y-95.7376
G1 X70.4398 Y-95.878
G1 X70.429 Y-96.1706
G1 X70.4171 Y-96.3165
G1 X70.4017 Y-96.4622
G1 X70.3192 Y-96.4558
G1 X70.3244 Y-96.4083
G1 X70.3256 Y-96.3605
G1 X70.3181 Y-96.2858
G1 X70.3037 Y-96.2415
G1 X70.2734 Y-96.1984
G1 X70.2292 Y-96.1696
G1 X70.2112 Y-96.1637
G1 X70.1037 Y-96.152
G1 X69.9415 Y-96.1424
G1 X69.7794 Y-96.1351
G1 X69.7099 Y-96.1325
G1 X69.4496 Y-96.1256
G1 X69.0589 Y-96.1206
G1 X68.6682 Y-96.1193
G1 X68.5514 Y-96.12
G1 X68.2015 Y-96.1319
G1 X67.9774 Y-96.1477
G1 X67.9214 Y-96.1527
G1 X67.7538 Y-96.17
G1 X67.6903 Y-96.1065
G1 X67.868 Y-95.942
G1 X68.0187 Y-95.7924
G1 X68.1462 Y-95.6566
G1 X68.2003 Y-95.5954
G1 X68.3701 Y-95.3856
G1 X68.3917 Y-95.3565
G1 X68.5096 Y-95.1806
G1 X68.6104 Y-94.9944
G1 X68.6263 Y-94.9606
G1 X68.6841 Y-94.8072
G1 X68.7024 Y-94.7421
G1 X68.7266 Y-94.6078
G1 X68.7317 Y-94.5127
G1 X68.7232 Y-94.4108
G1 X68.7003 Y-94.3265
G1 X68.6613 Y-94.254
G1 X68.6059 Y-94.193
G1 X68.5374 Y-94.1472
G1 X68.5033 Y-94.1323
G1 X68.3886 Y-94.0999
G1 X68.2702 Y-94.0871
G1 X68.2301 Y-94.0873
G1 X68.0576 Y-94.1031
G1 X67.8881 Y-94.1388
G1 X67.868 Y-94.1444
G1 X67.8363 Y-94.0428
G1 X67.9964 Y-93.9597
G1 X68.1646 Y-93.8948
G1 X68.3057 Y-93.8562
G1 X68.5179 Y-93.8195
G1 X68.7326 Y-93.8027
G1 X68.8079 Y-93.8015
G1 X68.8843 Y-93.8031
G1 X69.0395 Y-93.818
G1 X69.1494 Y-93.8409
G1 X69.1763 Y-93.8481
G0 Z0.125
G0 X62.5947 Y-95.166
G0 Z-4.9375
G1 F10.0 Z-5.25
G1 F30.0 X62.6004 Y-95.244
G1 X62.5882 Y-95.3298
G1 X62.5567 Y-95.4106
G1 X62.5083 Y-95.4812
G1 X62.451 Y-95.5358
G1 X62.3819 Y-95.5742
G1 X62.3053 Y-95.5942
G1 X62.2512 Y-95.5964
G1 X62.1657 Y-95.5838
G1 X62.0855 Y-95.5518
G1 X62.0162 Y-95.5036
G1 X61.9627 Y-95.4467
G1 X61.9277 Y-95.384
G1 X61.9056 Y-95.2988
G1 X61.9019 Y-95.2375
G1 X61.9122 Y-95.1563
G1 X61.942 Y-95.0801
G1 X61.9781 Y-95.0262
G1 X62.0347 Y-94.967
G1 X62.104 Y-94.9234
G1 X62.1817 Y-94.8978
G1 X62.2512 Y-94.8915
G1 X62.337 Y-94.9046
G1 X62.4176 Y-94.9369
G1 X62.4861 Y-94.9846
G1 X62.5405 Y-95.0425
G1 X62.5788 Y-95.1122
G1 X62.5947 Y-95.166
G1 F10.0 Z-5.5
G1 F30.0 X62.6004 Y-95.244
G1 X62.5882 Y-95.3298
G1 X62.5567 Y-95.4106
G1 X62.5083 Y-95.4812
G1 X62.451 Y-95.5358
G1 X62.3819 Y-95.5742
G1 X62.3053 Y-95.5942
G1 X62.2512 Y-95.5964
G1 X62.1657 Y-95.5838
G1 X62.0855 Y-95.5518
G1 X62.0162 Y-95.5036
G1 X61.9627 Y-95.4467
G1 X61.9277 Y-95.384
G1 X61.9056 Y-95.2988
G1 X61.9019 Y-95.2375
G1 X61.9122 Y-95.1563
G1 X61.942 Y-95.0801
G1 X61.9781 Y-95.0262
G1 X62.0347 Y-94.967
G1 X62.104 Y-94.9234
G1 X62.1817 Y-94.8978
G1 X62.2512 Y-94.8915
G1 X62.337 Y-94.9046
G1 X62.4176 Y-94.9369
G1 X62.4861 Y-94.9846
G1 X62.5405 Y-95.0425
G1 X62.5788 Y-95.1122
G1 X62.5947 Y-95.166
G0 Z0.125
G0 X63.7337 Y-100.8944
G0 Z-4.9375
G1 F10.0 Z-5.25
G1 F30.0 X63.8684 Y-100.9627
G1 X63.946 Y-100.9924
G1 X64.0572 Y-101.0288
G1 X64.1136 Y-101.0445
G1 X64.1702 Y-101.0588
G1 X64.4148 Y-101.1165
G1 X64.6598 Y-101.1723
G1 X64.8913
G1 X65.2418
G1 X65.5803 Y-101.1809
G1 X65.9177 Y-101.2095
G1 X66.1212 Y-101.2365
G1 X66.4096 Y-101.2901
G1 X66.6937 Y-101.3633
G1 X66.9721 Y-101.4556
G1 X66.9749 Y-101.4567
G1 X67.1254 Y-101.5223
G1 X67.2667 Y-101.6057
G1 X67.292 Y-101.6231
G1 X67.4012 Y-101.7124
G1 X67.4967 Y-101.8163
G1 X67.5765 Y-101.9326
G1 X67.6296 Y-102.0367
G1 X67.6802 Y-102.1788
G1 X67.7064 Y-102.2939
G1 X67.7265 Y-102.4587
G1 X67.7289 Y-102.5614
G1 X67.7274 Y-102.6738
G1 X67.7139 Y-102.9142
G1 X67.6905 Y-103.0941
G1 X67.6451 Y-103.3163
G1 X67.6214 Y-103.4044
G1 X67.559 Y-103.5814
G1 X67.4781 Y-103.7507
G1 X67.4261 Y-103.8397
G1 X67.3307 Y-103.9706
G1 X67.2198 Y-104.0888
G1 X67.1006 Y-104.1885
G1 X66.9366 Y-104.2949
G1 X66.7626 Y-104.384
G1 X66.6605 Y-104.4263
G1 X66.5725 Y-104.4587
G1 X66.3254 Y-104.5315
G1 X66.0733 Y-104.5849
G1 X65.8886 Y-104.6113
G1 X65.5557 Y-104.6414
G1 X65.2215 Y-104.6516
G1 X65.189 Y-104.6515
G1 X65.0339 Y-105.0669
G1 X64.8008 Y-105.6898
G1 X64.684 Y-106.0012
G1 X64.6256 Y-106.1568
G1 X64.5671 Y-106.3124
G1 X63.8621 Y-108.1948
G1 X63.1582 Y-110.0775
G1 X62.8391 Y-110.9312
G1 X61.8817 Y-113.492
G1 X61.348 Y-112.1016
G1 X61.3198 Y-112.0266
G1 X61.0465 Y-111.2912
G1 X60.777 Y-110.5542
G1 X60.6721 Y-110.2652
G1 X60.2808 Y-109.1805
G1 X60.2625 Y-109.1296
G1 X59.975 Y-108.3283
G1 X59.8674 Y-108.0277
G1 X59.4916 Y-106.9755
G1 X59.3978 Y-106.7124
G1 X59.3274 Y-106.515
G1 X59.2747 Y-106.367
G1 X59.1957 Y-106.145
G1 X59.1167 Y-105.923
G1 X57.6218 Y-101.7281
G1 X57.5598 Y-101.6167
G1 X57.4812 Y-101.5163
G1 X57.4042 Y-101.4428
G1 X57.2866 Y-101.3585
G1 X57.1585 Y-101.2912
G1 X57.0926 Y-101.2649
G1 X56.9229 Y-101.2116
G1 X56.418 Y-101.04
G1 X59.7517
G1 X59.6064 Y-101.127
G1 X59.5157 Y-101.1942
G1 X59.4391 Y-101.2692
G1 X59.4165 Y-101.2977
G1 X59.3795 Y-101.3619
G1 X59.3615 Y-101.4302
G1 X59.3484 Y-101.5722
G1 X59.3416 Y-101.7146
G1 X59.3251 Y-101.7662
G1 X59.3241 Y-101.7808
G1 X59.3238 Y-101.9073
G1 X59.3241 Y-101.9115
G1 X59.3349 Y-102.0334
G1 X59.3662 Y-102.2605
G1 X59.3701 Y-102.2853
G1 X59.3864 Y-102.3828
G1 X59.4192 Y-102.565
G1 X59.45 Y-102.7241
G1 X59.5068 Y-103.0019
G1 X59.5974 Y-103.4174
G1 X59.6922 Y-103.8319
G1 X59.8456 Y-104.4868
G1 X59.9808 Y-105.0596
G1 X60.459 Y-107.0633
G1 X60.7002 Y-108.0646
G1 X60.9424 Y-109.0657
G1 X61.1704 Y-110.0112
G1 X61.3397 Y-110.7208
G1 X61.5886 Y-111.7864
G1 X61.6491 Y-112.0533
G1 X61.6715 Y-112.1534
G1 X61.7101 Y-112.3288
G1 X61.7659 Y-112.5923
G1 X61.8155 Y-112.8569
G1 X61.8983 Y-112.6375
G1 X61.9703 Y-112.4454
G1 X62.2189 Y-111.7719
G1 X62.2498 Y-111.6875
G1 X62.2767 Y-111.6137
G1 X62.4637 Y-111.0968
G1 X62.7922 Y-110.1807
G1 X62.8076 Y-110.1377
G1 X63.2909 Y-108.7844
G1 X63.7734 Y-107.4309
G1 X64.3496 Y-105.8057
G1 X64.4212 Y-105.6023
G1 X64.4524 Y-105.5133
G1 X64.6852 Y-104.8455
G1 X64.7427 Y-104.6783
G1 X64.8281 Y-104.4272
G1 X64.8334 Y-104.4114
G1 X64.9111 Y-104.1753
G1 X65.3732 Y-104.168
G1 X65.8344 Y-104.1406
G1 X65.8984 Y-104.1353
G1 X66.1929 Y-104.0988
G1 X66.3898 Y-104.063
G1 X66.5919 Y-104.01
G1 X66.6305 Y-103.9975
G1 X66.7635 Y-103.9427
G1 X66.8558 Y-103.8908
G1 X66.9602 Y-103.8086
G1 X67.0512 Y-103.7117
G1 X67.1265 Y-103.6022
G1 X67.1846 Y-103.4827
G1 X67.1911 Y-103.4659
G1 X67.2372 Y-103.3196
G1 X67.2597 Y-103.2028
G1 X67.2776 Y-103.0152
G1 X67.2791 Y-102.9317
G1 X67.2691 Y-102.7684
G1 X67.2558 Y-102.6832
G1 X67.2219 Y-102.5579
G1 X67.1692 Y-102.4393
G1 X67.1065 Y-102.3404
G1 X67.0203 Y-102.2456
G1 X66.9203 Y-102.1653
G1 X66.8161 Y-102.1049
G1 X66.6249 Y-102.0236
G1 X66.4269 Y-101.9611
G1 X66.2539 Y-101.9231
G1 X66.1809 Y-101.9107
G1 X65.9249 Y-101.8821
G1 X65.6675 Y-101.8734
G1 X65.6652
G1 X65.4943 Y-101.8753
G1 X65.3662 Y-101.8798
G1 X65.3422 Y-101.881
G1 X65.1058 Y-101.9013
G1 X64.9839 Y-101.9197
G1 X64.7365 Y-101.9741
G1 X64.5606 Y-102.0256
G1 X64.1107 Y-102.1777
G1 X63.9126 Y-102.2497
G1 X63.7618 Y-102.3146
G1 X63.7205 Y-102.3364
G1 X63.7337 Y-100.8944
G1 F10.0 Z-5.5
G1 F30.0 X63.8684 Y-100.9627
G1 X63.946 Y-100.9924
G1 X64.0572 Y-101.0288
G1 X64.1136 Y-101.0445
G1 X64.1702 Y-101.0588
G1 X64.4148 Y-101.1165
G1 X64.6598 Y-101.1723
G1 X64.8913
G1 X65.2418
G1 X65.5803 Y-101.1809
G1 X65.9177 Y-101.2095
G1 X66.1212 Y-101.2365
G1 X66.4096 Y-101.2901
G1 X66.6937 Y-101.3633
G1 X66.9721 Y-101.4556
G1 X66.9749 Y-101.4567
G1 X67.1254 Y-101.5223
G1 X67.2667 Y-101.6057
G1 X67.292 Y-101.6231
G1 X67.4012 Y-101.7124
G1 X67.4967 Y-101.8163
G1 X67.5765 Y-101.9326
G1 X67.6296 Y-102.0367
G1 X67.6802 Y-102.1788
G1 X67.7064 Y-102.2939
G1 X67.7265 Y-102.4587
G1 X67.7289 Y-102.5614
G1 X67.7274 Y-102.6738
G1 X67.7139 Y-102.9142
G1 X67.6905 Y-103.0941
G1 X67.6451 Y-103.3163
G1 X67.6214 Y-103.4044
G1 X67.559 Y-103.5814
G1 X67.4781 Y-103.7507
G1 X67.4261 Y-103.8397
G1 X67.3307 Y-103.9706
G1 X67.2198 Y-104.0888
G1 X67.1006 Y-104.1885
G1 X66.9366 Y-104.2949
G1 X66.7626 Y-104.384
G1 X66.6605 Y-104.4263
G1 X66.5725 Y-104.4587
G1 X66.3254 Y-104.5315
G1 X66.0733 Y-104.5849
G1 X65.8886 Y-104.6113
G1 X65.5557 Y-104.6414
G1 X65.2215 Y-104.6516
G1 X65.189 Y-104.6515
G1 X65.0339 Y-105.0669
G1 X64.8008 Y-105.6898
G1 X64.684 Y-106.0012
G1 X64.6256 Y-106.1568
G1 X64.5671 Y-106.3124
G1 X63.8621 Y-108.1948
G1 X63.1582 Y-110.0775
G1 X62.8391 Y-110.9312
G1 X61.8817 Y-113.492
G1 X61.348 Y-112.1016
G1 X61.3198 Y-112.0266
G1 X61.0465 Y-111.2912
G1 X60.777 Y-110.5542
G1 X60.6721 Y-110.2652
G1 X60.2808 Y-109.1805
G1 X60.2625 Y-109.1296
G1 X59.975 Y-108.3283
G1 X59.8674 Y-108.0277
G1 X59.4916 Y-106.9755
G1 X59.3978 Y-106.7124
G1 X59.3274 Y-106.515
G1 X59.2747 Y-106.367
G1 X59.1957 Y-106.145
G1 X59.1167 Y-105.923
G1 X57.6218 Y-101.7281
G1 X57.5598 Y-101.6167
G1 X57.4812 Y-101.5163
G1 X57.4042 Y-101.4428
G1 X57.2866 Y-101.3585
G1 X57.1585 Y-101.2912
G1 X57.0926 Y-101.2649
G1 X56.9229 Y-101.2116
G1 X56.418 Y-101.04
G1 X59.7517
G1 X59.6064 Y-101.127
G1 X59.5157 Y-101.1942
G1 X59.4391 Y-101.2692
G1 X59.4165 Y-101.2977
G1 X59.3795 Y-101.3619
G1 X59.3615 Y-101.4302
G1 X59.3484 Y-101.5722
G1 X59.3416 Y-101.7146
G1 X59.3251 Y-101.7662
G1 X59.3241 Y-101.7808
G1 X59.3238 Y-101.9073
G1 X59.3241 Y-101.9115
G1 X59.3349 Y-102.0334
G1 X59.3662 Y-102.2605
G1 X59.3701 Y-102.2853
G1 X59.3864 Y-102.3828
G1 X59.4192 Y-102.565
G1 X59.45 Y-102.7241
G1 X59.5068 Y-103.0019
G1 X59.5974 Y-103.4174
G1 X59.6922 Y-103.8319
G1 X59.8456 Y-104.4868
G1 X59.9808 Y-105.0596
G1 X60.459 Y-107.0633
G1 X60.7002 Y-108.0646
G1 X60.9424 Y-109.0657
G1 X61.1704 Y-110.0112
G1 X61.3397 Y-110.7208
G1 X61.5886 Y-111.7864
G1 X61.6491 Y-112.0533
G1 X61.6715 Y-112.1534
G1 X61.7101 Y-112.3288
G1 X61.7659 Y-112.5923
G1 X61.8155 Y-112.8569
G1 X61.8983 Y-112.6375
G1 X61.9703 Y-112.4454
G1 X62.2189 Y-111.7719
G1 X62.2498 Y-111.6875
G1 X62.2767 Y-111.6137
G1 X62.4637 Y-111.0968
G1 X62.7922 Y-110.1807
G1 X62.8076 Y-110.1377
G1 X63.2909 Y-108.7844
G1 X63.7734 Y-107.4309
G1 X64.3496 Y-105.8057
G1 X64.4212 Y-105.6023
G1 X64.4524 Y-105.5133
G1 X64.6852 Y-104.8455
G1 X64.7427 Y-104.6783
G1 X64.8281 Y-104.4272
G1 X64.8334 Y-104.4114
G1 X64.9111 Y-104.1753
G1 X65.3732 Y-104.168
G1 X65.8344 Y-104.1406
G1 X65.8984 Y-104.1353
G1 X66.1929 Y-104.0988
G1 X66.3898 Y-104.063
G1 X66.5919 Y-104.01
G1 X66.6305 Y-103.9975
G1 X66.7635 Y-103.9427
G1 X66.8558 Y-103.8908
G1 X66.9602 Y-103.8086
G1 X67.0512 Y-103.7117
G1 X67.1265 Y-103.6022
G1 X67.1846 Y-103.4827
G1 X67.1911 Y-103.4659
G1 X67.2372 Y-103.3196
G1 X67.2597 Y-103.2028
G1 X67.2776 Y-103.0152
G1 X67.2791 Y-102.9317
G1 X67.2691 Y-102.7684
G1 X67.2558 Y-102.6832
G1 X67.2219 Y-102.5579
G1 X67.1692 Y-102.4393
G1 X67.1065 Y-102.3404
G1 X67.0203 Y-102.2456
G1 X66.9203 Y-102.1653
G1 X66.8161 Y-102.1049
G1 X66.6249 Y-102.0236
G1 X66.4269 Y-101.9611
G1 X66.2539 Y-101.9231
G1 X66.1809 Y-101.9107
G1 X65.9249 Y-101.8821
G1 X65.6675 Y-101.8734
G1 X65.6652
G1 X65.4943 Y-101.8753
G1 X65.3662 Y-101.8798
G1 X65.3422 Y-101.881
G1 X65.1058 Y-101.9013
G1 X64.9839 Y-101.9197
G1 X64.7365 Y-101.9741
G1 X64.5606 Y-102.0256
G1 X64.1107 Y-102.1777
G1 X63.9126 Y-102.2497
G1 X63.7618 Y-102.3146
G1 X63.7205 Y-102.3364
G1 X63.7337 Y-100.8944
G0 Z0.125
G0 X56.1686 Y-97.5304
G0 Z-4.9375
G1 F10.0 Z-5.25
G1 F30.0 X54.6065 Y-97.5494
G1 X54.7291 Y-97.4908
G1 X54.8417 Y-97.4149
G1 X54.8968 Y-97.3679
G1 X55.0011 Y-97.2548
G1 X55.09 Y-97.1291
G1 X55.1081 Y-97.0986
G1 X55.2616 Y-96.8163
G1 X55.3972 Y-96.5251
G1 X55.4256 Y-96.4572
G1 X55.429 Y-96.4175
G1 X55.4542 Y-96.1397
G1 X55.4854 Y-95.9063
G1 X55.505 Y-95.8063
G1 X55.5323 Y-95.6348
G1 X55.5399 Y-95.4856
G1 X55.5328 Y-95.3387
G1 X55.5059 Y-95.1941
G1 X55.4596 Y-95.0545
G1 X55.4273 Y-94.9831
G1 X55.3525 Y-94.8635
G1 X55.2615 Y-94.7557
G1 X55.1562 Y-94.6618
G1 X55.0764 Y-94.6062
G1 X54.9066 Y-94.5065
G1 X54.7275 Y-94.4245
G1 X54.6161 Y-94.3841
G1 X54.4413 Y-94.338
G1 X54.2625 Y-94.3115
G1 X54.1112 Y-94.3046
G1 X53.9218 Y-94.3139
G1 X53.7701 Y-94.3359
G1 X53.611 Y-94.3755
G1 X53.4579 Y-94.434
G1 X53.3131 Y-94.5108
G1 X53.1786 Y-94.6047
G1 X53.0567 Y-94.7142
G1 X52.9489 Y-94.8378
G1 X52.9205 Y-94.876
G1 X52.8026 Y-95.0498
G1 X52.7017 Y-95.234
G1 X52.6187 Y-95.4269
G1 X52.6087 Y-95.4542
G1 X52.5527 Y-95.6434
G1 X52.5162 Y-95.8373
G1 X52.4994 Y-96.0339
G1 X52.4983 Y-96.1016
G1 X52.5091 Y-96.269
G1 X52.5397 Y-96.434
G1 X52.5809 Y-96.57
G1 X52.6589 Y-96.7592
G1 X52.7551 Y-96.9399
G1 X52.7904 Y-96.9969
G1 X52.8419 Y-97.0631
G1 X53.1822 Y-97.5105
G1 X53.1968 Y-97.5304
G1 X51.3172
G1 X51.4101 Y-97.4605
G1 X51.4568 Y-97.4144
G1 X51.563 Y-97.28
G1 X51.6398 Y-97.1579
G1 X51.7483 Y-96.9406
G1 X51.8338 Y-96.7283
G1 X51.8733 Y-96.6173
G1 X51.9013 Y-96.5333
G1 X51.9407 Y-96.4068
G1 X51.9594 Y-96.3432
G1 X51.9775 Y-96.2794
G1 X52.0378 Y-96.073
G1 X52.1588 Y-95.7097
G1 X52.2935 Y-95.3653
G1 X52.4073 Y-95.1195
G1 X52.5388 Y-94.8828
G1 X52.6538 Y-94.7046
G1 X52.7472 Y-94.5916
G1 X52.8552 Y-94.4923
G1 X52.9565 Y-94.4202
G1 X53.1042 Y-94.3396
G1 X53.2355 Y-94.2857
G1 X53.433 Y-94.2267
G1 X53.6353 Y-94.1871
G1 X53.6868 Y-94.1803
G1 X53.9175 Y-94.1587
G1 X53.9754 Y-94.1557
G1 X54.0189 Y-94.1541
G1 X54.1492 Y-94.1521
G1 X54.3284 Y-94.1603
G1 X54.5056 Y-94.1884
G1 X54.6785 Y-94.236
G1 X54.8451 Y-94.3026
G1 X54.9652 Y-94.3649
G1 X55.1411 Y-94.4736
G1 X55.2753 Y-94.5738
G1 X55.4072 Y-94.6895
G1 X55.5252 Y-94.8194
G1 X55.5399 Y-94.838
G1 X55.5526 Y-94.657
G1 X55.559 Y-94.4633
G1 X55.5509 Y-94.1899
G1 X55.5229 Y-93.9179
G1 X55.4751 Y-93.6486
G1 X55.4077 Y-93.3835
G1 X55.3844 Y-93.3071
G1 X55.3245 Y-93.1442
G1 X55.2463 Y-92.9893
G1 X55.1918 Y-92.9021
G1 X55.1141 Y-92.8046
G1 X55.0218 Y-92.7208
G1 X54.9174 Y-92.6528
G1 X54.8446 Y-92.6181
G1 X54.5791 Y-92.5218
G1 X54.5458 Y-92.5112
G1 X54.3409 Y-92.4541
G1 X54.2382 Y-92.4331
G1 X53.9995 Y-92.4024
G1 X53.7683 Y-92.3916
G1 X53.5033 Y-92.4019
G1 X53.4076 Y-92.4105
G1 X53.2177 Y-92.4408
G1 X53.0539 Y-92.4837
G1 X52.932 Y-92.525
G1 X52.6637 Y-92.6309
G1 X52.5745 Y-92.671
G1 X52.5871 Y-91.6613
G1 X52.7292 Y-91.7175
G1 X52.9795 Y-91.7985
G1 X53.2353 Y-91.8603
G1 X53.2431 Y-91.8618
G1 X53.5368 Y-91.9122
G1 X53.7715 Y-91.938
G1 X54.0466 Y-91.9703
G1 X54.1492 Y-91.987
G1 X54.3276 Y-92.0231
G1 X54.5263 Y-92.0759
G1 X54.7189 Y-92.1477
G1 X54.8414 Y-92.2051
G1 X54.9835 Y-92.2928
G1 X55.114 Y-92.3969
G1 X55.2312 Y-92.5158
G1 X55.2314 Y-92.5161
G1 X55.3609 Y-92.6793
G1 X55.4742 Y-92.8542
G1 X55.5145 Y-92.9267
G1 X55.6081 Y-93.1212
G1 X55.6833 Y-93.3236
G1 X55.7395 Y-93.532
G1 X55.7761 Y-93.7448
G1 X55.7929 Y-93.96
G1 X55.7939 Y-94.0586
G1 X55.7935 Y-94.1481
G1 X55.7911 Y-94.3159
G1 X55.7837 Y-94.6093
G1 X55.7495 Y-95.4893
G1 X55.7383 Y-95.7388
G1 X55.7302 Y-95.926
G1 X55.7287 Y-95.9611
G1 X55.7273 Y-95.9941
G1 X55.726 Y-96.025
G1 X55.7248 Y-96.0539
G1 X55.7237 Y-96.0811
G1 X55.7226 Y-96.1065
G1 X55.7217 Y-96.1304
G1 X55.7208 Y-96.1527
G1 X55.7191 Y-96.1946
G1 X55.7114 Y-96.4876
G1 X55.7246 Y-96.6254
G1 X55.7575 Y-96.7599
G1 X55.7686 Y-96.7924
G1 X55.8365 Y-96.9533
G1 X55.9018 Y-97.0725
G1 X55.9689 Y-97.1868
G1 X56.1686 Y-97.5304
G1 F10.0 Z-5.5
G1 F30.0 X54.6065 Y-97.5494
G1 X54.7291 Y-97.4908
G1 X54.8417 Y-97.4149
G1 X54.8968 Y-97.3679
G1 X55.0011 Y-97.2548
G1 X55.09 Y-97.1291
G1 X55.1081 Y-97.0986
G1 X55.2616 Y-96.8163
G1 X55.3972 Y-96.5251
G1 X55.4256 Y-96.4572
G1 X55.429 Y-96.4175
G1 X55.4542 Y-96.1397
G1 X55.4854 Y-95.9063
G1 X55.505 Y-95.8063
G1 X55.5323 Y-95.6348
G1 X55.5399 Y-95.4856
G1 X55.5328 Y-95.3387
G1 X55.5059 Y-95.1941
G1 X55.4596 Y-95.0545
G1 X55.4273 Y-94.9831
G1 X55.3525 Y-94.8635
G1 X55.2615 Y-94.7557
G1 X55.1562 Y-94.6618
G1 X55.0764 Y-94.6062
G1 X54.9066 Y-94.5065
G1 X54.7275 Y-94.4245
G1 X54.6161 Y-94.3841
G1 X54.4413 Y-94.338
G1 X54.2625 Y-94.3115
G1 X54.1112 Y-94.3046
G1 X53.9218 Y-94.3139
G1 X53.7701 Y-94.3359
G1 X53.611 Y-94.3755
G1 X53.4579 Y-94.434
G1 X53.3131 Y-94.5108
G1 X53.1786 Y-94.6047
G1 X53.0567 Y-94.7142
G1 X52.9489 Y-94.8378
G1 X52.9205 Y-94.876
G1 X52.8026 Y-95.0498
G1 X52.7017 Y-95.234
G1 X52.6187 Y-95.4269
G1 X52.6087 Y-95.4542
G1 X52.5527 Y-95.6434
G1 X52.5162 Y-95.8373
G1 X52.4994 Y-96.0339
G1 X52.4983 Y-96.1016
G1 X52.5091 Y-96.269
G1 X52.5397 Y-96.434
G1 X52.5809 Y-96.57
G1 X52.6589 Y-96.7592
G1 X52.7551 Y-96.9399
G1 X52.7904 Y-96.9969
G1 X52.8419 Y-97.0631
G1 X53.1822 Y-97.5105
G1 X53.1968 Y-97.5304
G1 X51.3172
G1 X51.4101 Y-97.4605
G1 X51.4568 Y-97.4144
G1 X51.563 Y-97.28
G1 X51.6398 Y-97.1579
G1 X51.7483 Y-96.9406
G1 X51.8338 Y-96.7283
G1 X51.8733 Y-96.6173
G1 X51.9013 Y-96.5333
G1 X51.9407 Y-96.4068
G1 X51.9594 Y-96.3432
G1 X51.9775 Y-96.2794
G1 X52.0378 Y-96.073
G1 X52.1588 Y-95.7097
G1 X52.2935 Y-95.3653
G1 X52.4073 Y-95.1195
G1 X52.5388 Y-94.8828
G1 X52.6538 Y-94.7046
G1 X52.7472 Y-94.5916
G1 X52.8552 Y-94.4923
G1 X52.9565 Y-94.4202
G1 X53.1042 Y-94.3396
G1 X53.2355 Y-94.2857
G1 X53.433 Y-94.2267
G1 X53.6353 Y-94.1871
G1 X53.6868 Y-94.1803
G1 X53.9175 Y-94.1587
G1 X53.9754 Y-94.1557
G1 X54.0189 Y-94.1541
G1 X54.1492 Y-94.1521
G1 X54.3284 Y-94.1603
G1 X54.5056 Y-94.1884
G1 X54.6785 Y-94.236
G1 X54.8451 Y-94.3026
G1 X54.9652 Y-94.3649
G1 X55.1411 Y-94.4736
G1 X55.2753 Y-94.5738
G1 X55.4072 Y-94.6895
G1 X55.5252 Y-94.8194
G1 X55.5399 Y-94.838
G1 X55.5526 Y-94.657
G1 X55.559 Y-94.4633
G1 X55.5509 Y-94.1899
G1 X55.5229 Y-93.9179
G1 X55.4751 Y-93.6486
G1 X55.4077 Y-93.3835
G1 X55.3844 Y-93.3071
G1 X55.3245 Y-93.1442
G1 X55.2463 Y-92.9893
G1 X55.1918 Y-92.9021
G1 X55.1141 Y-92.8046
G1 X55.0218 Y-92.7208
G1 X54.9174 Y-92.6528
G1 X54.8446 Y-92.6181
G1 X54.5791 Y-92.5218
G1 X54.5458 Y-92.5112
G1 X54.3409 Y-92.4541
G1 X54.2382 Y-92.4331
G1 X53.9995 Y-92.4024
G1 X53.7683 Y-92.3916
G1 X53.5033 Y-92.4019
G1 X53.4076 Y-92.4105
G1 X53.2177 Y-92.4408
G1 X53.0539 Y-92.4837
G1 X52.932 Y-92.525
G1 X52.6637 Y-92.6309
G1 X52.5745 Y-92.671
G1 X52.5871 Y-91.6613
G1 X52.7292 Y-91.7175
G1 X52.9795 Y-91.7985
G1 X53.2353 Y-91.8603
G1 X53.2431 Y-91.8618
G1 X53.5368 Y-91.9122
G1 X53.7715 Y-91.938
G1 X54.0466 Y-91.9703
G1 X54.1492 Y-91.987
G1 X54.3276 Y-92.0231
G1 X54.5263 Y-92.0759
G1 X54.7189 Y-92.1477
G1 X54.8414 Y-92.2051
G1 X54.9835 Y-92.2928
G1 X55.114 Y-92.3969
G1 X55.2312 Y-92.5158
G1 X55.2314 Y-92.5161
G1 X55.3609 Y-92.6793
G1 X55.4742 Y-92.8542
G1 X55.5145 Y-92.9267
G1 X55.6081 Y-93.1212
G1 X55.6833 Y-93.3236
G1 X55.7395 Y-93.532
G1 X55.7761 Y-93.7448
G1 X55.7929 Y-93.96
G1 X55.7939 Y-94.0586
G1 X55.7935 Y-94.1481
G1 X55.7911 Y-94.3159
G1 X55.7837 Y-94.6093
G1 X55.7495 Y-95.4893
G1 X55.7383 Y-95.7388
G1 X55.7302 Y-95.926
G1 X55.7287 Y-95.9611
G1 X55.7273 Y-95.9941
G1 X55.726 Y-96.025
G1 X55.7248 Y-96.0539
G1 X55.7237 Y-96.0811
G1 X55.7226 Y-96.1065
G1 X55.7217 Y-96.1304
G1 X55.7208 Y-96.1527
G1 X55.7191 Y-96.1946
G1 X55.7114 Y-96.4876
G1 X55.7246 Y-96.6254
G1 X55.7575 Y-96.7599
G1 X55.7686 Y-96.7924
G1 X55.8365 Y-96.9533
G1 X55.9018 Y-97.0725
G1 X55.9689 Y-97.1868
G1 X56.1686 Y-97.5304
G0 Z0.125
G0 X76.1085 Y-102.9803
G0 Z-4.9375
G1 F10.0 Z-5.25
G1 F30.0 X79.4423
G1 X79.2969 Y-103.0673
G1 X79.2062 Y-103.1344
G1 X79.1296 Y-103.2094
G1 X79.107 Y-103.238
G1 X79.07 Y-103.3021
G1 X79.052 Y-103.3705
G1 X79.039 Y-103.5125
G1 X79.0321 Y-103.6549
G1 X79.0157 Y-103.7065
G1 X79.0146 Y-103.721
G1 X79.0143 Y-103.8476
G1 X79.0146 Y-103.8518
G1 X79.0254 Y-103.9737
G1 X79.0567 Y-104.2008
G1 X79.0606 Y-104.2256
G1 X79.0769 Y-104.3231
G1 X79.1098 Y-104.5053
G1 X79.1405 Y-104.6644
G1 X79.1974 Y-104.9422
G1 X79.2879 Y-105.3576
G1 X79.3828 Y-105.7722
G1 X79.5361 Y-106.4271
G1 X79.6713 Y-106.9999
G1 X80.1496 Y-109.0035
G1 X80.3907 Y-110.0049
G1 X80.6329 Y-111.006
G1 X80.8609 Y-111.9515
G1 X81.0302 Y-112.6611
G1 X81.2791 Y-113.7267
G1 X81.3396 Y-113.9936
G1 X81.362 Y-114.0937
G1 X81.4006 Y-114.2691
G1 X81.4565 Y-114.5326
G1 X81.506 Y-114.7972
G1 X81.5888 Y-114.5778
G1 X81.6608 Y-114.3857
G1 X81.9095 Y-113.7121
G1 X81.9403 Y-113.6278
G1 X81.9672 Y-113.554
G1 X82.1542 Y-113.0371
G1 X82.4827 Y-112.121
G1 X82.4981 Y-112.078
G1 X82.9814 Y-110.7247
G1 X83.4639 Y-109.3712
G1 X84.0402 Y-107.746
G1 X84.1117 Y-107.5426
G1 X84.143 Y-107.4536
G1 X84.3757 Y-106.7858
G1 X84.4333 Y-106.6186
G1 X84.5186 Y-106.3675
G1 X84.5239 Y-106.3517
G1 X84.6016 Y-106.1156
G1 X85.0637 Y-106.1082
G1 X85.525 Y-106.0809
G1 X85.589 Y-106.0755
G1 X85.8834 Y-106.039
G1 X86.0804 Y-106.0032
G1 X86.2824 Y-105.9503
G1 X86.321 Y-105.9378
G1 X86.454 Y-105.8829
G1 X86.5463 Y-105.8311
G1 X86.6508 Y-105.7489
G1 X86.7417 Y-105.652
G1 X86.8171 Y-105.5425
G1 X86.8752 Y-105.423
G1 X86.8816 Y-105.4061
G1 X86.9278 Y-105.2599
G1 X86.9502 Y-105.1431
G1 X86.9681 Y-104.9555
G1 X86.9696 Y-104.872
G1 X86.9596 Y-104.7086
G1 X86.9464 Y-104.6235
G1 X86.9125 Y-104.4982
G1 X86.8597 Y-104.3796
G1 X86.797 Y-104.2807
G1 X86.7108 Y-104.1859
G1 X86.6109 Y-104.1056
G1 X86.5066 Y-104.0452
G1 X86.3155 Y-103.9639
G1 X86.1174 Y-103.9014
G1 X85.9444 Y-103.8633
G1 X85.8715 Y-103.851
G1 X85.6155 Y-103.8223
G1 X85.358 Y-103.8136
G1 X85.3557
G1 X85.1848 Y-103.8156
G1 X85.0567 Y-103.8201
G1 X85.0327 Y-103.8213
G1 X84.7963 Y-103.8416
G1 X84.6744 Y-103.86
G1 X84.427 Y-103.9144
G1 X84.2511 Y-103.9658
G1 X83.8013 Y-104.1179
G1 X83.6032 Y-104.19
G1 X83.4523 Y-104.2549
G1 X83.411 Y-104.2767
G1 X83.4243 Y-102.8347
G1 X83.5589 Y-102.9029
G1 X83.6366 Y-102.9327
G1 X83.7477 Y-102.9691
G1 X83.8041 Y-102.9848
G1 X83.8608 Y-102.9991
G1 X84.1053 Y-103.0567
G1 X84.3503 Y-103.1126
G1 X84.5818
G1 X84.9324
G1 X85.2708 Y-103.1212
G1 X85.6082 Y-103.1498
G1 X85.8117 Y-103.1768
G1 X86.1001 Y-103.2304
G1 X86.3842 Y-103.3036
G1 X86.6626 Y-103.3959
G1 X86.6654 Y-103.397
G1 X86.8159 Y-103.4625
G1 X86.9573 Y-103.5459
G1 X86.9825 Y-103.5634
G1 X87.0917 Y-103.6527
G1 X87.1872 Y-103.7565
G1 X87.267 Y-103.8729
G1 X87.3202 Y-103.977
G1 X87.3708 Y-104.1191
G1 X87.3969 Y-104.2341
G1 X87.417 Y-104.399
G1 X87.4195 Y-104.5016
G1 X87.418 Y-104.6141
G1 X87.4044 Y-104.8545
G1 X87.381 Y-105.0344
G1 X87.3357 Y-105.2566
G1 X87.3119 Y-105.3447
G1 X87.2495 Y-105.5217
G1 X87.1686 Y-105.691
G1 X87.1166 Y-105.78
G1 X87.0212 Y-105.9109
G1 X86.9104 Y-106.029
G1 X86.7911 Y-106.1288
G1 X86.6271 Y-106.2351
G1 X86.4531 Y-106.3242
G1 X86.351 Y-106.3666
G1 X86.2631 Y-106.399
G1 X86.0159 Y-106.4718
G1 X85.7639 Y-106.5252
G1 X85.5791 Y-106.5516
G1 X85.2462 Y-106.5817
G1 X84.9121 Y-106.5919
G1 X84.8795 Y-106.5918
G1 X84.7244 Y-107.0072
G1 X84.4913 Y-107.6301
G1 X84.3745 Y-107.9414
G1 X84.3161 Y-108.0971
G1 X84.2576 Y-108.2527
G1 X83.5527 Y-110.135
G1 X82.8488 Y-112.0178
G1 X82.5297 Y-112.8715
G1 X81.5722 Y-115.4322
G1 X81.0385 Y-114.0419
G1 X81.0104 Y-113.9669
G1 X80.7371 Y-113.2315
G1 X80.4675 Y-112.4945
G1 X80.3627 Y-112.2054
G1 X79.9713 Y-111.1208
G1 X79.953 Y-111.0699
G1 X79.6655 Y-110.2686
G1 X79.5579 Y-109.968
G1 X79.1821 Y-108.9158
G1 X79.0883 Y-108.6526
G1 X79.018 Y-108.4553
G1 X78.9653 Y-108.3072
G1 X78.8862 Y-108.0852
G1 X78.8072 Y-107.8633
G1 X77.3123 Y-103.6683
G1 X77.2504 Y-103.5569
G1 X77.1717 Y-103.4566
G1 X77.0947 Y-103.3831
G1 X76.9771 Y-103.2988
G1 X76.8491 Y-103.2315
G1 X76.7832 Y-103.2052
G1 X76.6135 Y-103.1519
G1 X76.1085 Y-102.9803
G1 F10.0 Z-5.5
G1 F30.0 X79.4423
G1 X79.2969 Y-103.0673
G1 X79.2062 Y-103.1344
G1 X79.1296 Y-103.2094
G1 X79.107 Y-103.238
G1 X79.07 Y-103.3021
G1 X79.052 Y-103.3705
G1 X79.039 Y-103.5125
G1 X79.0321 Y-103.6549
G1 X79.0157 Y-103.7065
G1 X79.0146 Y-103.721
G1 X79.0143 Y-103.8476
G1 X79.0146 Y-103.8518
G1 X79.0254 Y-103.9737
G1 X79.0567 Y-104.2008
G1 X79.0606 Y-104.2256
G1 X79.0769 Y-104.3231
G1 X79.1098 Y-104.5053
G1 X79.1405 Y-104.6644
G1 X79.1974 Y-104.9422
G1 X79.2879 Y-105.3576
G1 X79.3828 Y-105.7722
G1 X79.5361 Y-106.4271
G1 X79.6713 Y-106.9999
G1 X80.1496 Y-109.0035
G1 X80.3907 Y-110.0049
G1 X80.6329 Y-111.006
G1 X80.8609 Y-111.9515
G1 X81.0302 Y-112.6611
G1 X81.2791 Y-113.7267
G1 X81.3396 Y-113.9936
G1 X81.362 Y-114.0937
G1 X81.4006 Y-114.2691
G1 X81.4565 Y-114.5326
G1 X81.506 Y-114.7972
G1 X81.5888 Y-114.5778
G1 X81.6608 Y-114.3857
G1 X81.9095 Y-113.7121
G1 X81.9403 Y-113.6278
G1 X81.9672 Y-113.554
G1 X82.1542 Y-113.0371
G1 X82.4827 Y-112.121
G1 X82.4981 Y-112.078
G1 X82.9814 Y-110.7247
G1 X83.4639 Y-109.3712
G1 X84.0402 Y-107.746
G1 X84.1117 Y-107.5426
G1 X84.143 Y-107.4536
G1 X84.3757 Y-106.7858
G1 X84.4333 Y-106.6186
G1 X84.5186 Y-106.3675
G1 X84.5239 Y-106.3517
G1 X84.6016 Y-106.1156
G1 X85.0637 Y-106.1082
G1 X85.525 Y-106.0809
G1 X85.589 Y-106.0755
G1 X85.8834 Y-106.039
G1 X86.0804 Y-106.0032
G1 X86.2824 Y-105.9503
G1 X86.321 Y-105.9378
G1 X86.454 Y-105.8829
G1 X86.5463 Y-105.8311
G1 X86.6508 Y-105.7489
G1 X86.7417 Y-105.652
G1 X86.8171 Y-105.5425
G1 X86.8752 Y-105.423
G1 X86.8816 Y-105.4061
G1 X86.9278 Y-105.2599
G1 X86.9502 Y-105.1431
G1 X86.9681 Y-104.9555
G1 X86.9696 Y-104.872
G1 X86.9596 Y-104.7086
G1 X86.9464 Y-104.6235
G1 X86.9125 Y-104.4982
G1 X86.8597 Y-104.3796
G1 X86.797 Y-104.2807
G1 X86.7108 Y-104.1859
G1 X86.6109 Y-104.1056
G1 X86.5066 Y-104.0452
G1 X86.3155 Y-103.9639
G1 X86.1174 Y-103.9014
G1 X85.9444 Y-103.8633
G1 X85.8715 Y-103.851
G1 X85.6155 Y-103.8223
G1 X85.358 Y-103.8136
G1 X85.3557
G1 X85.1848 Y-103.8156
G1 X85.0567 Y-103.8201
G1 X85.0327 Y-103.8213
G1 X84.7963 Y-103.8416
G1 X84.6744 Y-103.86
G1 X84.427 Y-103.9144
G1 X84.2511 Y-103.9658
G1 X83.8013 Y-104.1179
G1 X83.6032 Y-104.19
G1 X83.4523 Y-104.2549
G1 X83.411 Y-104.2767
G1 X83.4243 Y-102.8347
G1 X83.5589 Y-102.9029
G1 X83.6366 Y-102.9327
G1 X83.7477 Y-102.9691
G1 X83.8041 Y-102.9848
G1 X83.8608 Y-102.9991
G1 X84.1053 Y-103.0567
G1 X84.3503 Y-103.1126
G1 X84.5818
G1 X84.9324
G1 X85.2708 Y-103.1212
G1 X85.6082 Y-103.1498
G1 X85.8117 Y-103.1768
G1 X86.1001 Y-103.2304
G1 X86.3842 Y-103.3036
G1 X86.6626 Y-103.3959
G1 X86.6654 Y-103.397
G1 X86.8159 Y-103.4625
G1 X86.9573 Y-103.5459
G1 X86.9825 Y-103.5634
G1 X87.0917 Y-103.6527
G1 X87.1872 Y-103.7565
G1 X87.267 Y-103.8729
G1 X87.3202 Y-103.977
G1 X87.3708 Y-104.1191
G1 X87.3969 Y-104.2341
G1 X87.417 Y-104.399
G1 X87.4195 Y-104.5016
G1 X87.418 Y-104.6141
G1 X87.4044 Y-104.8545
G1 X87.381 Y-105.0344
G1 X87.3357 Y-105.2566
G1 X87.3119 Y-105.3447
G1 X87.2495 Y-105.5217
G1 X87.1686 Y-105.691
G1 X87.1166 Y-105.78
G1 X87.0212 Y-105.9109
G1 X86.9104 Y-106.029
G1 X86.7911 Y-106.1288
G1 X86.6271 Y-106.2351
G1 X86.4531 Y-106.3242
G1 X86.351 Y-106.3666
G1 X86.2631 Y-106.399
G1 X86.0159 Y-106.4718
G1 X85.7639 Y-106.5252
G1 X85.5791 Y-106.5516
G1 X85.2462 Y-106.5817
G1 X84.9121 Y-106.5919
G1 X84.8795 Y-106.5918
G1 X84.7244 Y-107.0072
G1 X84.4913 Y-107.6301
G1 X84.3745 Y-107.9414
G1 X84.3161 Y-108.0971
G1 X84.2576 Y-108.2527
G1 X83.5527 Y-110.135
G1 X82.8488 Y-112.0178
G1 X82.5297 Y-112.8715
G1 X81.5722 Y-115.4322
G1 X81.0385 Y-114.0419
G1 X81.0104 Y-113.9669
G1 X80.7371 Y-113.2315
G1 X80.4675 Y-112.4945
G1 X80.3627 Y-112.2054
G1 X79.9713 Y-111.1208
G1 X79.953 Y-111.0699
G1 X79.6655 Y-110.2686
G1 X79.5579 Y-109.968
G1 X79.1821 Y-108.9158
G1 X79.0883 Y-108.6526
G1 X79.018 Y-108.4553
G1 X78.9653 Y-108.3072
G1 X78.8862 Y-108.0852
G1 X78.8072 Y-107.8633
G1 X77.3123 Y-103.6683
G1 X77.2504 Y-103.5569
G1 X77.1717 Y-103.4566
G1 X77.0947 Y-103.3831
G1 X76.9771 Y-103.2988
G1 X76.8491 Y-103.2315
G1 X76.7832 Y-103.2052
G1 X76.6135 Y-103.1519
G1 X76.1085 Y-102.9803
G0 Z0.125
G0 X79.4171 Y-99.188
G0 Z-4.9375
G1 F10.0 Z-5.25
G1 F30.0 X79.4024 Y-99.162
G1 X79.4018 Y-99.1546
G1 X79.4162 Y-99.1082
G1 X79.4208 Y-99.1005
G1 X79.4526 Y-99.053
G1 X79.77 Y-98.8263
G1 X80.0753 Y-98.5837
G1 X80.3678 Y-98.3257
G1 X80.6162 Y-98.0843
G1 X80.853 Y-97.8298
G1 X81.0747 Y-97.5621
G1 X81.2806 Y-97.2822
G1 X81.4702 Y-96.9908
G1 X81.5354 Y-96.8813
G1 X81.686 Y-96.5986
G1 X81.8187 Y-96.3072
G1 X81.9329 Y-96.008
G1 X82.0282 Y-95.7023
G1 X82.0925 Y-95.4453
G1 X82.1629 Y-95.0818
G1 X82.2136 Y-94.7151
G1 X82.2444 Y-94.3462
G1 X82.2552 Y-93.9761
G1 X82.2551 Y-93.9136
G1 X82.2483 Y-93.4638
G1 X82.2214 Y-93.0146
G1 X82.1831 Y-92.6352
G1 X82.1367 Y-92.3394
G1 X82.1281 Y-92.296
G1 X82.0362 Y-91.8814
G1 X82.014 Y-91.7934
G1 X81.8818 Y-91.3229
G1 X81.8741 Y-91.2974
G1 X83.6351 Y-91.289
G1 X83.4811 Y-91.4958
G1 X83.3436 Y-91.714
G1 X83.2686 Y-91.8511
G1 X83.1547 Y-92.0909
G1 X83.0683 Y-92.3123
G1 X82.9693 Y-92.6238
G1 X82.9558 Y-92.672
G1 X82.8783 Y-93.011
G1 X82.8203 Y-93.3539
G1 X82.7822 Y-93.6996
G1 X82.7757 Y-93.7867
G1 X82.7327 Y-94.2596
G1 X82.6697 Y-94.7303
G1 X82.5958 Y-95.1533
G1 X82.5137 Y-95.5234
G1 X82.4121 Y-95.8888
G1 X82.2915 Y-96.2482
G1 X82.2043 Y-96.4748
G1 X82.1037 Y-96.6865
G1 X81.9854 Y-96.8889
G1 X81.9818 Y-96.8946
G1 X81.7984 Y-97.1567
G1 X81.5989 Y-97.4068
G1 X81.4736 Y-97.5489
G1 X81.1648 Y-97.8719
G1 X80.8418 Y-98.1807
G1 X80.5809 Y-98.4109
G1 X80.463 Y-98.5119
G1 X79.9643 Y-98.9179
G1 X79.6135 Y-99.1884
G1 X79.4996 Y-99.2051
G1 X79.495 Y-99.2053
G1 X79.4384 Y-99.1983
G1 X79.4171 Y-99.188
G1 F10.0 Z-5.5
G1 F30.0 X79.4024 Y-99.162
G1 X79.4018 Y-99.1546
G1 X79.4162 Y-99.1082
G1 X79.4208 Y-99.1005
G1 X79.4526 Y-99.053
G1 X79.77 Y-98.8263
G1 X80.0753 Y-98.5837
G1 X80.3678 Y-98.3257
G1 X80.6162 Y-98.0843
G1 X80.853 Y-97.8298
G1 X81.0747 Y-97.5621
G1 X81.2806 Y-97.2822
G1 X81.4702 Y-96.9908
G1 X81.5354 Y-96.8813
G1 X81.686 Y-96.5986
G1 X81.8187 Y-96.3072
G1 X81.9329 Y-96.008
G1 X82.0282 Y-95.7023
G1 X82.0925 Y-95.4453
G1 X82.1629 Y-95.0818
G1 X82.2136 Y-94.7151
G1 X82.2444 Y-94.3462
G1 X82.2552 Y-93.9761
G1 X82.2551 Y-93.9136
G1 X82.2483 Y-93.4638
G1 X82.2214 Y-93.0146
G1 X82.1831 Y-92.6352
G1 X82.1367 Y-92.3394
G1 X82.1281 Y-92.296
G1 X82.0362 Y-91.8814
G1 X82.014 Y-91.7934
G1 X81.8818 Y-91.3229
G1 X81.8741 Y-91.2974
G1 X83.6351 Y-91.289
G1 X83.4811 Y-91.4958
G1 X83.3436 Y-91.714
G1 X83.2686 Y-91.8511
G1 X83.1547 Y-92.0909
G1 X83.0683 Y-92.3123
G1 X82.9693 Y-92.6238
G1 X82.9558 Y-92.672
G1 X82.8783 Y-93.011
G1 X82.8203 Y-93.3539
G1 X82.7822 Y-93.6996
G1 X82.7757 Y-93.7867
G1 X82.7327 Y-94.2596
G1 X82.6697 Y-94.7303
G1 X82.5958 Y-95.1533
G1 X82.5137 Y-95.5234
G1 X82.4121 Y-95.8888
G1 X82.2915 Y-96.2482
G1 X82.2043 Y-96.4748
G1 X82.1037 Y-96.6865
G1 X81.9854 Y-96.8889
G1 X81.9818 Y-96.8946
G1 X81.7984 Y-97.1567
G1 X81.5989 Y-97.4068
G1 X81.4736 Y-97.5489
G1 X81.1648 Y-97.8719
G1 X80.8418 Y-98.1807
G1 X80.5809 Y-98.4109
G1 X80.463 Y-98.5119
G1 X79.9643 Y-98.9179
G1 X79.6135 Y-99.1884
G1 X79.4996 Y-99.2051
G1 X79.495 Y-99.2053
G1 X79.4384 Y-99.1983
G1 X79.4171 Y-99.188
G0 Z0.125
G0 X79.9959 Y-99.1649
G0 Z-4.9375
G1 F10.0 Z-5.25
G1 F30.0 X79.9945 Y-99.1292
G1 X80.1622 Y-99.1282
G1 X80.5789 Y-99.1149
G1 X80.7486 Y-99.1037
G1 X80.8949 Y-99.09
G1 X81.1134 Y-99.0601
G1 X81.3279 Y-99.0106
G1 X81.5829 Y-98.9267
G1 X81.6415 Y-98.9044
G1 X81.8373 Y-98.8197
G1 X81.9418 Y-98.7651
G1 X82.163 Y-98.6607
G1 X82.2113 Y-98.6375
G1 X82.3975 Y-98.5463
G1 X82.4787 Y-98.5057
G1 X82.9256 Y-98.2708
G1 X83.0787 Y-98.1849
G1 X83.1157 Y-98.1637
G1 X83.2532 Y-98.083
G1 X83.4568 Y-97.9573
G1 X83.5571 Y-97.8922
G1 X83.6563 Y-97.8253
G1 X83.7592 Y-97.7547
G1 X83.94 Y-97.632
G1 X84.2134 Y-97.4517
G1 X84.2826 Y-97.4078
G1 X84.4921 Y-97.2847
G1 X84.4945 Y-97.2834
G1 X84.6418 Y-97.2235
G1 X84.6543 Y-97.2194
G1 X84.7972 Y-97.1721
G1 X85.0493 Y-97.0957
G1 X85.7188 Y-96.9095
G1 X85.811 Y-96.8855
G1 X85.8026 Y-98.3756
G1 X85.6706 Y-98.2913
G1 X85.529 Y-98.2245
G1 X85.38 Y-98.1763
G1 X85.2261 Y-98.1474
G1 X85.0697 Y-98.1384
G1 X85.0575 Y-98.1385
G1 X84.8524 Y-98.1493
G1 X84.6494 Y-98.18
G1 X84.5584 Y-98.2004
G1 X84.3201 Y-98.2662
G1 X84.088 Y-98.351
G1 X84.0796 Y-98.3545
G1 X83.9841 Y-98.3935
G1 X83.8063 Y-98.4695
G1 X83.6517 Y-98.5383
G1 X83.5843 Y-98.569
G1 X83.3328 Y-98.6862
G1 X83.2388 Y-98.7309
G1 X82.9112 Y-98.8903
G1 X82.748 Y-98.9713
G1 X82.5853 Y-99.053
G1 X82.2354 Y-99.122
G1 X81.9786 Y-99.1598
G1 X81.6727 Y-99.1969
G1 X81.3661 Y-99.2265
G1 X80.003 Y-99.3408
G1 X79.9959 Y-99.1649
G1 F10.0 Z-5.5
G1 F30.0 X79.9945 Y-99.1292
G1 X80.1622 Y-99.1282
G1 X80.5789 Y-99.1149
G1 X80.7486 Y-99.1037
G1 X80.8949 Y-99.09
G1 X81.1134 Y-99.0601
G1 X81.3279 Y-99.0106
G1 X81.5829 Y-98.9267
G1 X81.6415 Y-98.9044
G1 X81.8373 Y-98.8197
G1 X81.9418 Y-98.7651
G1 X82.163 Y-98.6607
G1 X82.2113 Y-98.6375
G1 X82.3975 Y-98.5463
G1 X82.4787 Y-98.5057
G1 X82.9256 Y-98.2708
G1 X83.0787 Y-98.1849
G1 X83.1157 Y-98.1637
G1 X83.2532 Y-98.083
G1 X83.4568 Y-97.9573
G1 X83.5571 Y-97.8922
G1 X83.6563 Y-97.8253
G1 X83.7592 Y-97.7547
G1 X83.94 Y-97.632
G1 X84.2134 Y-97.4517
G1 X84.2826 Y-97.4078
G1 X84.4921 Y-97.2847
G1 X84.4945 Y-97.2834
G1 X84.6418 Y-97.2235
G1 X84.6543 Y-97.2194
G1 X84.7972 Y-97.1721
G1 X85.0493 Y-97.0957
G1 X85.7188 Y-96.9095
G1 X85.811 Y-96.8855
G1 X85.8026 Y-98.3756
G1 X85.6706 Y-98.2913
G1 X85.529 Y-98.2245
G1 X85.38 Y-98.1763
G1 X85.2261 Y-98.1474
G1 X85.0697 Y-98.1384
G1 X85.0575 Y-98.1385
G1 X84.8524 Y-98.1493
G1 X84.6494 Y-98.18
G1 X84.5584 Y-98.2004
G1 X84.3201 Y-98.2662
G1 X84.088 Y-98.351
G1 X84.0796 Y-98.3545
G1 X83.9841 Y-98.3935
G1 X83.8063 Y-98.4695
G1 X83.6517 Y-98.5383
G1 X83.5843 Y-98.569
G1 X83.3328 Y-98.6862
G1 X83.2388 Y-98.7309
G1 X82.9112 Y-98.8903
G1 X82.748 Y-98.9713
G1 X82.5853 Y-99.053
G1 X82.2354 Y-99.122
G1 X81.9786 Y-99.1598
G1 X81.6727 Y-99.1969
G1 X81.3661 Y-99.2265
G1 X80.003 Y-99.3408
G1 X79.9959 Y-99.1649
G0 Z0.125
G0 X87.3974 Y-102.9803
G0 Z-4.9375
G1 F10.0 Z-5.25
G1 F30.0 X90.7312
G1 X90.5858 Y-103.0673
G1 X90.4951 Y-103.1344
G1 X90.4185 Y-103.2094
G1 X90.3959 Y-103.238
G1 X90.3589 Y-103.3021
G1 X90.3409 Y-103.3705
G1 X90.3278 Y-103.5125
G1 X90.321 Y-103.6549
G1 X90.3046 Y-103.7065
G1 X90.3035 Y-103.721
G1 X90.3032 Y-103.8476
G1 X90.3035 Y-103.8518
G1 X90.3143 Y-103.9737
G1 X90.3456 Y-104.2008
G1 X90.3495 Y-104.2256
G1 X90.3658 Y-104.3231
G1 X90.3987 Y-104.5053
G1 X90.4294 Y-104.6644
G1 X90.4863 Y-104.9422
G1 X90.5768 Y-105.3576
G1 X90.6716 Y-105.7722
G1 X90.825 Y-106.4271
G1 X90.9602 Y-106.9999
G1 X91.4384 Y-109.0035
G1 X91.6796 Y-110.0049
G1 X91.9218 Y-111.006
G1 X92.1498 Y-111.9515
G1 X92.3191 Y-112.6611
G1 X92.568 Y-113.7267
G1 X92.6285 Y-113.9936
G1 X92.6509 Y-114.0937
G1 X92.6895 Y-114.2691
G1 X92.7453 Y-114.5326
G1 X92.7949 Y-114.7972
G1 X92.8777 Y-114.5778
G1 X92.9497 Y-114.3857
G1 X93.1984 Y-113.7121
G1 X93.2292 Y-113.6278
G1 X93.2561 Y-113.554
G1 X93.4431 Y-113.0371
G1 X93.7716 Y-112.121
G1 X93.787 Y-112.078
G1 X94.2703 Y-110.7247
G1 X94.7528 Y-109.3712
G1 X95.3291 Y-107.746
G1 X95.4006 Y-107.5426
G1 X95.4318 Y-107.4536
G1 X95.6646 Y-106.7858
G1 X95.7222 Y-106.6186
G1 X95.8075 Y-106.3675
G1 X95.8128 Y-106.3517
G1 X95.8905 Y-106.1156
G1 X96.3526 Y-106.1082
G1 X96.8139 Y-106.0809
G1 X96.8778 Y-106.0755
G1 X97.1723 Y-106.039
G1 X97.3693 Y-106.0032
G1 X97.5713 Y-105.9503
G1 X97.6099 Y-105.9378
G1 X97.7429 Y-105.8829
G1 X97.8352 Y-105.8311
G1 X97.9397 Y-105.7489
G1 X98.0306 Y-105.652
G1 X98.106 Y-105.5425
G1 X98.164 Y-105.423
G1 X98.1705 Y-105.4061
G1 X98.2167 Y-105.2599
G1 X98.2391 Y-105.1431
G1 X98.257 Y-104.9555
G1 X98.2585 Y-104.872
G1 X98.2485 Y-104.7086
G1 X98.2353 Y-104.6235
G1 X98.2014 Y-104.4982
G1 X98.1486 Y-104.3796
G1 X98.0859 Y-104.2807
G1 X97.9997 Y-104.1859
G1 X97.8998 Y-104.1056
G1 X97.7955 Y-104.0452
G1 X97.6043 Y-103.9639
G1 X97.4063 Y-103.9014
G1 X97.2333 Y-103.8633
G1 X97.1604 Y-103.851
G1 X96.9044 Y-103.8223
G1 X96.6469 Y-103.8136
G1 X96.6446
G1 X96.4737 Y-103.8156
G1 X96.3456 Y-103.8201
G1 X96.3216 Y-103.8213
G1 X96.0852 Y-103.8416
G1 X95.9633 Y-103.86
G1 X95.7159 Y-103.9144
G1 X95.54 Y-103.9658
G1 X95.0901 Y-104.1179
G1 X94.892 Y-104.19
G1 X94.7412 Y-104.2549
G1 X94.6999 Y-104.2767
G1 X94.7132 Y-102.8347
G1 X94.8478 Y-102.9029
G1 X94.9255 Y-102.9327
G1 X95.0366 Y-102.9691
G1 X95.093 Y-102.9848
G1 X95.1497 Y-102.9991
G1 X95.3942 Y-103.0567
G1 X95.6392 Y-103.1126
G1 X95.8707
G1 X96.2213
G1 X96.5597 Y-103.1212
G1 X96.8971 Y-103.1498
G1 X97.1006 Y-103.1768
G1 X97.389 Y-103.2304
G1 X97.6731 Y-103.3036
G1 X97.9515 Y-103.3959
G1 X97.9543 Y-103.397
G1 X98.1048 Y-103.4625
G1 X98.2462 Y-103.5459
G1 X98.2714 Y-103.5634
G1 X98.3806 Y-103.6527
G1 X98.4761 Y-103.7565
G1 X98.5559 Y-103.8729
G1 X98.6091 Y-103.977
G1 X98.6597 Y-104.1191
G1 X98.6858 Y-104.2341
G1 X98.7059 Y-104.399
G1 X98.7084 Y-104.5016
G1 X98.7068 Y-104.6141
G1 X98.6933 Y-104.8545
G1 X98.6699 Y-105.0344
G1 X98.6246 Y-105.2566
G1 X98.6008 Y-105.3447
G1 X98.5384 Y-105.5217
G1 X98.4575 Y-105.691
G1 X98.4055 Y-105.78
G1 X98.3101 Y-105.9109
G1 X98.1993 Y-106.029
G1 X98.08 Y-106.1288
G1 X97.916 Y-106.2351
G1 X97.742 Y-106.3242
G1 X97.6399 Y-106.3666
G1 X97.5519 Y-106.399
G1 X97.3048 Y-106.4718
G1 X97.0528 Y-106.5252
G1 X96.868 Y-106.5516
G1 X96.5351 Y-106.5817
G1 X96.201 Y-106.5919
G1 X96.1684 Y-106.5918
G1 X96.0133 Y-107.0072
G1 X95.7802 Y-107.6301
G1 X95.6634 Y-107.9414
G1 X95.605 Y-108.0971
G1 X95.5465 Y-108.2527
G1 X94.8415 Y-110.135
G1 X94.1377 Y-112.0178
G1 X93.8186 Y-112.8715
G1 X92.8611 Y-115.4322
G1 X92.3274 Y-114.0419
G1 X92.2993 Y-113.9669
G1 X92.026 Y-113.2315
G1 X91.7564 Y-112.4945
G1 X91.6516 Y-112.2054
G1 X91.2602 Y-111.1208
G1 X91.2419 Y-111.0699
G1 X90.9544 Y-110.2686
G1 X90.8468 Y-109.968
G1 X90.471 Y-108.9158
G1 X90.3772 Y-108.6526
G1 X90.3069 Y-108.4553
G1 X90.2541 Y-108.3072
G1 X90.1751 Y-108.0852
G1 X90.0961 Y-107.8633
G1 X88.6012 Y-103.6683
G1 X88.5393 Y-103.5569
G1 X88.4606 Y-103.4566
G1 X88.3836 Y-103.3831
G1 X88.266 Y-103.2988
G1 X88.138 Y-103.2315
G1 X88.0721 Y-103.2052
G1 X87.9024 Y-103.1519
G1 X87.3974 Y-102.9803
G1 F10.0 Z-5.5
G1 F30.0 X90.7312
G1 X90.5858 Y-103.0673
G1 X90.4951 Y-103.1344
G1 X90.4185 Y-103.2094
G1 X90.3959 Y-103.238
G1 X90.3589 Y-103.3021
G1 X90.3409 Y-103.3705
G1 X90.3278 Y-103.5125
G1 X90.321 Y-103.6549
G1 X90.3046 Y-103.7065
G1 X90.3035 Y-103.721
G1 X90.3032 Y-103.8476
G1 X90.3035 Y-103.8518
G1 X90.3143 Y-103.9737
G1 X90.3456 Y-104.2008
G1 X90.3495 Y-104.2256
G1 X90.3658 Y-104.3231
G1 X90.3987 Y-104.5053
G1 X90.4294 Y-104.6644
G1 X90.4863 Y-104.9422
G1 X90.5768 Y-105.3576
G1 X90.6716 Y-105.7722
G1 X90.825 Y-106.4271
G1 X90.9602 Y-106.9999
G1 X91.4384 Y-109.0035
G1 X91.6796 Y-110.0049
G1 X91.9218 Y-111.006
G1 X92.1498 Y-111.9515
G1 X92.3191 Y-112.6611
G1 X92.568 Y-113.7267
G1 X92.6285 Y-113.9936
G1 X92.6509 Y-114.0937
G1 X92.6895 Y-114.2691
G1 X92.7453 Y-114.5326
G1 X92.7949 Y-114.7972
G1 X92.8777 Y-114.5778
G1 X92.9497 Y-114.3857
G1 X93.1984 Y-113.7121
G1 X93.2292 Y-113.6278
G1 X93.2561 Y-113.554
G1 X93.4431 Y-113.0371
G1 X93.7716 Y-112.121
G1 X93.787 Y-112.078
G1 X94.2703 Y-110.7247
G1 X94.7528 Y-109.3712
G1 X95.3291 Y-107.746
G1 X95.4006 Y-107.5426
G1 X95.4318 Y-107.4536
G1 X95.6646 Y-106.7858
G1 X95.7222 Y-106.6186
G1 X95.8075 Y-106.3675
G1 X95.8128 Y-106.3517
G1 X95.8905 Y-106.1156
G1 X96.3526 Y-106.1082
G1 X96.8139 Y-106.0809
G1 X96.8778 Y-106.0755
G1 X97.1723 Y-106.039
G1 X97.3693 Y-106.0032
G1 X97.5713 Y-105.9503
G1 X97.6099 Y-105.9378
G1 X97.7429 Y-105.8829
G1 X97.8352 Y-105.8311
G1 X97.9397 Y-105.7489
G1 X98.0306 Y-105.652
G1 X98.106 Y-105.5425
G1 X98.164 Y-105.423
G1 X98.1705 Y-105.4061
G1 X98.2167 Y-105.2599
G1 X98.2391 Y-105.1431
G1 X98.257 Y-104.9555
G1 X98.2585 Y-104.872
G1 X98.2485 Y-104.7086
G1 X98.2353 Y-104.6235
G1 X98.2014 Y-104.4982
G1 X98.1486 Y-104.3796
G1 X98.0859 Y-104.2807
G1 X97.9997 Y-104.1859
G1 X97.8998 Y-104.1056
G1 X97.7955 Y-104.0452
G1 X97.6043 Y-103.9639
G1 X97.4063 Y-103.9014
G1 X97.2333 Y-103.8633
G1 X97.1604 Y-103.851
G1 X96.9044 Y-103.8223
G1 X96.6469 Y-103.8136
G1 X96.6446
G1 X96.4737 Y-103.8156
G1 X96.3456 Y-103.8201
G1 X96.3216 Y-103.8213
G1 X96.0852 Y-103.8416
G1 X95.9633 Y-103.86
G1 X95.7159 Y-103.9144
G1 X95.54 Y-103.9658
G1 X95.0901 Y-104.1179
G1 X94.892 Y-104.19
G1 X94.7412 Y-104.2549
G1 X94.6999 Y-104.2767
G1 X94.7132 Y-102.8347
G1 X94.8478 Y-102.9029
G1 X94.9255 Y-102.9327
G1 X95.0366 Y-102.9691
G1 X95.093 Y-102.9848
G1 X95.1497 Y-102.9991
G1 X95.3942 Y-103.0567
G1 X95.6392 Y-103.1126
G1 X95.8707
G1 X96.2213
G1 X96.5597 Y-103.1212
G1 X96.8971 Y-103.1498
G1 X97.1006 Y-103.1768
G1 X97.389 Y-103.2304
G1 X97.6731 Y-103.3036
G1 X97.9515 Y-103.3959
G1 X97.9543 Y-103.397
G1 X98.1048 Y-103.4625
G1 X98.2462 Y-103.5459
G1 X98.2714 Y-103.5634
G1 X98.3806 Y-103.6527
G1 X98.4761 Y-103.7565
G1 X98.5559 Y-103.8729
G1 X98.6091 Y-103.977
G1 X98.6597 Y-104.1191
G1 X98.6858 Y-104.2341
G1 X98.7059 Y-104.399
G1 X98.7084 Y-104.5016
G1 X98.7068 Y-104.6141
G1 X98.6933 Y-104.8545
G1 X98.6699 Y-105.0344
G1 X98.6246 Y-105.2566
G1 X98.6008 Y-105.3447
G1 X98.5384 Y-105.5217
G1 X98.4575 Y-105.691
G1 X98.4055 Y-105.78
G1 X98.3101 Y-105.9109
G1 X98.1993 Y-106.029
G1 X98.08 Y-106.1288
G1 X97.916 Y-106.2351
G1 X97.742 Y-106.3242
G1 X97.6399 Y-106.3666
G1 X97.5519 Y-106.399
G1 X97.3048 Y-106.4718
G1 X97.0528 Y-106.5252
G1 X96.868 Y-106.5516
G1 X96.5351 Y-106.5817
G1 X96.201 Y-106.5919
G1 X96.1684 Y-106.5918
G1 X96.0133 Y-107.0072
G1 X95.7802 Y-107.6301
G1 X95.6634 Y-107.9414
G1 X95.605 Y-108.0971
G1 X95.5465 Y-108.2527
G1 X94.8415 Y-110.135
G1 X94.1377 Y-112.0178
G1 X93.8186 Y-112.8715
G1 X92.8611 Y-115.4322
G1 X92.3274 Y-114.0419
G1 X92.2993 Y-113.9669
G1 X92.026 Y-113.2315
G1 X91.7564 Y-112.4945
G1 X91.6516 Y-112.2054
G1 X91.2602 Y-111.1208
G1 X91.2419 Y-111.0699
G1 X90.9544 Y-110.2686
G1 X90.8468 Y-109.968
G1 X90.471 Y-108.9158
G1 X90.3772 Y-108.6526
G1 X90.3069 Y-108.4553
G1 X90.2541 Y-108.3072
G1 X90.1751 Y-108.0852
G1 X90.0961 Y-107.8633
G1 X88.6012 Y-103.6683
G1 X88.5393 Y-103.5569
G1 X88.4606 Y-103.4566
G1 X88.3836 Y-103.3831
G1 X88.266 Y-103.2988
G1 X88.138 Y-103.2315
G1 X88.0721 Y-103.2052
G1 X87.9024 Y-103.1519
G1 X87.3974 Y-102.9803
G0 Z0.125
G0 X93.168 Y-99.0656
G0 Z-4.9375
G1 F10.0 Z-5.25
G1 F30.0 X93.1604 Y-98.529
G1 X93.1539 Y-98.1265
G1 X93.1525 Y-98.051
G1 X93.1419 Y-97.4852
G1 X93.136 Y-97.2022
G1 X93.1345 Y-97.1315
G1 X93.1299 Y-96.9193
G1 X93.057 Y-96.924
G1 X92.9838 Y-96.9257
G1 X92.8441
G1 X92.4568 Y-96.9064
G1 X92.2935 Y-96.8922
G1 X92.0314 Y-96.8613
G1 X91.7724 Y-96.8107
G1 X91.7487 Y-96.805
G1 X91.6262 Y-96.7658
G1 X91.5235 Y-96.7153
G1 X91.4585 Y-96.6651
G1 X91.4293 Y-96.6322
G1 X91.4001 Y-96.5765
G1 X91.3899 Y-96.5145
G1 Y-96.513
G1 X91.4021 Y-96.4329
G1 X91.4654 Y-96.2575
G1 X91.5052 Y-96.1701
G1 X91.568 Y-96.0438
G1 X91.6009 Y-95.9813
G1 X91.6344 Y-95.9192
G1 X91.721 Y-95.7675
G1 X91.7308 Y-95.7511
G1 X91.9469 Y-95.4108
G1 X92.0594 Y-95.2473
G1 X92.1459 Y-95.1243
G1 X92.4123 Y-94.7604
G1 X92.4668 Y-94.6874
G1 X92.7862 Y-94.2762
G1 X92.86 Y-94.1856
G1 X92.9521 Y-94.0885
G1 X92.9883 Y-94.0573
G1 X93.0659 Y-94.0079
G1 X93.1271 Y-93.9881
G1 X93.1552 Y-93.9856
G1 X93.1777 Y-93.9881
G1 X93.1924 Y-94.0001
G1 X93.1933 Y-94.0047
G1 X93.1618 Y-94.0809
G1 X93.1055 Y-94.191
G1 X93.0765 Y-94.2456
G1 X93.0618 Y-94.2728
G1 X93.0472 Y-94.2999
G1 X92.9386 Y-94.502
G1 X92.6155 Y-95.1096
G1 X92.51 Y-95.3117
G1 X92.4713 Y-95.388
G1 X92.4048 Y-95.522
G1 X92.2684 Y-95.8182
G1 X92.2218 Y-95.932
G1 X92.15 Y-96.1269
G1 X92.1195 Y-96.2264
G1 X92.1015 Y-96.3251
G1 X92.1012 Y-96.3288
G1 X92.109 Y-96.3965
G1 X92.1361 Y-96.459
G1 X92.164 Y-96.4953
G1 X92.2331 Y-96.5485
G1 X92.3124 Y-96.5846
G1 X92.317 Y-96.586
G1 X92.4801 Y-96.6259
G1 X92.6468 Y-96.6462
G1 X92.6478
G1 X92.7317 Y-96.6522
G1 X92.7947 Y-96.6553
G1 X92.9838 Y-96.659
G1 X93.1235
G1 X93.1159 Y-96.3764
G1 X93.1077 Y-95.9526
G1 X93.1069 Y-95.8996
G1 X93.1059 Y-95.8068
G1 X93.1048 Y-95.6677
G1 X93.1044 Y-95.5287
G1 X93.1114 Y-95.4297
G1 X93.133 Y-95.3478
G1 X93.1707 Y-95.2838
G1 X93.224 Y-95.2322
G1 X93.241 Y-95.2207
G1 X93.3354 Y-95.1725
G1 X93.3514 Y-95.1664
G1 X93.4696 Y-95.1318
G1 X93.745 Y-95.0811
G1 X93.8664 Y-95.0652
G1 X93.8548 Y-95.4763
G1 X93.8494 Y-95.6819
G1 X93.8442 Y-95.8874
G1 X93.822 Y-96.6399
G1 X94.3078 Y-96.6145
G1 X94.4199 Y-96.6076
G1 X94.7521 Y-96.5769
G1 X94.7555 Y-96.5764
G1 X94.7744 Y-96.6781
G1 X94.2925 Y-96.7805
G1 X94.2125 Y-96.7956
G1 X94.1881 Y-96.7998
G1 X94.0054 Y-96.8298
G1 X93.9137 Y-96.8435
G1 X93.822 Y-96.8558
G1 X93.8107 Y-97.2384
G1 X93.7998 Y-97.621
G1 X93.7929 Y-97.921
G1 X93.7901 Y-98.2211
G1 Y-98.3735
G1 X93.6634 Y-98.4397
G1 X93.5472 Y-98.523
G1 X93.4437 Y-98.6216
G1 X93.4115 Y-98.6587
G1 X93.3056 Y-98.8036
G1 X93.2164 Y-98.9593
G1 X93.168 Y-99.0656
G1 F10.0 Z-5.5
G1 F30.0 X93.1604 Y-98.529
G1 X93.1539 Y-98.1265
G1 X93.1525 Y-98.051
G1 X93.1419 Y-97.4852
G1 X93.136 Y-97.2022
G1 X93.1345 Y-97.1315
G1 X93.1299 Y-96.9193
G1 X93.057 Y-96.924
G1 X92.9838 Y-96.9257
G1 X92.8441
G1 X92.4568 Y-96.9064
G1 X92.2935 Y-96.8922
G1 X92.0314 Y-96.8613
G1 X91.7724 Y-96.8107
G1 X91.7487 Y-96.805
G1 X91.6262 Y-96.7658
G1 X91.5235 Y-96.7153
G1 X91.4585 Y-96.6651
G1 X91.4293 Y-96.6322
G1 X91.4001 Y-96.5765
G1 X91.3899 Y-96.5145
G1 Y-96.513
G1 X91.4021 Y-96.4329
G1 X91.4654 Y-96.2575
G1 X91.5052 Y-96.1701
G1 X91.568 Y-96.0438
G1 X91.6009 Y-95.9813
G1 X91.6344 Y-95.9192
G1 X91.721 Y-95.7675
G1 X91.7308 Y-95.7511
G1 X91.9469 Y-95.4108
G1 X92.0594 Y-95.2473
G1 X92.1459 Y-95.1243
G1 X92.4123 Y-94.7604
G1 X92.4668 Y-94.6874
G1 X92.7862 Y-94.2762
G1 X92.86 Y-94.1856
G1 X92.9521 Y-94.0885
G1 X92.9883 Y-94.0573
G1 X93.0659 Y-94.0079
G1 X93.1271 Y-93.9881
G1 X93.1552 Y-93.9856
G1 X93.1777 Y-93.9881
G1 X93.1924 Y-94.0001
G1 X93.1933 Y-94.0047
G1 X93.1618 Y-94.0809
G1 X93.1055 Y-94.191
G1 X93.0765 Y-94.2456
G1 X93.0618 Y-94.2728
G1 X93.0472 Y-94.2999
G1 X92.9386 Y-94.502
G1 X92.6155 Y-95.1096
G1 X92.51 Y-95.3117
G1 X92.4713 Y-95.388
G1 X92.4048 Y-95.522
G1 X92.2684 Y-95.8182
G1 X92.2218 Y-95.932
G1 X92.15 Y-96.1269
G1 X92.1195 Y-96.2264
G1 X92.1015 Y-96.3251
G1 X92.1012 Y-96.3288
G1 X92.109 Y-96.3965
G1 X92.1361 Y-96.459
G1 X92.164 Y-96.4953
G1 X92.2331 Y-96.5485
G1 X92.3124 Y-96.5846
G1 X92.317 Y-96.586
G1 X92.4801 Y-96.6259
G1 X92.6468 Y-96.6462
G1 X92.6478
G1 X92.7317 Y-96.6522
G1 X92.7947 Y-96.6553
G1 X92.9838 Y-96.659
G1 X93.1235
G1 X93.1159 Y-96.3764
G1 X93.1077 Y-95.9526
G1 X93.1069 Y-95.8996
G1 X93.1059 Y-95.8068
G1 X93.1048 Y-95.6677
G1 X93.1044 Y-95.5287
G1 X93.1114 Y-95.4297
G1 X93.133 Y-95.3478
G1 X93.1707 Y-95.2838
G1 X93.224 Y-95.2322
G1 X93.241 Y-95.2207
G1 X93.3354 Y-95.1725
G1 X93.3514 Y-95.1664
G1 X93.4696 Y-95.1318
G1 X93.745 Y-95.0811
G1 X93.8664 Y-95.0652
G1 X93.8548 Y-95.4763
G1 X93.8494 Y-95.6819
G1 X93.8442 Y-95.8874
G1 X93.822 Y-96.6399
G1 X94.3078 Y-96.6145
G1 X94.4199 Y-96.6076
G1 X94.7521 Y-96.5769
G1 X94.7555 Y-96.5764
G1 X94.7744 Y-96.6781
G1 X94.2925 Y-96.7805
G1 X94.2125 Y-96.7956
G1 X94.1881 Y-96.7998
G1 X94.0054 Y-96.8298
G1 X93.9137 Y-96.8435
G1 X93.822 Y-96.8558
G1 X93.8107 Y-97.2384
G1 X93.7998 Y-97.621
G1 X93.7929 Y-97.921
G1 X93.7901 Y-98.2211
G1 Y-98.3735
G1 X93.6634 Y-98.4397
G1 X93.5472 Y-98.523
G1 X93.4437 Y-98.6216
G1 X93.4115 Y-98.6587
G1 X93.3056 Y-98.8036
G1 X93.2164 Y-98.9593
G1 X93.168 Y-99.0656
G0 Z0.125
G0 X101.5085 Y-101.04
G0 Z-4.9375
G1 F10.0 Z-5.25
G1 F30.0 X104.8423
G1 X104.6969 Y-101.127
G1 X104.6062 Y-101.1942
G1 X104.5296 Y-101.2692
G1 X104.507 Y-101.2977
G1 X104.47 Y-101.3619
G1 X104.452 Y-101.4302
G1 X104.439 Y-101.5722
G1 X104.4321 Y-101.7146
G1 X104.4157 Y-101.7662
G1 X104.4146 Y-101.7808
G1 X104.4143 Y-101.9073
G1 X104.4146 Y-101.9115
G1 X104.4254 Y-102.0334
G1 X104.4567 Y-102.2605
G1 X104.4606 Y-102.2853
G1 X104.4769 Y-102.3828
G1 X104.5098 Y-102.565
G1 X104.5405 Y-102.7241
G1 X104.5974 Y-103.0019
G1 X104.6879 Y-103.4174
G1 X104.7828 Y-103.8319
G1 X104.9361 Y-104.4868
G1 X105.0713 Y-105.0596
G1 X105.5496 Y-107.0633
G1 X105.7907 Y-108.0646
G1 X106.0329 Y-109.0657
G1 X106.2609 Y-110.0112
G1 X106.4302 Y-110.7208
G1 X106.6791 Y-111.7864
G1 X106.7396 Y-112.0533
G1 X106.762 Y-112.1534
G1 X106.8006 Y-112.3288
G1 X106.8565 Y-112.5923
G1 X106.906 Y-112.8569
G1 X106.9888 Y-112.6375
G1 X107.0608 Y-112.4454
G1 X107.3095 Y-111.7719
G1 X107.3403 Y-111.6875
G1 X107.3672 Y-111.6137
G1 X107.5542 Y-111.0968
G1 X107.8827 Y-110.1807
G1 X107.8981 Y-110.1377
G1 X108.3814 Y-108.7844
G1 X108.8639 Y-107.4309
G1 X109.4402 Y-105.8057
G1 X109.5117 Y-105.6023
G1 X109.543 Y-105.5133
G1 X109.7757 Y-104.8455
G1 X109.8333 Y-104.6783
G1 X109.9186 Y-104.4272
G1 X109.9239 Y-104.4114
G1 X110.0016 Y-104.1753
G1 X110.4637 Y-104.168
G1 X110.925 Y-104.1406
G1 X110.989 Y-104.1353
G1 X111.2834 Y-104.0988
G1 X111.4804 Y-104.063
G1 X111.6824 Y-104.01
G1 X111.721 Y-103.9975
G1 X111.854 Y-103.9427
G1 X111.9463 Y-103.8908
G1 X112.0508 Y-103.8086
G1 X112.1417 Y-103.7117
G1 X112.2171 Y-103.6022
G1 X112.2752 Y-103.4827
G1 X112.2816 Y-103.4659
G1 X112.3278 Y-103.3196
G1 X112.3502 Y-103.2028
G1 X112.3681 Y-103.0152
G1 X112.3696 Y-102.9317
G1 X112.3596 Y-102.7684
G1 X112.3464 Y-102.6832
G1 X112.3125 Y-102.5579
G1 X112.2597 Y-102.4393
G1 X112.197 Y-102.3404
G1 X112.1108 Y-102.2456
G1 X112.0109 Y-102.1653
G1 X111.9066 Y-102.1049
G1 X111.7155 Y-102.0236
G1 X111.5174 Y-101.9611
G1 X111.3444 Y-101.9231
G1 X111.2715 Y-101.9107
G1 X111.0155 Y-101.8821
G1 X110.758 Y-101.8734
G1 X110.7557
G1 X110.5848 Y-101.8753
G1 X110.4567 Y-101.8798
G1 X110.4327 Y-101.881
G1 X110.1963 Y-101.9013
G1 X110.0744 Y-101.9197
G1 X109.827 Y-101.9741
G1 X109.6511 Y-102.0256
G1 X109.2013 Y-102.1777
G1 X109.0032 Y-102.2497
G1 X108.8523 Y-102.3146
G1 X108.811 Y-102.3364
G1 X108.8243 Y-100.8944
G1 X108.9589 Y-100.9627
G1 X109.0366 Y-100.9924
G1 X109.1477 Y-101.0288
G1 X109.2041 Y-101.0445
G1 X109.2608 Y-101.0588
G1 X109.5053 Y-101.1165
G1 X109.7503 Y-101.1723
G1 X109.9818
G1 X110.3324
G1 X110.6708 Y-101.1809
G1 X111.0082 Y-101.2095
G1 X111.2117 Y-101.2365
G1 X111.5001 Y-101.2901
G1 X111.7842 Y-101.3633
G1 X112.0626 Y-101.4556
G1 X112.0654 Y-101.4567
G1 X112.2159 Y-101.5223
G1 X112.3573 Y-101.6057
G1 X112.3825 Y-101.6231
G1 X112.4917 Y-101.7124
G1 X112.5872 Y-101.8163
G1 X112.667 Y-101.9326
G1 X112.7202 Y-102.0367
G1 X112.7708 Y-102.1788
G1 X112.7969 Y-102.2939
G1 X112.817 Y-102.4587
G1 X112.8195 Y-102.5614
G1 X112.818 Y-102.6738
G1 X112.8044 Y-102.9142
G1 X112.781 Y-103.0941
G1 X112.7357 Y-103.3163
G1 X112.7119 Y-103.4044
G1 X112.6495 Y-103.5814
G1 X112.5686 Y-103.7507
G1 X112.5166 Y-103.8397
G1 X112.4212 Y-103.9706
G1 X112.3104 Y-104.0888
G1 X112.1911 Y-104.1885
G1 X112.0271 Y-104.2949
G1 X111.8531 Y-104.384
G1 X111.751 Y-104.4263
G1 X111.6631 Y-104.4587
G1 X111.4159 Y-104.5315
G1 X111.1639 Y-104.5849
G1 X110.9791 Y-104.6113
G1 X110.6462 Y-104.6414
G1 X110.3121 Y-104.6516
G1 X110.2795 Y-104.6515
G1 X110.1244 Y-105.0669
G1 X109.8913 Y-105.6898
G1 X109.7745 Y-106.0012
G1 X109.7161 Y-106.1568
G1 X109.6576 Y-106.3124
G1 X108.9527 Y-108.1948
G1 X108.2488 Y-110.0775
G1 X107.9297 Y-110.9312
G1 X106.9722 Y-113.492
G1 X106.4385 Y-112.1016
G1 X106.4104 Y-112.0266
G1 X106.1371 Y-111.2912
G1 X105.8675 Y-110.5542
G1 X105.7627 Y-110.2652
G1 X105.3713 Y-109.1805
G1 X105.353 Y-109.1296
G1 X105.0655 Y-108.3283
G1 X104.9579 Y-108.0277
G1 X104.5821 Y-106.9755
G1 X104.4883 Y-106.7124
G1 X104.418 Y-106.515
G1 X104.3653 Y-106.367
G1 X104.2862 Y-106.145
G1 X104.2072 Y-105.923
G1 X102.7123 Y-101.7281
G1 X102.6504 Y-101.6167
G1 X102.5717 Y-101.5163
G1 X102.4947 Y-101.4428
G1 X102.3771 Y-101.3585
G1 X102.2491 Y-101.2912
G1 X102.1832 Y-101.2649
G1 X102.0135 Y-101.2116
G1 X101.5085 Y-101.04
G1 F10.0 Z-5.5
G1 F30.0 X104.8423
G1 X104.6969 Y-101.127
G1 X104.6062 Y-101.1942
G1 X104.5296 Y-101.2692
G1 X104.507 Y-101.2977
G1 X104.47 Y-101.3619
G1 X104.452 Y-101.4302
G1 X104.439 Y-101.5722
G1 X104.4321 Y-101.7146
G1 X104.4157 Y-101.7662
G1 X104.4146 Y-101.7808
G1 X104.4143 Y-101.9073
G1 X104.4146 Y-101.9115
G1 X104.4254 Y-102.0334
G1 X104.4567 Y-102.2605
G1 X104.4606 Y-102.2853
G1 X104.4769 Y-102.3828
G1 X104.5098 Y-102.565
G1 X104.5405 Y-102.7241
G1 X104.5974 Y-103.0019
G1 X104.6879 Y-103.4174
G1 X104.7828 Y-103.8319
G1 X104.9361 Y-104.4868
G1 X105.0713 Y-105.0596
G1 X105.5496 Y-107.0633
G1 X105.7907 Y-108.0646
G1 X106.0329 Y-109.0657
G1 X106.2609 Y-110.0112
G1 X106.4302 Y-110.7208
G1 X106.6791 Y-111.7864
G1 X106.7396 Y-112.0533
G1 X106.762 Y-112.1534
G1 X106.8006 Y-112.3288
G1 X106.8565 Y-112.5923
G1 X106.906 Y-112.8569
G1 X106.9888 Y-112.6375
G1 X107.0608 Y-112.4454
G1 X107.3095 Y-111.7719
G1 X107.3403 Y-111.6875
G1 X107.3672 Y-111.6137
G1 X107.5542 Y-111.0968
G1 X107.8827 Y-110.1807
G1 X107.8981 Y-110.1377
G1 X108.3814 Y-108.7844
G1 X108.8639 Y-107.4309
G1 X109.4402 Y-105.8057
G1 X109.5117 Y-105.6023
G1 X109.543 Y-105.5133
G1 X109.7757 Y-104.8455
G1 X109.8333 Y-104.6783
G1 X109.9186 Y-104.4272
G1 X109.9239 Y-104.4114
G1 X110.0016 Y-104.1753
G1 X110.4637 Y-104.168
G1 X110.925 Y-104.1406
G1 X110.989 Y-104.1353
G1 X111.2834 Y-104.0988
G1 X111.4804 Y-104.063
G1 X111.6824 Y-104.01
G1 X111.721 Y-103.9975
G1 X111.854 Y-103.9427
G1 X111.9463 Y-103.8908
G1 X112.0508 Y-103.8086
G1 X112.1417 Y-103.7117
G1 X112.2171 Y-103.6022
G1 X112.2752 Y-103.4827
G1 X112.2816 Y-103.4659
G1 X112.3278 Y-103.3196
G1 X112.3502 Y-103.2028
G1 X112.3681 Y-103.0152
G1 X112.3696 Y-102.9317
G1 X112.3596 Y-102.7684
G1 X112.3464 Y-102.6832
G1 X112.3125 Y-102.5579
G1 X112.2597 Y-102.4393
G1 X112.197 Y-102.3404
G1 X112.1108 Y-102.2456
G1 X112.0109 Y-102.1653
G1 X111.9066 Y-102.1049
G1 X111.7155 Y-102.0236
G1 X111.5174 Y-101.9611
G1 X111.3444 Y-101.9231
G1 X111.2715 Y-101.9107
G1 X111.0155 Y-101.8821
G1 X110.758 Y-101.8734
G1 X110.7557
G1 X110.5848 Y-101.8753
G1 X110.4567 Y-101.8798
G1 X110.4327 Y-101.881
G1 X110.1963 Y-101.9013
G1 X110.0744 Y-101.9197
G1 X109.827 Y-101.9741
G1 X109.6511 Y-102.0256
G1 X109.2013 Y-102.1777
G1 X109.0032 Y-102.2497
G1 X108.8523 Y-102.3146
G1 X108.811 Y-102.3364
G1 X108.8243 Y-100.8944
G1 X108.9589 Y-100.9627
G1 X109.0366 Y-100.9924
G1 X109.1477 Y-101.0288
G1 X109.2041 Y-101.0445
G1 X109.2608 Y-101.0588
G1 X109.5053 Y-101.1165
G1 X109.7503 Y-101.1723
G1 X109.9818
G1 X110.3324
G1 X110.6708 Y-101.1809
G1 X111.0082 Y-101.2095
G1 X111.2117 Y-101.2365
G1 X111.5001 Y-101.2901
G1 X111.7842 Y-101.3633
G1 X112.0626 Y-101.4556
G1 X112.0654 Y-101.4567
G1 X112.2159 Y-101.5223
G1 X112.3573 Y-101.6057
G1 X112.3825 Y-101.6231
G1 X112.4917 Y-101.7124
G1 X112.5872 Y-101.8163
G1 X112.667 Y-101.9326
G1 X112.7202 Y-102.0367
G1 X112.7708 Y-102.1788
G1 X112.7969 Y-102.2939
G1 X112.817 Y-102.4587
G1 X112.8195 Y-102.5614
G1 X112.818 Y-102.6738
G1 X112.8044 Y-102.9142
G1 X112.781 Y-103.0941
G1 X112.7357 Y-103.3163
G1 X112.7119 Y-103.4044
G1 X112.6495 Y-103.5814
G1 X112.5686 Y-103.7507
G1 X112.5166 Y-103.8397
G1 X112.4212 Y-103.9706
G1 X112.3104 Y-104.0888
G1 X112.1911 Y-104.1885
G1 X112.0271 Y-104.2949
G1 X111.8531 Y-104.384
G1 X111.751 Y-104.4263
G1 X111.6631 Y-104.4587
G1 X111.4159 Y-104.5315
G1 X111.1639 Y-104.5849
G1 X110.9791 Y-104.6113
G1 X110.6462 Y-104.6414
G1 X110.3121 Y-104.6516
G1 X110.2795 Y-104.6515
G1 X110.1244 Y-105.0669
G1 X109.8913 Y-105.6898
G1 X109.7745 Y-106.0012
G1 X109.7161 Y-106.1568
G1 X109.6576 Y-106.3124
G1 X108.9527 Y-108.1948
G1 X108.2488 Y-110.0775
G1 X107.9297 Y-110.9312
G1 X106.9722 Y-113.492
G1 X106.4385 Y-112.1016
G1 X106.4104 Y-112.0266
G1 X106.1371 Y-111.2912
G1 X105.8675 Y-110.5542
G1 X105.7627 Y-110.2652
G1 X105.3713 Y-109.1805
G1 X105.353 Y-109.1296
G1 X105.0655 Y-108.3283
G1 X104.9579 Y-108.0277
G1 X104.5821 Y-106.9755
G1 X104.4883 Y-106.7124
G1 X104.418 Y-106.515
G1 X104.3653 Y-106.367
G1 X104.2862 Y-106.145
G1 X104.2072 Y-105.923
G1 X102.7123 Y-101.7281
G1 X102.6504 Y-101.6167
G1 X102.5717 Y-101.5163
G1 X102.4947 Y-101.4428
G1 X102.3771 Y-101.3585
G1 X102.2491 Y-101.2912
G1 X102.1832 Y-101.2649
G1 X102.0135 Y-101.2116
G1 X101.5085 Y-101.04
G0 Z0.125
G0 X116.3609 Y-105.791
G0 Z-4.9375
G1 F10.0 Z-5.25
G1 F30.0 X116.5929 Y-105.7201
G1 X116.83 Y-105.6686
G1 X116.9419 Y-105.6513
G1 X117.2595 Y-105.6191
G1 X117.5785 Y-105.6069
G1 X117.6373 Y-105.6068
G1 X117.6119 Y-106.426
G1 X117.5611 Y-107.969
G1 X116.9388
G1 X116.9126 Y-107.3849
G1 X116.8912 Y-106.8006
G1 X116.8849 Y-106.5832
G1 X116.8829 Y-106.5016
G1 X116.8774 Y-106.2161
G1 X116.8765 Y-106.1447
G1 X116.8755 Y-106.0376
G1 X116.8753 Y-105.9841
G1 X116.8752 Y-105.9307
G1 X116.8744 Y-105.9049
G1 X116.8685 Y-105.8665
G1 X116.8502 Y-105.8326
G1 X116.8499 Y-105.8323
G1 X116.8081 Y-105.8144
G1 X116.804 Y-105.8137
G1 X116.7546 Y-105.8101
G1 X116.6201 Y-105.8275
G1 X116.5572 Y-105.8427
G1 X116.5092 Y-105.8566
G1 X116.4378 Y-105.8799
G1 X116.3672 Y-105.9053
G1 X116.3609 Y-105.791
G1 F10.0 Z-5.5
G1 F30.0 X116.5929 Y-105.7201
G1 X116.83 Y-105.6686
G1 X116.9419 Y-105.6513
G1 X117.2595 Y-105.6191
G1 X117.5785 Y-105.6069
G1 X117.6373 Y-105.6068
G1 X117.6119 Y-106.426
G1 X117.5611 Y-107.969
G1 X116.9388
G1 X116.9126 Y-107.3849
G1 X116.8912 Y-106.8006
G1 X116.8849 Y-106.5832
G1 X116.8829 Y-106.5016
G1 X116.8774 Y-106.2161
G1 X116.8765 Y-106.1447
G1 X116.8755 Y-106.0376
G1 X116.8753 Y-105.9841
G1 X116.8752 Y-105.9307
G1 X116.8744 Y-105.9049
G1 X116.8685 Y-105.8665
G1 X116.8502 Y-105.8326
G1 X116.8499 Y-105.8323
G1 X116.8081 Y-105.8144
G1 X116.804 Y-105.8137
G1 X116.7546 Y-105.8101
G1 X116.6201 Y-105.8275
G1 X116.5572 Y-105.8427
G1 X116.5092 Y-105.8566
G1 X116.4378 Y-105.8799
G1 X116.3672 Y-105.9053
G1 X116.3609 Y-105.791
G0 Z0.125
G0 X118.6236 Y-107.0267
G0 Z-4.9375
G1 F10.0 Z-5.25
G1 F30.0 X118.6356 Y-107.0056
G1 X118.6691 Y-106.9435
G1 X118.7557 Y-106.7919
G1 X118.7655 Y-106.7754
G1 X118.9816 Y-106.4351
G1 X119.0941 Y-106.2716
G1 X119.1806 Y-106.1486
G1 X119.447 Y-105.7847
G1 X119.5015 Y-105.7117
G1 X119.8209 Y-105.3005
G1 X119.8947 Y-105.2099
G1 X119.9868 Y-105.1128
G1 X120.023 Y-105.0816
G1 X120.1006 Y-105.0322
G1 X120.1618 Y-105.0124
G1 X120.1899 Y-105.01
G1 X120.2124 Y-105.0124
G1 X120.2271 Y-105.0244
G1 X120.228 Y-105.029
G1 X120.1965 Y-105.1052
G1 X120.1402 Y-105.2153
G1 X120.1112 Y-105.2699
G1 X120.0965 Y-105.2971
G1 X120.0819 Y-105.3242
G1 X119.9733 Y-105.5263
G1 X119.6502 Y-106.1339
G1 X119.5447 Y-106.336
G1 X119.506 Y-106.4123
G1 X119.4395 Y-106.5463
G1 X119.3031 Y-106.8425
G1 X119.2565 Y-106.9563
G1 X119.1847 Y-107.1512
G1 X119.1541 Y-107.2507
G1 X119.1362 Y-107.3494
G1 X119.1359 Y-107.3531
G1 X119.1437 Y-107.4208
G1 X119.1708 Y-107.4833
G1 X119.1987 Y-107.5196
G1 X119.2678 Y-107.5728
G1 X119.3471 Y-107.6089
G1 X119.3517 Y-107.6103
G1 X119.5148 Y-107.6502
G1 X119.6815 Y-107.6705
G1 X119.6825
G1 X119.7664 Y-107.6765
G1 X119.8294 Y-107.6797
G1 X120.0185 Y-107.6833
G1 X120.1582
G1 X120.1506 Y-107.4007
G1 X120.1424 Y-106.9769
G1 X120.1416 Y-106.9239
G1 X120.1406 Y-106.8312
G1 X120.1395 Y-106.692
G1 X120.1391 Y-106.553
G1 X120.1461 Y-106.454
G1 X120.1677 Y-106.3721
G1 X120.2054 Y-106.3081
G1 X120.2587 Y-106.2565
G1 X120.2757 Y-106.245
G1 X120.3701 Y-106.1968
G1 X120.3861 Y-106.1907
G1 X120.5043 Y-106.1561
G1 X120.7797 Y-106.1054
G1 X120.9011 Y-106.0895
G1 X120.8895 Y-106.5006
G1 X120.8841 Y-106.7062
G1 X120.8789 Y-106.9117
G1 X120.8567 Y-107.6642
G1 X121.3425 Y-107.6388
G1 X121.4546 Y-107.6319
G1 X121.7868 Y-107.6012
G1 X121.7902 Y-107.6008
G1 X121.8091 Y-107.7024
G1 X121.3272 Y-107.8048
G1 X121.2472 Y-107.8199
G1 X121.2228 Y-107.8241
G1 X121.0401 Y-107.8541
G1 X120.9484 Y-107.8678
G1 X120.8567 Y-107.8802
G1 X120.8454 Y-108.2627
G1 X120.8345 Y-108.6453
G1 X120.8276 Y-108.9453
G1 X120.8248 Y-109.2454
