; generated by Slic3r 0.9.11-dev on 2013-08-24 at 16:29:50

; layer_height = 0.2
; perimeters = 3
; top_solid_layers = 3
; bottom_solid_layers = 3
; fill_density = 0.2
; perimeter_speed = 50
; infill_speed = 60
; travel_speed = 130
; nozzle_diameter = 0.5
; filament_diameter = 2.97
; extrusion_multiplier = 1
; perimeters extrusion width = 0.50mm
; infill extrusion width = 1.02mm
; solid infill extrusion width = 0.85mm
; top infill extrusion width = 0.85mm
; first layer extrusion width = 1.00mm

G21 ; set units to millimeters
M107
M190 S100 ; wait for bed temperature to be reached
M104 S220 ; set temperature
G28 ; home all axes
M109 S220 ; wait for temperature to be reached
G90 ; use absolute coordinates
G92 E0
M82 ; use absolute distances for extrusion
G1 F1800.000 E-1.00000
G92 E0
G1 Z0.500 F7800.000
G1 X40.895 Y58.020
G1 F1800.000 E1.00000
G1 X42.055 Y57.370 F900.000 E1.08567
G1 X43.315 Y56.950 E1.17124
G1 X93.155 Y45.780 E4.46197
G1 X93.905 Y45.660 E4.51090
G1 X94.665 Y45.620 E4.55994
G1 X130.295 Y45.620 E6.85549
G1 X131.695 Y45.760 E6.94614
G1 X133.035 Y46.190 E7.03681
G1 X134.265 Y46.870 E7.12736
G1 X135.325 Y47.800 E7.21821
G1 X136.175 Y48.920 E7.30880
G1 X136.785 Y50.180 E7.39899
G1 X137.125 Y51.550 E7.48994
G1 X150.345 Y145.600 E13.60893
G1 X150.395 Y146.950 E13.69596
G1 X150.185 Y148.290 E13.78335
G1 X149.725 Y149.560 E13.87037
G1 X149.015 Y150.710 E13.95745
G1 X148.105 Y151.710 E14.04456
G1 X147.005 Y152.500 E14.13181
G1 X145.775 Y153.070 E14.21916
G1 X144.465 Y153.390 E14.30604
G1 X137.885 Y154.310 E14.73410
G1 X136.925 Y154.370 E14.79607
G1 X88.035 Y154.370 E17.94593
G1 X87.075 Y154.310 E18.00791
G1 X80.195 Y153.340 E18.45555
G1 X43.575 Y146.580 E20.85475
G1 X42.265 Y146.200 E20.94263
G1 X41.055 Y145.570 E21.03053
G1 X39.985 Y144.710 E21.11897
G1 X39.115 Y143.660 E21.20682
G1 X38.465 Y142.460 E21.29475
G1 X38.065 Y141.160 E21.38238
G1 X37.935 Y139.800 E21.47040
G1 X37.935 Y63.680 E26.37463
G1 X38.065 Y62.360 E26.46009
G1 X38.435 Y61.090 E26.54532
G1 X39.055 Y59.910 E26.63120
G1 X39.885 Y58.870 E26.71692
G1 X40.793 Y58.106 E26.79335
G1 F1800.000 E25.79335
G92 E0
G1 X137.226 Y133.542 F7800.000
G1 F1800.000 E1.00000
G1 X139.389 Y133.238 F540.000 E1.14076
G1 X139.742 Y135.749 E1.30418
G1 X137.579 Y136.054 E1.44495
G1 X137.244 Y133.674 E1.59974
G1 X137.490 Y132.603 F7800.000
G1 X140.149 Y132.229 F540.000 E1.77273
G1 X140.750 Y136.509 E2.05118
G1 X136.819 Y137.062 E2.30697
G1 X136.217 Y132.782 E2.58544
G1 X137.357 Y132.622 E2.65961
G1 X137.366 Y131.719 F7800.000
G1 X140.909 Y131.221 F630.000 E2.89011
G1 X141.759 Y137.269 E3.28359
G1 X137.718 Y137.837 E3.54648
G1 X138.088 Y140.309 E3.70755
G1 X137.577 Y140.381 E3.74082
G1 X138.482 Y146.818 E4.15960
G1 X137.312 Y146.982 E4.23572
G1 X133.956 Y123.110 E5.78889
G1 X135.126 Y122.945 E5.86501
G1 X136.031 Y129.382 E6.28379
G1 X136.499 Y129.316 E6.31426
G1 X136.651 Y130.392 E6.38424
G1 X136.886 Y131.786 E6.47536
G1 X137.233 Y131.738 E6.49794
G1 X137.915 Y132.423 F7800.000
G1 F1800.000 E5.49794
G92 E0
G1 X148.319 Y147.136 F7800.000
G1 X146.821 Y149.126
G1 X135.449 Y150.719
G1 X89.483 Y150.719
G1 X87.742 Y133.542
G1 F1800.000 E1.00000
G1 X87.389 Y136.054 F540.000 E1.16342
G1 X85.226 Y135.749 E1.30418
G1 X85.579 Y133.238 E1.46760
G1 X87.609 Y133.523 E1.59974
G1 X87.478 Y132.603 F7800.000
G1 X88.750 Y132.782 F540.000 E1.68254
G1 X88.149 Y137.062 E1.96100
G1 X84.217 Y136.509 E2.21680
G1 X84.819 Y132.229 E2.49525
G1 X87.345 Y132.584 E2.65961
G1 X87.488 Y131.703 F7800.000
G1 X88.081 Y131.786 F630.000 E2.69820
G1 X88.317 Y130.392 E2.78932
G1 X88.468 Y129.316 E2.85930
G1 X88.868 Y129.372 E2.88530
G1 X89.497 Y125.397 E3.14463
G1 X89.841 Y122.945 E3.30412
G1 X91.011 Y123.110 E3.38024
G1 X87.656 Y146.982 E4.93341
G1 X86.486 Y146.818 E5.00953
G1 X87.391 Y140.381 E5.42831
G1 X86.879 Y140.309 E5.46158
G1 X87.250 Y137.837 E5.62265
G1 X83.209 Y137.269 E5.88554
G1 X84.059 Y131.221 E6.27902
G1 X87.356 Y131.684 E6.49349
G1 X87.713 Y132.259 F7800.000
G1 F1800.000 E5.49349
G92 E0
G1 X88.108 Y131.844 F7800.000
G1 X83.270 Y137.223
G1 X82.713 Y141.184
G1 X83.777 Y141.334
G1 X83.837 Y141.288
G1 F1800.000 E1.00000
G1 X83.126 Y146.346 F540.000 E1.32905
G1 X81.956 Y146.181 E1.40517
G1 X82.667 Y141.124 E1.73422
G1 X83.705 Y141.270 E1.80171
G1 X83.288 Y141.992 F7800.000
G1 F1800.000 E0.80171
G92 E0
G1 X83.777 Y141.334 F7800.000
G1 X82.713 Y141.184
G1 X83.270 Y137.223
G1 X88.108 Y131.844
G1 X90.951 Y123.155
G1 X93.251 Y126.615
G1 X131.721 Y126.622
G1 X134.017 Y123.155
G1 X136.855 Y131.845
G1 X141.698 Y137.223
G1 X142.255 Y141.184
G1 X141.191 Y141.334
G1 X141.130 Y141.288
G1 F1800.000 E1.00000
G1 X142.300 Y141.124 F540.000 E1.07612
G1 X143.011 Y146.181 E1.40517
G1 X141.841 Y146.346 E1.48129
G1 X141.149 Y141.421 E1.80171
G1 X141.958 Y141.623 F7800.000
G1 F1800.000 E0.80171
G92 E0
G1 X142.255 Y141.184 F7800.000
G1 X141.698 Y137.223
G1 X136.855 Y131.845
G1 X134.017 Y123.155
G1 X131.721 Y126.622
G1 X122.884 Y112.266
G1 X120.859 Y108.844
G1 X121.698 Y109.683
G1 F1800.000 E1.00000
G1 X103.270 Y109.683 F900.000 E2.18728
G1 X103.270 Y92.378 E3.30216
G1 X103.144 Y91.467 E3.36146
G1 X103.664 Y90.005 E3.46143
G1 X121.698 Y90.005 E4.62332
G1 X121.698 Y109.549 E5.88251
G1 X108.305 Y108.790 F7800.000
G1 X104.162 Y108.790 F630.000 E6.14941
G1 X104.162 Y92.317 E7.21074
G1 X104.058 Y91.560 E7.25994
G1 X104.294 Y90.897 E7.30528
G1 X108.305 Y90.897 E7.56372
G1 X108.306 Y98.528 E8.05538
G1 X108.327 Y100.087 E8.15583
G1 X108.305 Y101.895 E8.27231
G1 X108.305 Y108.656 E8.70790
G1 X108.305 Y109.683 F7800.000
G1 X110.412 Y108.790
G1 X110.412 Y90.897 F630.000 E9.86068
G1 X114.555 Y90.897 E10.12759
G1 X114.555 Y108.790 E11.28037
G1 X110.546 Y108.790 E11.53865
G1 X109.520 Y108.790 F7800.000
G1 X116.662 Y108.790
G1 X116.662 Y101.816 F630.000 E11.98799
G1 X116.641 Y100.087 E12.09935
G1 X116.661 Y98.533 E12.19951
G1 X116.631 Y97.030 E12.29638
G1 X116.662 Y95.559 E12.39112
G1 X116.660 Y94.262 E12.47470
G1 X116.579 Y93.122 E12.54837
G1 X116.662 Y92.265 E12.60384
G1 X116.662 Y90.897 E12.69193
G1 X120.805 Y90.897 E12.95884
G1 X120.805 Y108.790 E14.11162
G1 X116.796 Y108.790 E14.36990
G1 X115.770 Y108.790 F7800.000
G1 X121.539 Y110.575
G1 X121.281 Y111.329 F900.000 E14.42121
G1 X121.200 Y112.310 E14.48464
G1 X121.355 Y113.304 E14.54944
G1 X121.709 Y114.281 E14.61641
G1 X122.235 Y115.254 E14.68767
G1 X122.939 Y116.280 E14.76781
G1 X123.742 Y117.331 E14.85302
G1 X125.570 Y119.623 E15.04190
G1 X126.505 Y120.831 E15.14033
G1 X127.419 Y122.086 E15.24036
G1 X128.263 Y123.356 E15.33859
G1 X128.987 Y124.607 E15.43178
G1 X129.590 Y125.880 E15.52246
G1 X130.083 Y127.166 E15.61124
G1 X130.488 Y128.482 E15.69994
G1 X130.820 Y129.834 E15.78961
G1 X131.090 Y131.202 E15.87948
G1 X131.315 Y132.606 E15.97105
G1 X131.866 Y136.912 E16.25077
G1 X131.990 Y138.232 E16.33617
G1 X132.037 Y139.847 E16.44029
G1 X131.117 Y139.627 E16.50122
G1 X130.676 Y139.492 E16.53094
G1 X129.895 Y139.216 E16.58431
G1 X128.221 Y138.525 E16.70097
G1 X127.562 Y138.210 E16.74802
G1 X125.711 Y137.402 E16.87814
G1 X124.744 Y137.010 E16.94539
G1 X124.086 Y136.770 E16.99051
G1 X123.138 Y136.450 E17.05494
G1 X122.145 Y136.160 E17.12159
G1 X121.157 Y135.913 E17.18726
G1 X120.198 Y135.710 E17.25036
G1 X119.190 Y135.531 E17.31633
G1 X118.219 Y135.389 E17.37957
G1 X117.255 Y135.274 E17.44212
G1 X115.347 Y135.114 E17.56545
G1 X113.439 Y135.035 E17.68848
G1 X112.484 Y135.025 E17.75006
G1 X111.528 Y135.035 E17.81163
G1 X109.620 Y135.114 E17.93466
G1 X107.713 Y135.274 E18.05799
G1 X106.748 Y135.389 E18.12055
G1 X105.777 Y135.531 E18.18379
G1 X104.769 Y135.710 E18.24975
G1 X103.811 Y135.913 E18.31285
G1 X102.822 Y136.160 E18.37852
G1 X101.829 Y136.450 E18.44517
G1 X100.882 Y136.770 E18.50960
G1 X100.224 Y137.010 E18.55472
G1 X99.256 Y137.402 E18.62197
G1 X97.405 Y138.210 E18.75209
G1 X96.747 Y138.525 E18.79914
G1 X95.073 Y139.216 E18.91580
G1 X94.292 Y139.492 E18.96918
G1 X93.851 Y139.627 E18.99889
G1 X92.931 Y139.847 E19.05982
G1 X92.977 Y138.232 E19.16395
G1 X93.101 Y136.912 E19.24935
G1 X93.653 Y132.606 E19.52906
G1 X93.878 Y131.202 E19.62064
G1 X94.148 Y129.834 E19.71050
G1 X94.480 Y128.482 E19.80017
G1 X94.885 Y127.166 E19.88887
G1 X95.378 Y125.880 E19.97765
G1 X95.980 Y124.607 E20.06834
G1 X96.705 Y123.356 E20.16152
G1 X97.548 Y122.086 E20.25975
G1 X98.463 Y120.831 E20.35978
G1 X99.398 Y119.623 E20.45822
G1 X101.226 Y117.331 E20.64709
G1 X102.029 Y116.280 E20.73230
G1 X102.733 Y115.254 E20.81244
G1 X103.258 Y114.281 E20.88371
G1 X103.613 Y113.304 E20.95067
G1 X103.767 Y112.310 E21.01547
G1 X103.687 Y111.329 E21.07891
G1 X103.429 Y110.575 E21.13021
G1 X121.405 Y110.575 E22.28836
G1 X121.285 Y89.112 F7800.000
G1 X103.683 Y89.112 F900.000 E23.42243
G1 X103.850 Y88.530 E23.46144
G1 X103.967 Y87.691 E23.51599
G1 X103.969 Y86.784 E23.57448
G1 X103.856 Y85.812 E23.63749
G1 X103.631 Y84.782 E23.70540
G1 X103.450 Y84.114 E23.74999
G1 X102.533 Y81.024 E23.95767
G1 X102.198 Y79.827 E24.03777
G1 X101.999 Y79.062 E24.08868
G1 X101.724 Y77.831 E24.16997
G1 X101.517 Y76.606 E24.25003
G1 X101.391 Y75.367 E24.33024
G1 X101.336 Y74.101 E24.41189
G1 X101.343 Y72.804 E24.49542
G1 X101.404 Y71.482 E24.58073
G1 X101.510 Y70.128 E24.66820
G1 X101.650 Y68.756 E24.75708
G1 X102.175 Y64.532 E25.03130
G1 X102.369 Y63.192 E25.11853
G1 X102.647 Y61.650 E25.21951
G1 X103.533 Y62.473 E25.29743
G1 X104.553 Y63.324 E25.38298
G1 X105.117 Y63.754 E25.42867
G1 X106.097 Y64.385 E25.50379
G1 X106.718 Y64.707 E25.54885
G1 X107.338 Y64.975 E25.59240
G1 X107.911 Y65.177 E25.63151
G1 X108.568 Y65.367 E25.67559
G1 X109.160 Y65.502 E25.71469
G1 X109.735 Y65.605 E25.75233
G1 X110.834 Y65.742 E25.82371
G1 X111.932 Y65.810 E25.89456
G1 X112.484 Y65.818 E25.93013
G1 X113.036 Y65.810 E25.96569
G1 X114.133 Y65.742 E26.03654
G1 X115.233 Y65.605 E26.10792
G1 X115.808 Y65.502 E26.14556
G1 X116.399 Y65.367 E26.18466
G1 X117.057 Y65.177 E26.22874
G1 X117.629 Y64.975 E26.26785
G1 X118.250 Y64.707 E26.31140
G1 X118.870 Y64.385 E26.35646
G1 X119.851 Y63.754 E26.43158
G1 X120.415 Y63.324 E26.47727
G1 X121.435 Y62.473 E26.56282
G1 X122.320 Y61.650 E26.64074
G1 X122.599 Y63.192 E26.74172
G1 X122.793 Y64.532 E26.82895
G1 X123.321 Y68.788 E27.10523
G1 X123.458 Y70.128 E27.19206
G1 X123.564 Y71.482 E27.27952
G1 X123.625 Y72.804 E27.36482
G1 X123.632 Y74.101 E27.44836
G1 X123.577 Y75.367 E27.53001
G1 X123.451 Y76.606 E27.61022
G1 X123.244 Y77.831 E27.69028
G1 X122.969 Y79.062 E27.77156
G1 X122.770 Y79.827 E27.82248
G1 X122.435 Y81.024 E27.90258
G1 X121.517 Y84.114 E28.11026
G1 X121.337 Y84.782 E28.15484
G1 X121.112 Y85.812 E28.22276
G1 X120.999 Y86.784 E28.28577
G1 X121.001 Y87.691 E28.34426
G1 X121.118 Y88.530 E28.39881
G1 X121.248 Y88.983 E28.42919
G1 X122.100 Y88.716 F7800.000
G1 X122.178 Y88.980 F900.000 E28.44688
G1 X122.418 Y89.509 E28.48432
G1 X122.681 Y89.947 E28.51725
G1 X123.117 Y90.544 E28.56484
G1 X123.345 Y90.905 E28.59240
G1 X123.428 Y91.102 E28.60615
G1 X123.515 Y91.398 E28.62604
G1 X123.600 Y91.827 E28.65423
G1 X123.681 Y92.434 E28.69365
G1 X123.752 Y93.236 E28.74554
G1 X123.811 Y94.257 E28.81142
G1 X123.858 Y95.525 E28.89315
G1 X123.912 Y98.543 E29.08766
G1 X123.914 Y101.802 E29.29764
G1 X123.864 Y104.824 E29.49234
G1 X123.786 Y106.744 E29.61614
G1 X123.698 Y107.925 E29.69246
G1 X123.621 Y108.533 E29.73194
G1 X123.538 Y108.960 E29.75996
G1 X123.454 Y109.248 E29.77927
G1 X123.376 Y109.430 E29.79201
G1 X123.160 Y109.750 E29.81694
G1 X122.672 Y110.362 E29.86733
G1 X122.378 Y110.867 E29.90497
G1 X122.161 Y111.513 E29.94891
G1 X122.099 Y112.276 E29.99820
G1 X122.224 Y113.080 E30.05060
G1 X122.526 Y113.913 E30.10775
G1 X123.000 Y114.792 E30.17205
G1 X123.415 Y115.403 E30.21963
G1 X123.661 Y115.755 E30.24730
G1 X124.445 Y116.780 E30.33046
G1 X126.267 Y119.065 E30.51875
G1 X127.218 Y120.293 E30.61883
G1 X128.151 Y121.574 E30.72096
G1 X129.021 Y122.884 E30.82221
G1 X129.780 Y124.195 E30.91986
G1 X130.411 Y125.527 E31.01478
G1 X130.927 Y126.874 E31.10770
G1 X131.348 Y128.243 E31.20000
G1 X131.691 Y129.637 E31.29253
G1 X131.968 Y131.045 E31.38494
G1 X132.272 Y133.007 E31.51288
G1 X132.754 Y136.815 E31.76015
G1 X132.882 Y138.176 E31.84824
G1 X132.918 Y139.422 E31.92852
G1 X132.896 Y139.693 E31.94603
G1 X132.773 Y140.291 E31.98539
G1 X132.575 Y140.699 E32.01456
G1 X132.235 Y140.744 E32.03671
G1 X131.647 Y140.680 E32.07480
G1 X130.882 Y140.488 E32.12559
G1 X130.398 Y140.340 E32.15821
G1 X129.577 Y140.050 E32.21435
G1 X128.729 Y139.713 E32.27311
G1 X127.859 Y139.342 E32.33406
G1 X127.194 Y139.024 E32.38153
G1 X126.287 Y138.622 E32.44547
G1 X124.419 Y137.842 E32.57592
G1 X122.866 Y137.301 E32.68185
G1 X121.907 Y137.021 E32.74617
G1 X120.951 Y136.782 E32.80966
G1 X120.014 Y136.584 E32.87141
G1 X119.046 Y136.412 E32.93471
G1 X118.101 Y136.273 E32.99627
G1 X117.160 Y136.162 E33.05733
G1 X115.290 Y136.005 E33.17823
G1 X113.420 Y135.927 E33.29882
G1 X112.484 Y135.918 E33.35913
G1 X111.548 Y135.927 E33.41944
G1 X109.678 Y136.005 E33.54003
G1 X107.808 Y136.162 E33.66092
G1 X106.867 Y136.273 E33.72198
G1 X105.921 Y136.412 E33.78354
G1 X104.954 Y136.584 E33.84685
G1 X104.016 Y136.782 E33.90859
G1 X103.060 Y137.021 E33.97208
G1 X102.102 Y137.301 E34.03641
G1 X100.549 Y137.842 E34.14234
G1 X98.681 Y138.622 E34.27278
G1 X97.773 Y139.024 E34.33673
G1 X97.109 Y139.342 E34.38419
G1 X96.239 Y139.713 E34.44514
G1 X95.391 Y140.050 E34.50390
G1 X94.570 Y140.340 E34.56005
G1 X94.085 Y140.488 E34.59266
G1 X93.321 Y140.680 E34.64346
G1 X92.733 Y140.744 E34.68154
G1 X92.392 Y140.699 E34.70369
G1 X92.195 Y140.291 E34.73287
G1 X92.071 Y139.693 E34.77222
G1 X92.050 Y139.422 E34.78973
G1 X92.086 Y138.176 E34.87002
G1 X92.214 Y136.815 E34.95810
G1 X92.696 Y133.007 E35.20538
G1 X92.999 Y131.045 E35.33332
G1 X93.276 Y129.637 E35.42573
G1 X93.619 Y128.243 E35.51825
G1 X94.041 Y126.874 E35.61056
G1 X94.557 Y125.527 E35.70348
G1 X95.187 Y124.195 E35.79840
G1 X95.947 Y122.884 E35.89604
G1 X96.816 Y121.574 E35.99730
G1 X97.750 Y120.293 E36.09942
G1 X98.701 Y119.065 E36.19950
G1 X100.818 Y116.401 E36.41875
G1 X101.307 Y115.755 E36.47095
G1 X101.968 Y114.792 E36.54621
G1 X102.442 Y113.913 E36.61051
G1 X102.744 Y113.080 E36.66765
G1 X102.869 Y112.276 E36.72006
G1 X102.807 Y111.513 E36.76934
G1 X102.589 Y110.867 E36.81329
G1 X102.296 Y110.362 E36.85092
G1 X101.808 Y109.750 E36.90132
G1 X101.592 Y109.429 E36.92625
G1 X101.514 Y109.248 E36.93898
G1 X101.430 Y108.960 E36.95830
G1 X101.347 Y108.533 E36.98631
G1 X101.269 Y107.925 E37.02580
G1 X101.202 Y107.120 E37.07788
G1 X101.104 Y104.824 E37.22592
G1 X101.054 Y101.802 E37.42062
G1 X101.056 Y98.543 E37.63060
G1 X101.110 Y95.525 E37.82510
G1 X101.157 Y94.257 E37.90683
G1 X101.215 Y93.236 E37.97272
G1 X101.286 Y92.434 E38.02461
G1 X101.367 Y91.827 E38.06403
G1 X101.453 Y91.398 E38.09222
G1 X101.540 Y91.102 E38.11211
G1 X101.622 Y90.905 E38.12586
G1 X101.850 Y90.544 E38.15341
G1 X102.286 Y89.947 E38.20101
G1 X102.550 Y89.509 E38.23394
G1 X102.789 Y88.980 E38.27137
G1 X102.975 Y88.343 E38.31412
G1 X103.074 Y87.629 E38.36054
G1 X103.076 Y86.835 E38.41169
G1 X102.974 Y85.958 E38.46857
G1 X102.764 Y84.995 E38.53206
G1 X102.484 Y83.971 E38.60047
G1 X101.459 Y80.519 E38.83248
G1 X101.131 Y79.273 E38.91548
G1 X100.848 Y78.003 E38.99935
G1 X100.631 Y76.724 E39.08289
G1 X100.500 Y75.432 E39.16658
G1 X100.443 Y74.118 E39.25131
G1 X100.450 Y72.781 E39.33744
G1 X100.513 Y71.425 E39.42490
G1 X100.621 Y70.048 E39.51393
G1 X100.930 Y67.246 E39.69551
G1 X101.290 Y64.411 E39.87965
G1 X101.488 Y63.048 E39.96839
G1 X101.719 Y61.768 E40.05222
G1 X101.802 Y61.423 E40.07506
G1 X102.161 Y60.269 E40.15293
G1 X102.905 Y60.781 E40.21113
G1 X103.327 Y61.107 E40.24549
G1 X103.775 Y61.477 E40.28289
G1 X104.120 Y61.800 E40.31331
G1 X104.606 Y62.213 E40.35445
G1 X105.643 Y63.032 E40.43958
G1 X106.544 Y63.609 E40.50850
G1 X107.108 Y63.902 E40.54943
G1 X107.672 Y64.145 E40.58901
G1 X108.207 Y64.334 E40.62557
G1 X109.004 Y64.556 E40.67889
G1 X109.546 Y64.668 E40.71457
G1 X110.078 Y64.755 E40.74927
G1 X110.919 Y64.853 E40.80383
G1 X111.961 Y64.918 E40.87108
G1 X112.484 Y64.926 E40.90477
G1 X113.007 Y64.918 E40.93846
G1 X114.049 Y64.853 E41.00571
