# Made using CamBam - http://www.cambam.co.uk
# london_hackspace_logo 4/25/2014 10:23:37 PM
# T1 : 1.0
G21 G90 G64 G40
G0 Z3.0
# T1 : 1.0
T1 M6
# Pocket1
G17
M3 S1000
G0 X16.1402 Y8.81142
G0 Z1.0
G1 F300.0 Z-0.4
G1 F800.0 X16.11881 Y9.05949
G1 X16.07757 Y9.30505
G1 X16.07505 Y9.317
G1 X16.32044 Y9.27482
G1 X16.56844 Y9.25246
G1 X16.58073 Y9.25188
G1 X16.1402 Y8.81142
G1 F300.0 X15.94042 Y8.80225
G1 F800.0 X15.91939 Y9.04216
G1 X15.87854 Y9.2795
G1 X15.81813 Y9.51263
G1 X15.78905 Y9.60297
G1 X16.02009 Y9.53499
G1 X16.25597 Y9.48641
G1 X16.49507 Y9.45757
G1 X16.73574 Y9.44866
G1 X16.97631 Y9.45976
G1 X17.08286 Y9.47111
G1 X16.08682 Y8.47522
G1 X15.94303 Y8.61902
G1 X15.94042 Y8.80225
G0 Z3.0
G0 X13.23767 Y12.57644
G0 Z1.0
G1 F300.0 Z-0.4
G1 F800.0 X12.7167 Y13.09744
G1 X12.95654 Y13.0756
G1 X13.19736 Y13.07374
G1 X13.21465 Y13.07438
G1 X13.21506 Y12.83355
G1 X13.23544 Y12.59358
G1 X13.23767 Y12.57644
G0 Z3.0
G0 X9.31702 Y16.07555
G0 Z1.0
G1 F300.0 Z-0.4
G1 F800.0 X9.07162 Y16.11777
G1 X8.82364 Y16.14017
G1 X8.81189 Y16.14073
G1 X9.2519 Y16.58076
G1 X9.27331 Y16.33269
G1 X9.31456 Y16.08713
G1 X9.31702 Y16.07555
G1 F300.0 X9.5126 Y16.11732
G1 F800.0 X9.57265 Y15.8841
G1 X9.60301 Y15.78951
G1 X9.37199 Y15.85754
G1 X9.13611 Y15.90617
G1 X8.89702 Y15.93505
G1 X8.65635 Y15.944
G1 X8.61835 Y15.94359
G1 X8.47513 Y16.0868
G1 X9.47102 Y17.08275
G1 X9.4511 Y16.84274
G1 X9.45117 Y16.60191
G1 X9.47121 Y16.36191
G1 X9.5111 Y16.12441
G1 X9.5126 Y16.11732
G1 F300.0 X9.90378 Y16.20088
G1 F800.0 X9.96022 Y15.98451
G1 X10.03577 Y15.77405
G1 X10.12982 Y15.57118
G1 X10.24162 Y15.37753
G1 X10.37027 Y15.19465
G1 X10.51476 Y15.02399
G1 X10.58053 Y14.95564
G1 X11.33124 Y14.20465
G1 X11.49624 Y14.05373
G1 X11.67407 Y13.91817
G1 X11.86329 Y13.79903
G1 X12.0624 Y13.69727
G1 X12.26981 Y13.61372
G1 X12.48386 Y13.54903
G1 X12.70283 Y13.50373
G1 X12.92497 Y13.47817
G1 X13.14851 Y13.47257
G1 X13.37165 Y13.48696
G1 X13.59261 Y13.52123
G1 X13.68101 Y13.54069
G1 X13.63874 Y13.32112
G1 X13.61626 Y13.09864
G1 X13.61375 Y12.87505
G1 X13.63123 Y12.65213
G1 X13.66856 Y12.43166
G1 X13.72543 Y12.21541
G1 X13.8014 Y12.0051
G1 X13.89586 Y11.80243
G1 X14.00806 Y11.609
G1 X14.13708 Y11.42638
G1 X14.28191 Y11.25601
G1 X14.34458 Y11.19103
G1 X14.95474 Y10.58087
G1 X15.11977 Y10.42998
G1 X15.29762 Y10.29445
G1 X15.48687 Y10.17535
G1 X15.686 Y10.07363
G1 X15.89343 Y9.99011
G1 X16.10748 Y9.92547
G1 X16.32646 Y9.8802
G1 X16.54861 Y9.85469
G1 X16.77214 Y9.84913
G1 X16.99529 Y9.86356
G1 X17.21624 Y9.89787
G1 X17.43325 Y9.95179
G1 X17.64457 Y10.02489
G1 X17.82206 Y10.10341
G1 X18.05151 Y9.87396
G1 X16.0868 Y7.90956
G1 X15.53482 Y8.46155
G1 X15.54341 Y8.68499
G1 X15.53201 Y8.9083
G1 X15.5007 Y9.12971
G1 X15.44974 Y9.34743
G1 X15.37952 Y9.55972
G1 X15.29061 Y9.7649
G1 X15.18373 Y9.9613
G1 X15.05972 Y10.14738
G1 X14.91959 Y10.32162
G1 X14.81129 Y10.43701
G1 X10.43684 Y14.81174
G1 X10.27182 Y14.96263
G1 X10.09398 Y15.09817
G1 X9.90473 Y15.21728
G1 X9.7056 Y15.319
G1 X9.49818 Y15.40252
G1 X9.28413 Y15.46718
G1 X9.06515 Y15.51245
G1 X8.843 Y15.53797
G1 X8.61947 Y15.54354
G1 X8.46091 Y15.53535
G1 X7.90944 Y16.08678
G1 X9.87429 Y18.05173
G1 X10.10342 Y17.82264
G1 X10.01415 Y17.61762
G1 X9.94356 Y17.40545
G1 X9.89221 Y17.18782
G1 X9.86051 Y16.96647
G1 X9.84871 Y16.74318
G1 X9.85692 Y16.51972
G1 X9.88506 Y16.29789
G1 X9.90378 Y16.20088
G0 Z3.0
G0 X15.593 Y22.922
G0 Z1.0
G1 F300.0 Z-0.4
G1 F800.0 X16.03341 Y23.36242
G1 X16.05481 Y23.11434
G1 X16.09605 Y22.86878
G1 X16.09858 Y22.85683
G1 X15.85319 Y22.89904
G1 X15.6052 Y22.92142
G1 X15.593 Y22.922
G1 F300.0 X15.45157 Y23.06342
G1 F800.0 X16.08667 Y23.69852
G1 X16.23058 Y23.5546
G1 X16.23643 Y23.31384
G1 X16.26224 Y23.07439
G1 X16.30782 Y22.83792
G1 X16.37287 Y22.60604
G1 X16.3846 Y22.57082
G1 X16.15357 Y22.63883
G1 X15.91769 Y22.68744
G1 X15.6786 Y22.7163
G1 X15.43793 Y22.72524
G1 X15.19736 Y22.71417
G1 X15.09101 Y22.70286
G1 X15.45157 Y23.06342
G0 Z3.0
G0 X19.07619 Y19.45708
G0 Z1.0
G1 F300.0 Z-0.4
G1 F800.0 X19.59731 Y18.93589
G1 X19.35747 Y18.95774
G1 X19.11664 Y18.95961
G1 X19.09923 Y18.95897
G1 X19.09882 Y19.19981
G1 X19.07844 Y19.43977
G1 X19.07619 Y19.45708
G0 Z3.0
G0 X22.85656 Y16.09852
G0 Z1.0
G1 F300.0 Z-0.4
G1 F800.0 X23.10196 Y16.05634
G1 X23.34995 Y16.03398
G1 X23.36228 Y16.03339
G1 X22.92173 Y15.59286
G1 X22.90034 Y15.84094
G1 X22.85911 Y16.0865
G1 X22.85656 Y16.09852
G1 F300.0 X22.66098 Y16.05673
G1 F800.0 X22.60092 Y16.28996
G1 X22.57057 Y16.38449
G1 X22.80161 Y16.31651
G1 X23.03749 Y16.26792
G1 X23.27659 Y16.23908
G1 X23.51726 Y16.23018
G1 X23.55459 Y16.23059
G1 X23.69846 Y16.08672
G1 X22.70256 Y15.09086
G1 X22.7225 Y15.33087
G1 X22.72246 Y15.5717
G1 X22.70244 Y15.8117
G1 X22.66257 Y16.04921
G1 X22.66098 Y16.05673
G1 F300.0 X22.26981 Y15.97316
G1 F800.0 X22.21335 Y16.18952
G1 X22.13779 Y16.39998
G1 X22.04373 Y16.60284
G1 X21.93192 Y16.79648
G1 X21.80325 Y16.97936
G1 X21.65876 Y17.15001
G1 X21.59275 Y17.21859
G1 X20.9823 Y17.82903
G1 X20.81728 Y17.97992
G1 X20.63943 Y18.11545
G1 X20.45018 Y18.23455
G1 X20.25105 Y18.33627
G1 X20.04362 Y18.41979
G1 X19.82957 Y18.48443
G1 X19.61059 Y18.5297
G1 X19.38844 Y18.55521
G1 X19.1649 Y18.56077
G1 X18.94176 Y18.54634
G1 X18.72081 Y18.51203
G1 X18.63287 Y18.49266
G1 X18.67514 Y18.71223
G1 X18.69762 Y18.93471
G1 X18.70013 Y19.1583
G1 X18.68265 Y19.38122
G1 X18.64532 Y19.60169
G1 X18.58845 Y19.81794
G1 X18.51248 Y20.02825
G1 X18.41802 Y20.23092
G1 X18.30582 Y20.42435
G1 X18.1768 Y20.60698
G1 X18.03197 Y20.77734
G1 X17.9693 Y20.84232
G1 X17.21859 Y21.59303
G1 X17.05356 Y21.74392
G1 X16.87571 Y21.87945
G1 X16.68646 Y21.99855
G1 X16.48733 Y22.10027
G1 X16.27991 Y22.18378
G1 X16.06585 Y22.24843
G1 X15.84687 Y22.29369
G1 X15.62472 Y22.31921
G1 X15.40119 Y22.32477
G1 X15.17805 Y22.31034
G1 X14.95709 Y22.27602
G1 X14.74008 Y22.22211
G1 X14.52876 Y22.14901
G1 X14.40669 Y22.09678
G1 X14.16296 Y22.3405
G1 X16.08667 Y24.2642
G1 X16.63878 Y23.71209
G1 X16.6302 Y23.48865
G1 X16.64163 Y23.26533
G1 X16.67296 Y23.04393
G1 X16.72395 Y22.82622
G1 X16.79419 Y22.61393
G1 X16.88312 Y22.40877
G1 X16.99002 Y22.21237
G1 X17.11405 Y22.02631
G1 X17.2542 Y21.85208
G1 X17.36227 Y21.73694
G1 X21.73615 Y17.3625
G1 X21.90117 Y17.2116
G1 X22.07901 Y17.07606
G1 X22.26825 Y16.95694
G1 X22.46737 Y16.85521
G1 X22.67479 Y16.77168
G1 X22.88885 Y16.70702
G1 X23.10782 Y16.66175
G1 X23.32997 Y16.63622
G1 X23.5535 Y16.63064
G1 X23.71205 Y16.63882
G1 X24.26416 Y16.08671
G1 X22.34041 Y14.16306
G1 X22.09658 Y14.40687
G1 X22.18078 Y14.61402
G1 X22.24612 Y14.82786
G1 X22.2921 Y15.04669
G1 X22.31834 Y15.26875
G1 X22.32464 Y15.49227
G1 X22.31094 Y15.71546
G1 X22.27735 Y15.93653
G1 X22.26981 Y15.97316
G1 F300.0 X21.87863 Y15.88958
G1 F800.0 X21.82609 Y16.08767
G1 X21.75448 Y16.27969
G1 X21.6645 Y16.46382
G1 X21.557 Y16.6383
G1 X21.433 Y16.80148
G1 X21.30991 Y16.93574
G1 X20.69946 Y17.54619
G1 X20.54765 Y17.68386
G1 X20.38314 Y17.80608
G1 X20.2075 Y17.91168
G1 X20.02241 Y17.99965
G1 X19.82962 Y18.06917
G1 X19.63097 Y18.11956
G1 X19.42836 Y18.15035
G1 X19.22371 Y18.16125
G1 X19.01897 Y18.15214
G1 X18.8161 Y18.12312
G1 X18.61702 Y18.07447
G1 X18.42363 Y18.00664
G1 X18.23777 Y17.92028
G1 X18.06122 Y17.81622
G1 X17.89565 Y17.69545
G1 X17.74264 Y17.55911
G1 X17.72954 Y17.54612
G1 X14.62736 Y14.44365
G1 X14.48969 Y14.29184
G1 X14.36748 Y14.12732
G1 X14.26189 Y13.95168
G1 X14.17393 Y13.76658
G1 X14.10442 Y13.57379
G1 X14.05403 Y13.37514
G1 X14.02325 Y13.17253
G1 X14.01237 Y12.96788
G1 X14.02148 Y12.76314
G1 X14.05051 Y12.56027
G1 X14.09918 Y12.36119
G1 X14.16701 Y12.1678
G1 X14.25338 Y11.98195
G1 X14.35745 Y11.8054
G1 X14.47823 Y11.63984
G1 X14.61458 Y11.48683
G1 X14.62742 Y11.47387
G1 X15.23759 Y10.86371
G1 X15.3894 Y10.72604
G1 X15.55391 Y10.60382
G1 X15.72955 Y10.49822
G1 X15.91464 Y10.41025
G1 X16.10743 Y10.34073
G1 X16.30608 Y10.29034
G1 X16.50869 Y10.25955
G1 X16.71334 Y10.24865
G1 X16.91808 Y10.25776
G1 X17.12095 Y10.28678
G1 X17.32003 Y10.33543
G1 X17.51342 Y10.40326
G1 X17.69927 Y10.48962
G1 X17.87583 Y10.59368
G1 X17.88885 Y10.60231
G1 X18.61722 Y9.87394
G1 X16.08678 Y7.3439
G1 X15.1137 Y8.31698
G1 X15.13818 Y8.52045
G1 X15.14272 Y8.72534
G1 X15.12726 Y8.92969
G1 X15.09195 Y9.13157
G1 X15.03714 Y9.32904
G1 X14.96334 Y9.52023
G1 X14.87125 Y9.70332
G1 X14.76176 Y9.87655
G1 X14.6359 Y10.03829
G1 X14.52844 Y10.15418
G1 X10.15399 Y14.52891
G1 X10.00218 Y14.66658
G1 X9.83768 Y14.7888
G1 X9.66205 Y14.89441
G1 X9.47695 Y14.98239
G1 X9.28417 Y15.05191
G1 X9.08552 Y15.10231
G1 X8.88291 Y15.13311
G1 X8.67826 Y15.14401
G1 X8.47352 Y15.13491
G1 X8.31638 Y15.11421
G1 X7.34375 Y16.08676
G1 X9.87426 Y18.61741
G1 X10.60233 Y17.88945
G1 X10.49695 Y17.71368
G1 X10.40921 Y17.52847
G1 X10.33995 Y17.33559
G1 X10.28981 Y17.13688
G1 X10.25928 Y16.93423
G1 X10.24864 Y16.72957
G1 X10.25801 Y16.52484
G1 X10.28729 Y16.322
G1 X10.3362 Y16.12299
G1 X10.40428 Y15.92968
G1 X10.49087 Y15.74394
G1 X10.59516 Y15.56752
G1 X10.71614 Y15.4021
G1 X10.85268 Y15.24927
G1 X10.86343 Y15.23843
G1 X11.61414 Y14.48744
G1 X11.76593 Y14.34974
G1 X11.93041 Y14.22749
G1 X12.10603 Y14.12186
G1 X12.29111 Y14.03385
G1 X12.48388 Y13.9643
G1 X12.68252 Y13.91387
G1 X12.88513 Y13.88304
G1 X13.08978 Y13.87211
G1 X13.29451 Y13.88117
G1 X13.49739 Y13.91015
G1 X13.69648 Y13.95877
G1 X13.88988 Y14.02656
G1 X14.07576 Y14.11289
G1 X14.25233 Y14.21691
G1 X14.41792 Y14.33766
G1 X14.57096 Y14.47397
G1 X14.58434 Y14.48723
G1 X17.68652 Y17.5897
G1 X17.82419 Y17.74151
G1 X17.9464 Y17.90603
G1 X18.05199 Y18.08167
G1 X18.13995 Y18.26677
G1 X18.20946 Y18.45956
G1 X18.25985 Y18.65821
G1 X18.29063 Y18.86083
G1 X18.30151 Y19.06548
G1 X18.2924 Y19.27021
G1 X18.26337 Y19.47308
G1 X18.2147 Y19.67216
G1 X18.14687 Y19.86555
G1 X18.0605 Y20.0514
G1 X17.95643 Y20.22795
G1 X17.83565 Y20.39351
G1 X17.6993 Y20.54652
G1 X17.68646 Y20.55948
G1 X16.93574 Y21.31019
G1 X16.78393 Y21.44786
G1 X16.61942 Y21.57008
G1 X16.44379 Y21.67567
G1 X16.25869 Y21.76365
G1 X16.0659 Y21.83317
G1 X15.86725 Y21.88356
G1 X15.66464 Y21.91435
G1 X15.45999 Y21.92524
G1 X15.25526 Y21.91614
G1 X15.05238 Y21.88712
G1 X14.8533 Y21.83846
G1 X14.65991 Y21.77063
G1 X14.47406 Y21.68428
G1 X14.33409 Y21.60372
G1 X13.59727 Y22.34049
G1 X16.08667 Y24.82989
G1 X17.05988 Y23.85668
G1 X17.03542 Y23.6532
G1 X17.03091 Y23.44831
G1 X17.04639 Y23.24396
G1 X17.08172 Y23.04209
G1 X17.13655 Y22.84462
G1 X17.21038 Y22.65344
G1 X17.30248 Y22.47037
G1 X17.412 Y22.29714
G1 X17.53787 Y22.13542
G1 X17.64513 Y22.01977
G1 X22.01901 Y17.64532
G1 X22.17081 Y17.50764
G1 X22.33531 Y17.38542
G1 X22.51095 Y17.2798
G1 X22.69604 Y17.19182
G1 X22.88882 Y17.12229
G1 X23.08746 Y17.07188
G1 X23.29007 Y17.04108
G1 X23.49472 Y17.03017
G1 X23.69946 Y17.03926
G1 X23.8566 Y17.05996
G1 X24.82985 Y16.08671
G1 X22.34041 Y13.5974
G1 X21.60352 Y14.33422
G1 X21.70389 Y14.5129
G1 X21.78637 Y14.70051
G1 X21.85016 Y14.89527
G1 X21.89467 Y15.09532
G1 X21.91947 Y15.29875
G1 X21.92432 Y15.50363
G1 X21.90917 Y15.70801
G1 X21.87863 Y15.88958
G1 F300.0 X21.48746 Y15.80601
G1 F800.0 X21.43921 Y15.98398
G1 X21.37197 Y16.15567
G1 X21.28653 Y16.31907
G1 X21.1839 Y16.47226
G1 X21.06528 Y16.61343
G1 X21.02706 Y16.6529
G1 X20.41662 Y17.26335
G1 X20.27936 Y17.38647
G1 X20.12956 Y17.494
G1 X19.96901 Y17.58467
G1 X19.79958 Y17.65743
G1 X19.62326 Y17.7114
G1 X19.44214 Y17.74596
G1 X19.25834 Y17.7607
G1 X19.07402 Y17.75545
G1 X18.89136 Y17.73027
G1 X18.7125 Y17.68545
G1 X18.53955 Y17.62152
G1 X18.37453 Y17.53924
G1 X18.2194 Y17.43956
G1 X18.07598 Y17.32368
G1 X18.0124 Y17.26329
G1 X14.91021 Y14.16082
G1 X14.7871 Y14.02356
G1 X14.67957 Y13.87376
G1 X14.58891 Y13.7132
G1 X14.51616 Y13.54377
G1 X14.4622 Y13.36745
G1 X14.42764 Y13.18632
G1 X14.41291 Y13.00252
G1 X14.41817 Y12.81821
G1 X14.44336 Y12.63555
G1 X14.48819 Y12.45669
G1 X14.55213 Y12.28373
G1 X14.63442 Y12.11873
G1 X14.7341 Y11.9636
G1 X14.84999 Y11.82018
G1 X14.91027 Y11.75672
G1 X15.52043 Y11.14655
G1 X15.65769 Y11.02343
G1 X15.80748 Y10.9159
G1 X15.96804 Y10.82523
G1 X16.13747 Y10.75247
G1 X16.31379 Y10.6985
G1 X16.49491 Y10.66394
G1 X16.67871 Y10.6492
G1 X16.86303 Y10.65445
G1 X17.04569 Y10.67963
G1 X17.22455 Y10.72445
G1 X17.3975 Y10.78838
G1 X17.56252 Y10.87066
G1 X17.71765 Y10.97034
G1 X17.86107 Y11.08622
G1 X17.91742 Y11.13942
G1 X19.18292 Y9.87392
G1 X16.08676 Y6.77823
G1 X14.67461 Y8.19038
G1 X14.71688 Y8.36986
G1 X14.73947 Y8.55286
G1 X14.74211 Y8.73724
G1 X14.72476 Y8.92081
G1 X14.68763 Y9.10142
G1 X14.63115 Y9.27695
G1 X14.556 Y9.44533
G1 X14.46306 Y9.60459
G1 X14.35341 Y9.75283
G1 X14.24558 Y9.87134
G1 X9.87114 Y14.24607
G1 X9.73388 Y14.3692
G1 X9.58409 Y14.47673
G1 X9.42354 Y14.56741
G1 X9.25411 Y14.64017
G1 X9.0778 Y14.69415
G1 X8.89668 Y14.72872
G1 X8.71288 Y14.74346
G1 X8.52856 Y14.73822
G1 X8.3459 Y14.71304
G1 X8.18982 Y14.67509
G1 X6.77806 Y16.08674
G1 X9.87423 Y19.18308
G1 X11.13947 Y17.91803
G1 X11.01716 Y17.78005
G1 X10.91052 Y17.62962
G1 X10.82079 Y17.46853
G1 X10.74904 Y17.29868
G1 X10.69611 Y17.12205
G1 X10.66262 Y16.94072
G1 X10.64897 Y16.75684
G1 X10.65531 Y16.57255
G1 X10.68157 Y16.39004
G1 X10.72745 Y16.21145
G1 X10.7924 Y16.03888
G1 X10.87565 Y15.87435
G1 X10.97624 Y15.71981
G1 X11.09297 Y15.57708
G1 X11.14632 Y15.52122
G1 X11.89704 Y14.77023
G1 X12.03428 Y14.64708
G1 X12.18405 Y14.53952
G1 X12.34458 Y14.44882
G1 X12.514 Y14.37603
G1 X12.69031 Y14.32203
G1 X12.87142 Y14.28743
G1 X13.05522 Y14.27266
G1 X13.23954 Y14.27787
G1 X13.42221 Y14.30302
G1 X13.60108 Y14.34781
G1 X13.77404 Y14.41171
G1 X13.93907 Y14.49396
G1 X14.09422 Y14.5936
G1 X14.23767 Y14.70946
G1 X14.30148 Y14.77006
G1 X17.40367 Y17.87253
G1 X17.52678 Y18.00979
G1 X17.63431 Y18.15959
G1 X17.72497 Y18.32015
G1 X17.79772 Y18.48958
G1 X17.85168 Y18.6659
G1 X17.88624 Y18.84703
G1 X17.90097 Y19.03083
G1 X17.89571 Y19.21514
G1 X17.87052 Y19.39781
G1 X17.82569 Y19.57666
G1 X17.76175 Y19.74962
G1 X17.67946 Y19.91463
G1 X17.57978 Y20.06975
G1 X17.46389 Y20.21317
G1 X17.40361 Y20.27663
G1 X16.6529 Y21.02735
G1 X16.51564 Y21.15047
G1 X16.36585 Y21.258
G1 X16.20529 Y21.34867
G1 X16.03586 Y21.42142
G1 X15.85955 Y21.4754
G1 X15.67842 Y21.50996
G1 X15.49462 Y21.5247
G1 X15.31031 Y21.51945
G1 X15.12764 Y21.49426
G1 X14.94878 Y21.44944
G1 X14.77583 Y21.38552
G1 X14.61081 Y21.30323
G1 X14.45568 Y21.20356
G1 X14.31226 Y21.08767
G1 X14.29773 Y21.07441
G1 X13.03157 Y22.34048
G1 X16.08667 Y25.39557
G1 X17.49894 Y23.9833
G1 X17.45669 Y23.80381
G1 X17.43413 Y23.62081
G1 X17.43152 Y23.43644
G1 X17.44889 Y23.25286
G1 X17.48605 Y23.07226
G1 X17.54254 Y22.89673
G1 X17.61772 Y22.72836
G1 X17.71068 Y22.56912
G1 X17.82035 Y22.42089
G1 X17.92799 Y22.30259
G1 X22.30187 Y17.92815
G1 X22.43913 Y17.80502
G1 X22.58891 Y17.69748
G1 X22.74946 Y17.60679
G1 X22.91889 Y17.53403
G1 X23.0952 Y17.48004
G1 X23.27632 Y17.44547
G1 X23.46012 Y17.43072
G1 X23.64444 Y17.43596
G1 X23.8271 Y17.46113
G1 X23.98317 Y17.49907
G1 X25.39554 Y16.0867
G1 X22.34041 Y13.03173
G1 X21.07422 Y14.29782
G1 X21.19175 Y14.43991
G1 X21.2932 Y14.59388
G1 X21.37737 Y14.75794
G1 X21.44328 Y14.93015
G1 X21.49016 Y15.10848
G1 X21.51744 Y15.29084
G1 X21.52481 Y15.47508
G1 X21.51218 Y15.65904
G1 X21.48746 Y15.80601
G1 F300.0 X21.09629 Y15.72244
G1 F800.0 X21.05289 Y15.87773
G1 X20.99059 Y16.02646
G1 X20.91036 Y16.16633
G1 X20.81344 Y16.29519
G1 X20.74422 Y16.37006
G1 X20.13378 Y16.98051
G1 X20.01291 Y17.08723
G1 X19.87975 Y17.17818
G1 X19.73637 Y17.25193
G1 X19.58496 Y17.30738
G1 X19.42784 Y17.34365
G1 X19.26745 Y17.36019
G1 X19.10624 Y17.35675
G1 X18.9467 Y17.33338
G1 X18.79128 Y17.29043
G1 X18.64237 Y17.22858
G1 X18.50226 Y17.14877
G1 X18.37311 Y17.05223
G1 X18.29526 Y16.98046
G1 X15.19307 Y13.878
G1 X15.08635 Y13.75712
G1 X14.99541 Y13.62397
G1 X14.92166 Y13.48058
G1 X14.86622 Y13.32916
G1 X14.82996 Y13.17204
G1 X14.81342 Y13.01165
G1 X14.81687 Y12.85044
G1 X14.84025 Y12.6909
G1 X14.8832 Y12.53548
G1 X14.94506 Y12.38657
G1 X15.02488 Y12.24647
G1 X15.12143 Y12.11732
G1 X15.19311 Y12.03956
G1 X15.80327 Y11.42939
G1 X15.92414 Y11.32267
G1 X16.05729 Y11.23172
G1 X16.20068 Y11.15797
G1 X16.35209 Y11.10252
G1 X16.50921 Y11.06625
G1 X16.6696 Y11.04971
G1 X16.83081 Y11.05315
G1 X16.99035 Y11.07652
G1 X17.14577 Y11.11947
G1 X17.29468 Y11.18132
G1 X17.43479 Y11.26113
G1 X17.56394 Y11.35767
G1 X17.64175 Y11.42939
G1 X17.91744 Y11.70508
G1 X19.74863 Y9.8739
G1 X16.08674 Y6.21257
G1 X14.20794 Y8.09137
G1 X14.27052 Y8.23997
G1 X14.31423 Y8.39518
G1 X14.33839 Y8.55461
G1 X14.34263 Y8.7158
G1 X14.32688 Y8.87627
G1 X14.29139 Y9.03356
G1 X14.2367 Y9.18525
G1 X14.16365 Y9.32899
G1 X14.07336 Y9.46259
G1 X13.96723 Y9.58399
G1 X13.96273 Y9.58851
G1 X9.58829 Y13.96324
G1 X9.46742 Y14.06997
G1 X9.33427 Y14.16092
G1 X9.19089 Y14.23468
G1 X9.03948 Y14.29013
G1 X8.88237 Y14.3264
G1 X8.72197 Y14.34295
G1 X8.56076 Y14.33951
G1 X8.40122 Y14.31615
G1 X8.2458 Y14.27321
G1 X8.09689 Y14.21136
G1 X8.09085 Y14.20838
G1 X6.21237 Y16.08673
G1 X9.8742 Y19.74875
G1 X11.70512 Y17.91811
G1 X11.42929 Y17.64221
G1 X11.32257 Y17.52133
G1 X11.23165 Y17.38816
G1 X11.1579 Y17.24477
G1 X11.10248 Y17.09335
G1 X11.06623 Y16.93623
G1 X11.0497 Y16.77584
G1 X11.05316 Y16.61463
G1 X11.07656 Y16.45509
G1 X11.11952 Y16.29967
G1 X11.18139 Y16.15077
G1 X11.26122 Y16.01067
G1 X11.35777 Y15.88153
G1 X11.42922 Y15.80401
G1 X12.17993 Y15.05302
G1 X12.30078 Y14.94627
G1 X12.43392 Y14.8553
G1 X12.57729 Y14.78151
G1 X12.72869 Y14.72604
G1 X12.8858 Y14.68974
G1 X13.04619 Y14.67317
G1 X13.2074 Y14.67658
G1 X13.36694 Y14.69992
G1 X13.52237 Y14.74284
G1 X13.6713 Y14.80466
G1 X13.81142 Y14.88445
G1 X13.94059 Y14.98097
G1 X14.01862 Y15.05289
G1 X17.12081 Y18.15536
G1 X17.22753 Y18.27623
G1 X17.31847 Y18.40939
G1 X17.39222 Y18.55278
G1 X17.44766 Y18.70419
G1 X17.48392 Y18.86131
G1 X17.50046 Y19.0217
G1 X17.49701 Y19.18291
G1 X17.47363 Y19.34245
G1 X17.43068 Y19.49787
G1 X17.36882 Y19.64678
G1 X17.289 Y19.78688
G1 X17.19245 Y19.91603
G1 X17.12077 Y19.99379
G1 X16.37006 Y20.7445
G1 X16.24919 Y20.85123
G1 X16.11604 Y20.94217
G1 X15.97265 Y21.01593
G1 X15.82124 Y21.07137
G1 X15.66413 Y21.10764
G1 X15.50373 Y21.12419
G1 X15.34252 Y21.12075
G1 X15.18298 Y21.09737
G1 X15.02756 Y21.05443
G1 X14.87865 Y20.99258
G1 X14.73854 Y20.91277
G1 X14.60939 Y20.81622
G1 X14.53158 Y20.7445
G1 X14.29678 Y20.5097
G1 X12.46587 Y22.34046
G1 X16.08667 Y25.96126
G1 X17.96559 Y24.08234
G1 X17.90302 Y23.93373
G1 X17.85934 Y23.77851
G1 X17.8352 Y23.61908
G1 X17.83099 Y23.45789
G1 X17.84677 Y23.29742
G1 X17.88229 Y23.14014
G1 X17.937 Y22.98846
G1 X18.01008 Y22.84472
G1 X18.10038 Y22.71114
G1 X18.20653 Y22.58976
G1 X18.21085 Y22.58542
G1 X22.58473 Y18.21097
G1 X22.7056 Y18.10424
G1 X22.83874 Y18.01329
G1 X22.98212 Y17.93952
G1 X23.13353 Y17.88406
G1 X23.29064 Y17.84778
G1 X23.45104 Y17.83123
G1 X23.61224 Y17.83466
G1 X23.77179 Y17.85802
G1 X23.92721 Y17.90096
G1 X24.07613 Y17.9628
G1 X24.08215 Y17.96577
G1 X25.96123 Y16.08669
G1 X22.34042 Y12.46606
G1 X20.50949 Y14.29685
G1 X20.74422 Y14.53158
G1 X20.85095 Y14.65245
G1 X20.94189 Y14.7856
G1 X21.01565 Y14.92899
G1 X21.07109 Y15.0804
G1 X21.10736 Y15.23752
G1 X21.1239 Y15.39791
G1 X21.12046 Y15.55912
G1 X21.09709 Y15.71866
G1 X21.09629 Y15.72244
G1 F300.0 X20.70512 Y15.63886
G1 F800.0 X20.66739 Y15.76761
G1 X20.61093 Y15.88932
G1 X20.53701 Y16.00128
G1 X20.46138 Y16.08722
G1 X19.85093 Y16.69766
G1 X19.74926 Y16.7852
G1 X19.6357 Y16.85664
G1 X19.51278 Y16.91041
G1 X19.38324 Y16.94531
G1 X19.24994 Y16.96057
G1 X19.11586 Y16.95584
G1 X18.98397 Y16.93123
G1 X18.85721 Y16.88729
G1 X18.73839 Y16.825
G1 X18.63014 Y16.74573
G1 X18.57811 Y16.69763
G1 X15.47592 Y13.59517
G1 X15.3884 Y13.49349
G1 X15.31695 Y13.37992
G1 X15.26319 Y13.257
G1 X15.22829 Y13.12746
G1 X15.21304 Y12.99416
G1 X15.21778 Y12.86008
G1 X15.24239 Y12.7282
G1 X15.28634 Y12.60143
G1 X15.34864 Y12.48261
G1 X15.42792 Y12.37437
G1 X15.47595 Y12.3224
G1 X16.08612 Y11.71224
G1 X16.18779 Y11.6247
G1 X16.30135 Y11.55326
G1 X16.42427 Y11.49949
G1 X16.55381 Y11.46459
G1 X16.68711 Y11.44933
G1 X16.82119 Y11.45406
G1 X16.95307 Y11.47867
G1 X17.07984 Y11.52261
G1 X17.19866 Y11.5849
G1 X17.30691 Y11.66417
G1 X17.35891 Y11.71224
G1 X17.91744 Y12.27077
G1 X20.31434 Y9.87388
G1 X16.08672 Y5.64691
G1 X13.6902 Y8.04342
G1 X13.77606 Y8.14652
G1 X13.84563 Y8.26123
G1 X13.89738 Y8.38501
G1 X13.93016 Y8.51511
G1 X13.94323 Y8.64864
G1 X13.9363 Y8.78262
G1 X13.90954 Y8.91409
G1 X13.86352 Y9.04012
G1 X13.79929 Y9.1579
G1 X13.71826 Y9.26483
G1 X13.67988 Y9.30568
G1 X9.30544 Y13.6804
G1 X9.20376 Y13.76794
G1 X9.09021 Y13.83939
G1 X8.96729 Y13.89317
G1 X8.83775 Y13.92807
G1 X8.70446 Y13.94333
G1 X8.57037 Y13.93861
G1 X8.43849 Y13.914
G1 X8.31172 Y13.87007
G1 X8.19289 Y13.80777
G1 X8.08465 Y13.72851
G1 X8.04297 Y13.6906
G1 X5.64668 Y16.08671
G1 X9.87417 Y20.31442
G1 X12.2708 Y17.91817
G1 X11.71216 Y17.3594
G1 X11.62464 Y17.25771
G1 X11.55321 Y17.14415
G1 X11.49945 Y17.02122
G1 X11.46457 Y16.89167
G1 X11.44933 Y16.75838
G1 X11.45407 Y16.6243
G1 X11.47869 Y16.49241
G1 X11.52265 Y16.36565
G1 X11.58496 Y16.24684
G1 X11.66424 Y16.1386
G1 X11.71212 Y16.0868
G1 X12.46283 Y15.33581
G1 X12.56449 Y15.24826
G1 X12.67803 Y15.17679
G1 X12.80094 Y15.12299
G1 X12.93048 Y15.08807
G1 X13.06377 Y15.07279
G1 X13.19785 Y15.07749
G1 X13.32974 Y15.10207
G1 X13.45652 Y15.14599
G1 X13.57535 Y15.20827
G1 X13.68361 Y15.28751
G1 X13.73577 Y15.33572
G1 X16.83796 Y18.43819
G1 X16.92548 Y18.53987
G1 X16.99693 Y18.65343
G1 X17.05069 Y18.77635
G1 X17.08559 Y18.90589
G1 X17.10084 Y19.03919
G1 X17.0961 Y19.17327
G1 X17.07149 Y19.30516
G1 X17.02754 Y19.43192
G1 X16.96524 Y19.55074
G1 X16.88596 Y19.65898
G1 X16.83793 Y19.71095
G1 X16.08722 Y20.46166
G1 X15.98554 Y20.54919
G1 X15.87198 Y20.62064
G1 X15.74907 Y20.67441
G1 X15.61952 Y20.70931
G1 X15.48623 Y20.72457
G1 X15.35215 Y20.71984
G1 X15.22026 Y20.69523
G1 X15.09349 Y20.65129
G1 X14.97467 Y20.58899
G1 X14.86643 Y20.50972
G1 X14.81442 Y20.46166
G1 X14.29679 Y19.94403
G1 X11.90018 Y22.34045
G1 X16.08667 Y26.52694
G1 X18.48327 Y24.13034
G1 X18.39744 Y24.02722
G1 X18.32789 Y23.91249
G1 X18.27617 Y23.7887
G1 X18.24342 Y23.65859
G1 X18.23038 Y23.52506
G1 X18.23734 Y23.39108
G1 X18.26413 Y23.25962
G1 X18.31017 Y23.1336
G1 X18.37444 Y23.01583
G1 X18.45549 Y22.90892
G1 X18.49371 Y22.86824
G1 X22.86759 Y18.4938
G1 X22.96926 Y18.40626
G1 X23.08282 Y18.3348
G1 X23.20573 Y18.28102
G1 X23.33527 Y18.24611
G1 X23.46857 Y18.23085
G1 X23.60265 Y18.23557
G1 X23.73454 Y18.26017
G1 X23.8613 Y18.3041
G1 X23.98013 Y18.36639
G1 X24.08838 Y18.44565
G1 X24.13006 Y18.48355
G1 X26.52693 Y16.08668
G1 X22.34042 Y11.90039
G1 X19.94379 Y14.29684
G1 X20.46138 Y14.81442
G1 X20.54891 Y14.9161
G1 X20.62036 Y15.02966
G1 X20.67413 Y15.15258
G1 X20.70903 Y15.28212
G1 X20.72429 Y15.41541
G1 X20.71956 Y15.54949
G1 X20.70512 Y15.63886
G1 F300.0 X20.31395 Y15.55529
G1 F800.0 X20.28338 Y15.6505
G1 X20.23447 Y15.73773
G1 X20.17854 Y15.80437
G1 X19.56809 Y16.41482
G1 X19.49066 Y16.47811
G1 X19.40219 Y16.52472
G1 X19.30621 Y16.55279
G1 X19.20657 Y16.5612
G1 X19.10724 Y16.54962
G1 X19.0122 Y16.5185
G1 X18.92526 Y16.46909
G1 X18.86097 Y16.4148
G1 X15.75878 Y13.31234
G1 X15.6955 Y13.23491
G1 X15.64889 Y13.14643
G1 X15.62082 Y13.05045
G1 X15.61241 Y12.95081
G1 X15.624 Y12.85148
G1 X15.65513 Y12.75645
G1 X15.70454 Y12.66951
G1 X15.7588 Y12.60524
G1 X16.36896 Y11.99508
G1 X16.44639 Y11.93179
G1 X16.53486 Y11.88518
G1 X16.63084 Y11.85711
G1 X16.73048 Y11.8487
G1 X16.82981 Y11.86028
G1 X16.92484 Y11.8914
G1 X17.01179 Y11.94081
G1 X17.07607 Y11.99508
G1 X17.91744 Y12.83646
G1 X20.88004 Y9.87385
G1 X16.08669 Y5.08124
G1 X13.1246 Y8.04333
G1 X13.39702 Y8.31575
G1 X13.4603 Y8.39318
G1 X13.50691 Y8.48165
G1 X13.53499 Y8.57763
G1 X13.5434 Y8.67727
G1 X13.53182 Y8.7766
G1 X13.5007 Y8.87163
G1 X13.45129 Y8.95858
G1 X13.39703 Y9.02284
G1 X9.02258 Y13.39757
G1 X8.94516 Y13.46086
G1 X8.85669 Y13.50747
G1 X8.76071 Y13.53555
G1 X8.66107 Y13.54397
G1 X8.56174 Y13.53238
G1 X8.4667 Y13.50127
G1 X8.37976 Y13.45186
G1 X8.31539 Y13.3975
G1 X8.04296 Y13.12495
G1 X5.08099 Y16.08669
G1 X9.87415 Y20.88009
G1 X12.83647 Y17.91822
G1 X11.99504 Y17.07659
G1 X11.93176 Y16.99915
G1 X11.88516 Y16.91068
G1 X11.8571 Y16.8147
G1 X11.8487 Y16.71505
G1 X11.86029 Y16.61572
G1 X11.89142 Y16.52069
G1 X11.94084 Y16.43376
G1 X11.99501 Y16.36959
G1 X12.74572 Y15.6186
G1 X12.82314 Y15.5553
G1 X12.9116 Y15.50867
G1 X13.00758 Y15.48058
G1 X13.10722 Y15.47215
G1 X13.20655 Y15.48371
G1 X13.30159 Y15.51481
G1 X13.38854 Y15.5642
G1 X13.45291 Y15.61855
G1 X16.5551 Y18.72102
G1 X16.61838 Y18.79845
G1 X16.66499 Y18.88692
G1 X16.69306 Y18.9829
G1 X16.70147 Y19.08255
G1 X16.68988 Y19.18187
G1 X16.65875 Y19.27691
G1 X16.60934 Y19.36384
G1 X16.55508 Y19.42811
G1 X15.80437 Y20.17882
G1 X15.72695 Y20.2421
G1 X15.63847 Y20.28871
G1 X15.5425 Y20.31679
G1 X15.44285 Y20.3252
G1 X15.34352 Y20.31362
G1 X15.24849 Y20.2825
G1 X15.16155 Y20.23309
G1 X15.09727 Y20.17882
G1 X14.2968 Y19.37835
G1 X11.33448 Y22.34044
G1 X16.08667 Y27.09263
G1 X19.04881 Y24.13048
G1 X18.77652 Y23.85807
G1 X18.71325 Y23.78063
G1 X18.66666 Y23.69215
G1 X18.63861 Y23.59616
G1 X18.63022 Y23.49651
G1 X18.64182 Y23.39719
G1 X18.67296 Y23.30216
G1 X18.72239 Y23.21523
G1 X18.77657 Y23.15107
G1 X23.15045 Y18.77662
G1 X23.22788 Y18.71333
G1 X23.31635 Y18.66671
G1 X23.41232 Y18.63863
G1 X23.51197 Y18.63021
G1 X23.6113 Y18.64179
G1 X23.70633 Y18.67291
G1 X23.79328 Y18.72231
G1 X23.8575 Y18.77652
G1 X24.1302 Y19.04909
G1 X27.09262 Y16.08668
G1 X22.34042 Y11.33473
G1 X19.3781 Y14.29683
G1 X20.17854 Y15.09727
G1 X20.24182 Y15.17469
G1 X20.28843 Y15.26317
G1 X20.31651 Y15.35914
G1 X20.32492 Y15.45879
G1 X20.31395 Y15.55529
G0 Z3.0
G0 X22.85656 Y16.09852
G0 Z0.6
G1 F300.0 Z-0.8
G1 F800.0 X23.10196 Y16.05634
G1 X23.34995 Y16.03398
G1 X23.36228 Y16.03339
G1 X22.92173 Y15.59286
G1 X22.90034 Y15.84094
G1 X22.85911 Y16.0865
G1 X22.85656 Y16.09852
G1 F300.0 X22.66098 Y16.05673
G1 F800.0 X22.60092 Y16.28996
G1 X22.57057 Y16.38449
G1 X22.80161 Y16.31651
G1 X23.03749 Y16.26792
G1 X23.27659 Y16.23908
G1 X23.51726 Y16.23018
G1 X23.55459 Y16.23059
G1 X23.69846 Y16.08672
G1 X22.70256 Y15.09086
G1 X22.7225 Y15.33087
G1 X22.72246 Y15.5717
G1 X22.70244 Y15.8117
G1 X22.66257 Y16.04921
G1 X22.66098 Y16.05673
G0 Z3.0
G0 X19.59731 Y18.93589
G0 Z0.6
G1 F300.0 Z-0.8
G1 F800.0 X19.35747 Y18.95774
G1 X19.11664 Y18.95961
G1 X19.09923 Y18.95897
G1 X19.09882 Y19.19981
G1 X19.07844 Y19.43977
G1 X19.07619 Y19.45708
G1 X19.59731 Y18.93589
G0 Z3.0
G0 X16.09858 Y22.85683
G0 Z0.6
G1 F300.0 Z-0.8
G1 F800.0 X15.85319 Y22.89904
G1 X15.6052 Y22.92142
G1 X15.593 Y22.922
G1 X16.03341 Y23.36242
G1 X16.05481 Y23.11434
G1 X16.09605 Y22.86878
G1 X16.09858 Y22.85683
G1 F300.0 X16.05679 Y22.66125
G1 F800.0 X15.81939 Y22.70175
G1 X15.57945 Y22.72241
G1 X15.33862 Y22.72309
G1 X15.09856 Y22.70379
G1 X15.09101 Y22.70286
G1 X16.08667 Y23.69852
G1 X16.23058 Y23.5546
G1 X16.23643 Y23.31384
G1 X16.26224 Y23.07439
G1 X16.30782 Y22.83792
G1 X16.37287 Y22.60604
G1 X16.3846 Y22.57082
G1 X16.15357 Y22.63883
G1 X16.05679 Y22.66125
G1 F300.0 X15.97321 Y22.27008
G1 F800.0 X15.75267 Y22.30697
G1 X15.52971 Y22.32402
G1 X15.30612 Y22.32107
G1 X15.08369 Y22.29816
G1 X14.8642 Y22.25547
G1 X14.6494 Y22.19333
G1 X14.44101 Y22.11225
G1 X14.40669 Y22.09678
G1 X14.16296 Y22.3405
G1 X16.08667 Y24.2642
G1 X16.63878 Y23.71209
G1 X16.6302 Y23.48865
G1 X16.64163 Y23.26533
G1 X16.67296 Y23.04393
G1 X16.72395 Y22.82622
G1 X16.79419 Y22.61393
G1 X16.88312 Y22.40877
G1 X16.99002 Y22.21237
G1 X17.11405 Y22.02631
G1 X17.2542 Y21.85208
G1 X17.36227 Y21.73694
G1 X21.73615 Y17.3625
G1 X21.90117 Y17.2116
G1 X22.07901 Y17.07606
G1 X22.26825 Y16.95694
G1 X22.46737 Y16.85521
G1 X22.67479 Y16.77168
G1 X22.88885 Y16.70702
G1 X23.10782 Y16.66175
G1 X23.32997 Y16.63622
G1 X23.5535 Y16.63064
G1 X23.71205 Y16.63882
G1 X24.26416 Y16.08671
G1 X22.34041 Y14.16306
G1 X22.09658 Y14.40687
G1 X22.18078 Y14.61402
G1 X22.24612 Y14.82786
G1 X22.2921 Y15.04669
G1 X22.31834 Y15.26875
G1 X22.32464 Y15.49227
G1 X22.31094 Y15.71546
G1 X22.27735 Y15.93653
G1 X22.22414 Y16.15371
G1 X22.15173 Y16.36527
G1 X22.06072 Y16.56952
G1 X21.95182 Y16.76481
G1 X21.8259 Y16.9496
G1 X21.68397 Y17.12239
G1 X21.59275 Y17.21859
G1 X20.9823 Y17.82903
G1 X20.81728 Y17.97992
G1 X20.63943 Y18.11545
G1 X20.45018 Y18.23455
G1 X20.25105 Y18.33627
G1 X20.04362 Y18.41979
G1 X19.82957 Y18.48443
G1 X19.61059 Y18.5297
G1 X19.38844 Y18.55521
G1 X19.1649 Y18.56077
G1 X18.94176 Y18.54634
G1 X18.72081 Y18.51203
G1 X18.63287 Y18.49266
G1 X18.67514 Y18.71223
G1 X18.69762 Y18.93471
G1 X18.70013 Y19.1583
G1 X18.68265 Y19.38122
G1 X18.64532 Y19.60169
G1 X18.58845 Y19.81794
G1 X18.51248 Y20.02825
G1 X18.41802 Y20.23092
G1 X18.30582 Y20.42435
G1 X18.1768 Y20.60698
G1 X18.03197 Y20.77734
G1 X17.9693 Y20.84232
G1 X17.21859 Y21.59303
G1 X17.05356 Y21.74392
G1 X16.87571 Y21.87945
G1 X16.68646 Y21.99855
G1 X16.48733 Y22.10027
G1 X16.27991 Y22.18378
G1 X16.06585 Y22.24843
G1 X15.97321 Y22.27008
G0 Z3.0
G0 X9.2519 Y16.58076
G0 Z0.6
G1 F300.0 Z-0.8
G1 F800.0 X9.27331 Y16.33269
G1 X9.31456 Y16.08713
G1 X9.31702 Y16.07555
G1 X9.07162 Y16.11777
G1 X8.82364 Y16.14017
G1 X8.81189 Y16.14073
G1 X9.2519 Y16.58076
G1 F300.0 X9.45169 Y16.58995
G1 F800.0 X9.47273 Y16.35003
G1 X9.5136 Y16.1127
G1 X9.57402 Y15.87957
G1 X9.60301 Y15.78951
G1 X9.37199 Y15.85754
G1 X9.13611 Y15.90617
G1 X8.89702 Y15.93505
G1 X8.65635 Y15.944
G1 X8.61835 Y15.94359
G1 X8.47513 Y16.0868
G1 X9.47102 Y17.08275
G1 X9.4511 Y16.84274
G1 X9.45117 Y16.60191
G1 X9.45169 Y16.58995
G0 Z3.0
G0 X12.7167 Y13.09744
G0 Z0.6
G1 F300.0 Z-0.8
G1 F800.0 X12.95654 Y13.0756
G1 X13.19736 Y13.07374
G1 X13.21465 Y13.07438
G1 X13.21506 Y12.83355
G1 X13.23544 Y12.59358
G1 X13.23767 Y12.57644
G1 X12.7167 Y13.09744
G0 Z3.0
G0 X16.07505 Y9.317
G0 Z0.6
G1 F300.0 Z-0.8
G1 F800.0 X16.32044 Y9.27482
G1 X16.56844 Y9.25246
G1 X16.58073 Y9.25188
G1 X16.1402 Y8.81142
G1 X16.11881 Y9.05949
G1 X16.07757 Y9.30505
G1 X16.07505 Y9.317
G1 F300.0 X15.87946 Y9.27522
G1 F800.0 X15.81941 Y9.50844
G1 X15.78905 Y9.60297
G1 X16.02009 Y9.53499
G1 X16.25597 Y9.48641
G1 X16.49507 Y9.45757
G1 X16.73574 Y9.44866
G1 X16.97631 Y9.45976
G1 X17.08286 Y9.47111
G1 X16.08682 Y8.47522
G1 X15.94303 Y8.61902
G1 X15.9372 Y8.85978
G1 X15.91142 Y9.09923
G1 X15.87946 Y9.27522
G1 F300.0 X15.48829 Y9.19164
G1 F800.0 X15.43184 Y9.408
G1 X15.35628 Y9.61846
G1 X15.26222 Y9.82132
G1 X15.1504 Y10.01496
G1 X15.02174 Y10.19784
G1 X14.87724 Y10.36849
G1 X14.81129 Y10.43701
G1 X10.43684 Y14.81174
G1 X10.27182 Y14.96263
G1 X10.09398 Y15.09817
G1 X9.90473 Y15.21728
G1 X9.7056 Y15.319
G1 X9.49818 Y15.40252
G1 X9.28413 Y15.46718
G1 X9.06515 Y15.51245
G1 X8.843 Y15.53797
G1 X8.61947 Y15.54354
G1 X8.46091 Y15.53535
G1 X7.90944 Y16.08678
G1 X9.87429 Y18.05173
G1 X10.10342 Y17.82264
G1 X10.01415 Y17.61762
G1 X9.94356 Y17.40545
G1 X9.89221 Y17.18782
G1 X9.86051 Y16.96647
G1 X9.84871 Y16.74318
G1 X9.85692 Y16.51972
G1 X9.88506 Y16.29789
G1 X9.9329 Y16.07946
G1 X10.00007 Y15.86618
G1 X10.08603 Y15.65976
G1 X10.19009 Y15.46184
G1 X10.31142 Y15.27402
G1 X10.44905 Y15.09778
G1 X10.58053 Y14.95564
G1 X11.33124 Y14.20465
G1 X11.49624 Y14.05373
G1 X11.67407 Y13.91817
G1 X11.86329 Y13.79903
G1 X12.0624 Y13.69727
G1 X12.26981 Y13.61372
G1 X12.48386 Y13.54903
G1 X12.70283 Y13.50373
G1 X12.92497 Y13.47817
G1 X13.14851 Y13.47257
G1 X13.37165 Y13.48696
G1 X13.59261 Y13.52123
G1 X13.68101 Y13.54069
G1 X13.63874 Y13.32112
G1 X13.61626 Y13.09864
G1 X13.61375 Y12.87505
G1 X13.63123 Y12.65213
G1 X13.66856 Y12.43166
G1 X13.72543 Y12.21541
G1 X13.8014 Y12.0051
G1 X13.89586 Y11.80243
G1 X14.00806 Y11.609
G1 X14.13708 Y11.42638
G1 X14.28191 Y11.25601
G1 X14.34458 Y11.19103
G1 X14.95474 Y10.58087
G1 X15.11977 Y10.42998
G1 X15.29762 Y10.29445
G1 X15.48687 Y10.17535
G1 X15.686 Y10.07363
G1 X15.89343 Y9.99011
G1 X16.10748 Y9.92547
G1 X16.32646 Y9.8802
G1 X16.54861 Y9.85469
G1 X16.77214 Y9.84913
G1 X16.99529 Y9.86356
G1 X17.21624 Y9.89787
G1 X17.43325 Y9.95179
G1 X17.64457 Y10.02489
G1 X17.82206 Y10.10341
G1 X18.05151 Y9.87396
G1 X16.0868 Y7.90956
G1 X15.53482 Y8.46155
G1 X15.54341 Y8.68499
G1 X15.53201 Y8.9083
G1 X15.5007 Y9.12971
G1 X15.48829 Y9.19164
G1 F300.0 X15.09712 Y9.10807
G1 F800.0 X15.04457 Y9.30615
G1 X14.97296 Y9.49818
G1 X14.88298 Y9.68231
G1 X14.77548 Y9.85679
G1 X14.65148 Y10.01996
G1 X14.52844 Y10.15418
G1 X10.15399 Y14.52891
G1 X10.00218 Y14.66658
G1 X9.83768 Y14.7888
G1 X9.66205 Y14.89441
G1 X9.47695 Y14.98239
G1 X9.28417 Y15.05191
G1 X9.08552 Y15.10231
G1 X8.88291 Y15.13311
G1 X8.67826 Y15.14401
G1 X8.47352 Y15.13491
G1 X8.31638 Y15.11421
G1 X7.34375 Y16.08676
G1 X9.87426 Y18.61741
G1 X10.60233 Y17.88945
G1 X10.49695 Y17.71368
G1 X10.40921 Y17.52847
G1 X10.33995 Y17.33559
G1 X10.28981 Y17.13688
G1 X10.25928 Y16.93423
G1 X10.24864 Y16.72957
G1 X10.25801 Y16.52484
G1 X10.28729 Y16.322
G1 X10.3362 Y16.12299
G1 X10.40428 Y15.92968
G1 X10.49087 Y15.74394
G1 X10.59516 Y15.56752
G1 X10.71614 Y15.4021
G1 X10.85268 Y15.24927
G1 X10.86343 Y15.23843
G1 X11.61414 Y14.48744
G1 X11.76593 Y14.34974
G1 X11.93041 Y14.22749
G1 X12.10603 Y14.12186
G1 X12.29111 Y14.03385
G1 X12.48388 Y13.9643
G1 X12.68252 Y13.91387
G1 X12.88513 Y13.88304
G1 X13.08978 Y13.87211
G1 X13.29451 Y13.88117
G1 X13.49739 Y13.91015
G1 X13.69648 Y13.95877
G1 X13.88988 Y14.02656
G1 X14.07576 Y14.11289
G1 X14.25233 Y14.21691
G1 X14.41792 Y14.33766
G1 X14.57096 Y14.47397
G1 X14.58434 Y14.48723
G1 X17.68652 Y17.5897
G1 X17.82419 Y17.74151
G1 X17.9464 Y17.90603
G1 X18.05199 Y18.08167
G1 X18.13995 Y18.26677
G1 X18.20946 Y18.45956
G1 X18.25985 Y18.65821
G1 X18.29063 Y18.86083
G1 X18.30151 Y19.06548
G1 X18.2924 Y19.27021
G1 X18.26337 Y19.47308
G1 X18.2147 Y19.67216
G1 X18.14687 Y19.86555
G1 X18.0605 Y20.0514
G1 X17.95643 Y20.22795
G1 X17.83565 Y20.39351
G1 X17.6993 Y20.54652
G1 X17.68646 Y20.55948
G1 X16.93574 Y21.31019
G1 X16.78393 Y21.44786
G1 X16.61942 Y21.57008
G1 X16.44379 Y21.67567
G1 X16.25869 Y21.76365
G1 X16.0659 Y21.83317
G1 X15.86725 Y21.88356
G1 X15.66464 Y21.91435
G1 X15.45999 Y21.92524
G1 X15.25526 Y21.91614
G1 X15.05238 Y21.88712
G1 X14.8533 Y21.83846
G1 X14.65991 Y21.77063
G1 X14.47406 Y21.68428
G1 X14.33409 Y21.60372
G1 X13.59727 Y22.34049
G1 X16.08667 Y24.82989
G1 X17.05988 Y23.85668
G1 X17.03542 Y23.6532
G1 X17.03091 Y23.44831
G1 X17.04639 Y23.24396
G1 X17.08172 Y23.04209
G1 X17.13655 Y22.84462
G1 X17.21038 Y22.65344
G1 X17.30248 Y22.47037
G1 X17.412 Y22.29714
G1 X17.53787 Y22.13542
G1 X17.64513 Y22.01977
G1 X22.01901 Y17.64532
G1 X22.17081 Y17.50764
G1 X22.33531 Y17.38542
G1 X22.51095 Y17.2798
G1 X22.69604 Y17.19182
G1 X22.88882 Y17.12229
G1 X23.08746 Y17.07188
G1 X23.29007 Y17.04108
G1 X23.49472 Y17.03017
G1 X23.69946 Y17.03926
G1 X23.8566 Y17.05996
G1 X24.82985 Y16.08671
G1 X22.34041 Y13.5974
G1 X21.60352 Y14.33422
G1 X21.70389 Y14.5129
G1 X21.78637 Y14.70051
G1 X21.85016 Y14.89527
G1 X21.89467 Y15.09532
G1 X21.91947 Y15.29875
G1 X21.92432 Y15.50363
G1 X21.90917 Y15.70801
G1 X21.87418 Y15.90994
G1 X21.81967 Y16.1075
G1 X21.74616 Y16.2988
G1 X21.65436 Y16.48203
G1 X21.54513 Y16.65543
G1 X21.41952 Y16.81737
G1 X21.30991 Y16.93574
G1 X20.69946 Y17.54619
G1 X20.54765 Y17.68386
G1 X20.38314 Y17.80608
G1 X20.2075 Y17.91168
G1 X20.02241 Y17.99965
G1 X19.82962 Y18.06917
G1 X19.63097 Y18.11956
G1 X19.42836 Y18.15035
G1 X19.22371 Y18.16125
G1 X19.01897 Y18.15214
G1 X18.8161 Y18.12312
G1 X18.61702 Y18.07447
G1 X18.42363 Y18.00664
G1 X18.23777 Y17.92028
G1 X18.06122 Y17.81622
G1 X17.89565 Y17.69545
G1 X17.74264 Y17.55911
G1 X17.72954 Y17.54612
G1 X14.62736 Y14.44365
G1 X14.48969 Y14.29184
G1 X14.36748 Y14.12732
G1 X14.26189 Y13.95168
G1 X14.17393 Y13.76658
G1 X14.10442 Y13.57379
G1 X14.05403 Y13.37514
G1 X14.02325 Y13.17253
G1 X14.01237 Y12.96788
G1 X14.02148 Y12.76314
G1 X14.05051 Y12.56027
G1 X14.09918 Y12.36119
G1 X14.16701 Y12.1678
G1 X14.25338 Y11.98195
G1 X14.35745 Y11.8054
G1 X14.47823 Y11.63984
G1 X14.61458 Y11.48683
G1 X14.62742 Y11.47387
G1 X15.23759 Y10.86371
G1 X15.3894 Y10.72604
G1 X15.55391 Y10.60382
G1 X15.72955 Y10.49822
G1 X15.91464 Y10.41025
G1 X16.10743 Y10.34073
G1 X16.30608 Y10.29034
G1 X16.50869 Y10.25955
G1 X16.71334 Y10.24865
G1 X16.91808 Y10.25776
G1 X17.12095 Y10.28678
G1 X17.32003 Y10.33543
G1 X17.51342 Y10.40326
G1 X17.69927 Y10.48962
G1 X17.87583 Y10.59368
G1 X17.88885 Y10.60231
G1 X18.61722 Y9.87394
G1 X16.08678 Y7.3439
G1 X15.1137 Y8.31698
G1 X15.13818 Y8.52045
G1 X15.14272 Y8.72534
G1 X15.12726 Y8.92969
G1 X15.09712 Y9.10807
G1 F300.0 X14.70594 Y9.02449
G1 F800.0 X14.6577 Y9.20246
G1 X14.59046 Y9.37415
G1 X14.50502 Y9.53755
G1 X14.40238 Y9.69074
G1 X14.28376 Y9.83191
G1 X14.24558 Y9.87134
G1 X9.87114 Y14.24607
G1 X9.73388 Y14.3692
G1 X9.58409 Y14.47673
G1 X9.42354 Y14.56741
G1 X9.25411 Y14.64017
G1 X9.0778 Y14.69415
G1 X8.89668 Y14.72872
G1 X8.71288 Y14.74346
G1 X8.52856 Y14.73822
G1 X8.3459 Y14.71304
G1 X8.18982 Y14.67509
G1 X6.77806 Y16.08674
G1 X9.87423 Y19.18308
G1 X11.13947 Y17.91803
G1 X11.01716 Y17.78005
G1 X10.91052 Y17.62962
G1 X10.82079 Y17.46853
G1 X10.74904 Y17.29868
G1 X10.69611 Y17.12205
G1 X10.66262 Y16.94072
G1 X10.64897 Y16.75684
G1 X10.65531 Y16.57255
G1 X10.68157 Y16.39004
G1 X10.72745 Y16.21145
G1 X10.7924 Y16.03888
G1 X10.87565 Y15.87435
G1 X10.97624 Y15.71981
G1 X11.09297 Y15.57708
G1 X11.14632 Y15.52122
G1 X11.89704 Y14.77023
G1 X12.03428 Y14.64708
G1 X12.18405 Y14.53952
G1 X12.34458 Y14.44882
G1 X12.514 Y14.37603
G1 X12.69031 Y14.32203
G1 X12.87142 Y14.28743
G1 X13.05522 Y14.27266
G1 X13.23954 Y14.27787
G1 X13.42221 Y14.30302
G1 X13.60108 Y14.34781
G1 X13.77404 Y14.41171
G1 X13.93907 Y14.49396
G1 X14.09422 Y14.5936
G1 X14.23767 Y14.70946
G1 X14.30148 Y14.77006
G1 X17.40367 Y17.87253
G1 X17.52678 Y18.00979
G1 X17.63431 Y18.15959
G1 X17.72497 Y18.32015
G1 X17.79772 Y18.48958
G1 X17.85168 Y18.6659
G1 X17.88624 Y18.84703
G1 X17.90097 Y19.03083
G1 X17.89571 Y19.21514
G1 X17.87052 Y19.39781
G1 X17.82569 Y19.57666
G1 X17.76175 Y19.74962
G1 X17.67946 Y19.91463
G1 X17.57978 Y20.06975
G1 X17.46389 Y20.21317
G1 X17.40361 Y20.27663
G1 X16.6529 Y21.02735
G1 X16.51564 Y21.15047
G1 X16.36585 Y21.258
G1 X16.20529 Y21.34867
G1 X16.03586 Y21.42142
G1 X15.85955 Y21.4754
G1 X15.67842 Y21.50996
G1 X15.49462 Y21.5247
G1 X15.31031 Y21.51945
G1 X15.12764 Y21.49426
G1 X14.94878 Y21.44944
G1 X14.77583 Y21.38552
G1 X14.61081 Y21.30323
G1 X14.45568 Y21.20356
G1 X14.31226 Y21.08767
G1 X14.29773 Y21.07441
G1 X13.03157 Y22.34048
G1 X16.08667 Y25.39557
G1 X17.49894 Y23.9833
G1 X17.45669 Y23.80381
G1 X17.43413 Y23.62081
G1 X17.43152 Y23.43644
G1 X17.44889 Y23.25286
G1 X17.48605 Y23.07226
G1 X17.54254 Y22.89673
G1 X17.61772 Y22.72836
G1 X17.71068 Y22.56912
G1 X17.82035 Y22.42089
G1 X17.92799 Y22.30259
G1 X22.30187 Y17.92815
G1 X22.43913 Y17.80502
G1 X22.58891 Y17.69748
G1 X22.74946 Y17.60679
G1 X22.91889 Y17.53403
G1 X23.0952 Y17.48004
G1 X23.27632 Y17.44547
G1 X23.46012 Y17.43072
G1 X23.64444 Y17.43596
G1 X23.8271 Y17.46113
G1 X23.98317 Y17.49907
G1 X25.39554 Y16.0867
G1 X22.34041 Y13.03173
G1 X21.07422 Y14.29782
G1 X21.19175 Y14.43991
G1 X21.2932 Y14.59388
G1 X21.37737 Y14.75794
G1 X21.44328 Y14.93015
G1 X21.49016 Y15.10848
G1 X21.51744 Y15.29084
G1 X21.52481 Y15.47508
G1 X21.51218 Y15.65904
G1 X21.47971 Y15.84055
G1 X21.42776 Y16.01747
G1 X21.35696 Y16.18773
G1 X21.26814 Y16.34932
G1 X21.16234 Y16.50033
G1 X21.0408 Y16.639
G1 X21.02706 Y16.6529
G1 X20.41662 Y17.26335
G1 X20.27936 Y17.38647
G1 X20.12956 Y17.494
G1 X19.96901 Y17.58467
G1 X19.79958 Y17.65743
G1 X19.62326 Y17.7114
G1 X19.44214 Y17.74596
G1 X19.25834 Y17.7607
G1 X19.07402 Y17.75545
G1 X18.89136 Y17.73027
G1 X18.7125 Y17.68545
G1 X18.53955 Y17.62152
G1 X18.37453 Y17.53924
G1 X18.2194 Y17.43956
G1 X18.07598 Y17.32368
G1 X18.0124 Y17.26329
G1 X14.91021 Y14.16082
G1 X14.7871 Y14.02356
G1 X14.67957 Y13.87376
G1 X14.58891 Y13.7132
G1 X14.51616 Y13.54377
G1 X14.4622 Y13.36745
G1 X14.42764 Y13.18632
G1 X14.41291 Y13.00252
G1 X14.41817 Y12.81821
G1 X14.44336 Y12.63555
G1 X14.48819 Y12.45669
G1 X14.55213 Y12.28373
G1 X14.63442 Y12.11873
G1 X14.7341 Y11.9636
G1 X14.84999 Y11.82018
G1 X14.91027 Y11.75672
G1 X15.52043 Y11.14655
G1 X15.65769 Y11.02343
G1 X15.80748 Y10.9159
G1 X15.96804 Y10.82523
G1 X16.13747 Y10.75247
G1 X16.31379 Y10.6985
G1 X16.49491 Y10.66394
G1 X16.67871 Y10.6492
G1 X16.86303 Y10.65445
G1 X17.04569 Y10.67963
G1 X17.22455 Y10.72445
G1 X17.3975 Y10.78838
G1 X17.56252 Y10.87066
G1 X17.71765 Y10.97034
G1 X17.86107 Y11.08622
G1 X17.91742 Y11.13942
G1 X19.18292 Y9.87392
G1 X16.08676 Y6.77823
G1 X14.67461 Y8.19038
G1 X14.71688 Y8.36986
G1 X14.73947 Y8.55286
G1 X14.74211 Y8.73724
G1 X14.72476 Y8.92081
G1 X14.70594 Y9.02449
G1 F300.0 X14.31477 Y8.94092
G1 F800.0 X14.27137 Y9.09621
G1 X14.20907 Y9.24494
G1 X14.12885 Y9.38481
G1 X14.03192 Y9.51367
G1 X13.96273 Y9.58851
G1 X9.58829 Y13.96324
G1 X9.46742 Y14.06997
G1 X9.33427 Y14.16092
G1 X9.19089 Y14.23468
G1 X9.03948 Y14.29013
G1 X8.88237 Y14.3264
G1 X8.72197 Y14.34295
G1 X8.56076 Y14.33951
G1 X8.40122 Y14.31615
G1 X8.2458 Y14.27321
G1 X8.09689 Y14.21136
G1 X8.09085 Y14.20838
G1 X6.21237 Y16.08673
G1 X9.8742 Y19.74875
G1 X11.70512 Y17.91811
G1 X11.42929 Y17.64221
G1 X11.32257 Y17.52133
G1 X11.23165 Y17.38816
G1 X11.1579 Y17.24477
G1 X11.10248 Y17.09335
G1 X11.06623 Y16.93623
G1 X11.0497 Y16.77584
G1 X11.05316 Y16.61463
G1 X11.07656 Y16.45509
G1 X11.11952 Y16.29967
G1 X11.18139 Y16.15077
G1 X11.26122 Y16.01067
G1 X11.35777 Y15.88153
G1 X11.42922 Y15.80401
G1 X12.17993 Y15.05302
G1 X12.30078 Y14.94627
G1 X12.43392 Y14.8553
G1 X12.57729 Y14.78151
G1 X12.72869 Y14.72604
G1 X12.8858 Y14.68974
G1 X13.04619 Y14.67317
G1 X13.2074 Y14.67658
G1 X13.36694 Y14.69992
G1 X13.52237 Y14.74284
G1 X13.6713 Y14.80466
G1 X13.81142 Y14.88445
G1 X13.94059 Y14.98097
G1 X14.01862 Y15.05289
G1 X17.12081 Y18.15536
G1 X17.22753 Y18.27623
G1 X17.31847 Y18.40939
G1 X17.39222 Y18.55278
G1 X17.44766 Y18.70419
G1 X17.48392 Y18.86131
G1 X17.50046 Y19.0217
G1 X17.49701 Y19.18291
G1 X17.47363 Y19.34245
G1 X17.43068 Y19.49787
G1 X17.36882 Y19.64678
G1 X17.289 Y19.78688
G1 X17.19245 Y19.91603
G1 X17.12077 Y19.99379
G1 X16.37006 Y20.7445
G1 X16.24919 Y20.85123
G1 X16.11604 Y20.94217
G1 X15.97265 Y21.01593
G1 X15.82124 Y21.07137
G1 X15.66413 Y21.10764
G1 X15.50373 Y21.12419
G1 X15.34252 Y21.12075
G1 X15.18298 Y21.09737
G1 X15.02756 Y21.05443
G1 X14.87865 Y20.99258
G1 X14.73854 Y20.91277
G1 X14.60939 Y20.81622
G1 X14.53158 Y20.7445
G1 X14.29678 Y20.5097
G1 X12.46587 Y22.34046
G1 X16.08667 Y25.96126
G1 X17.96559 Y24.08234
G1 X17.90302 Y23.93373
G1 X17.85934 Y23.77851
G1 X17.8352 Y23.61908
G1 X17.83099 Y23.45789
G1 X17.84677 Y23.29742
G1 X17.88229 Y23.14014
G1 X17.937 Y22.98846
G1 X18.01008 Y22.84472
G1 X18.10038 Y22.71114
G1 X18.20653 Y22.58976
G1 X18.21085 Y22.58542
G1 X22.58473 Y18.21097
G1 X22.7056 Y18.10424
G1 X22.83874 Y18.01329
G1 X22.98212 Y17.93952
G1 X23.13353 Y17.88406
G1 X23.29064 Y17.84778
G1 X23.45104 Y17.83123
G1 X23.61224 Y17.83466
G1 X23.77179 Y17.85802
G1 X23.92721 Y17.90096
G1 X24.07613 Y17.9628
G1 X24.08215 Y17.96577
G1 X25.96123 Y16.08669
G1 X22.34042 Y12.46606
G1 X20.50949 Y14.29685
G1 X20.74422 Y14.53158
G1 X20.85095 Y14.65245
G1 X20.94189 Y14.7856
G1 X21.01565 Y14.92899
G1 X21.07109 Y15.0804
G1 X21.10736 Y15.23752
G1 X21.1239 Y15.39791
G1 X21.12046 Y15.55912
G1 X21.09709 Y15.71866
G1 X21.05415 Y15.87408
G1 X20.99229 Y16.02299
G1 X20.91248 Y16.1631
G1 X20.81594 Y16.29225
G1 X20.74422 Y16.37006
G1 X20.13378 Y16.98051
G1 X20.01291 Y17.08723
G1 X19.87975 Y17.17818
G1 X19.73637 Y17.25193
G1 X19.58496 Y17.30738
G1 X19.42784 Y17.34365
G1 X19.26745 Y17.36019
G1 X19.10624 Y17.35675
G1 X18.9467 Y17.33338
G1 X18.79128 Y17.29043
G1 X18.64237 Y17.22858
G1 X18.50226 Y17.14877
G1 X18.37311 Y17.05223
G1 X18.29526 Y16.98046
G1 X15.19307 Y13.878
G1 X15.08635 Y13.75712
G1 X14.99541 Y13.62397
G1 X14.92166 Y13.48058
G1 X14.86622 Y13.32916
G1 X14.82996 Y13.17204
G1 X14.81342 Y13.01165
G1 X14.81687 Y12.85044
G1 X14.84025 Y12.6909
G1 X14.8832 Y12.53548
G1 X14.94506 Y12.38657
G1 X15.02488 Y12.24647
G1 X15.12143 Y12.11732
G1 X15.19311 Y12.03956
G1 X15.80327 Y11.42939
G1 X15.92414 Y11.32267
G1 X16.05729 Y11.23172
G1 X16.20068 Y11.15797
G1 X16.35209 Y11.10252
G1 X16.50921 Y11.06625
G1 X16.6696 Y11.04971
G1 X16.83081 Y11.05315
G1 X16.99035 Y11.07652
G1 X17.14577 Y11.11947
G1 X17.29468 Y11.18132
G1 X17.43479 Y11.26113
G1 X17.56394 Y11.35767
G1 X17.64175 Y11.42939
G1 X17.91744 Y11.70508
G1 X19.74863 Y9.8739
G1 X16.08674 Y6.21257
G1 X14.20794 Y8.09137
G1 X14.27052 Y8.23997
G1 X14.31423 Y8.39518
G1 X14.33839 Y8.55461
G1 X14.34263 Y8.7158
G1 X14.32688 Y8.87627
G1 X14.31477 Y8.94092
G1 F300.0 X13.9236 Y8.85734
G1 F800.0 X13.88587 Y8.98609
G1 X13.82941 Y9.1078
G1 X13.7555 Y9.21977
G1 X13.67988 Y9.30568
G1 X9.30544 Y13.6804
G1 X9.20376 Y13.76794
G1 X9.09021 Y13.83939
G1 X8.96729 Y13.89317
G1 X8.83775 Y13.92807
G1 X8.70446 Y13.94333
G1 X8.57037 Y13.93861
G1 X8.43849 Y13.914
G1 X8.31172 Y13.87007
G1 X8.19289 Y13.80777
G1 X8.08465 Y13.72851
G1 X8.04297 Y13.6906
G1 X5.64668 Y16.08671
G1 X9.87417 Y20.31442
G1 X12.2708 Y17.91817
G1 X11.71216 Y17.3594
G1 X11.62464 Y17.25771
G1 X11.55321 Y17.14415
G1 X11.49945 Y17.02122
G1 X11.46457 Y16.89167
G1 X11.44933 Y16.75838
G1 X11.45407 Y16.6243
G1 X11.47869 Y16.49241
G1 X11.52265 Y16.36565
G1 X11.58496 Y16.24684
G1 X11.66424 Y16.1386
G1 X11.71212 Y16.0868
G1 X12.46283 Y15.33581
G1 X12.56449 Y15.24826
G1 X12.67803 Y15.17679
G1 X12.80094 Y15.12299
G1 X12.93048 Y15.08807
G1 X13.06377 Y15.07279
G1 X13.19785 Y15.07749
G1 X13.32974 Y15.10207
G1 X13.45652 Y15.14599
G1 X13.57535 Y15.20827
G1 X13.68361 Y15.28751
G1 X13.73577 Y15.33572
G1 X16.83796 Y18.43819
G1 X16.92548 Y18.53987
G1 X16.99693 Y18.65343
G1 X17.05069 Y18.77635
G1 X17.08559 Y18.90589
G1 X17.10084 Y19.03919
G1 X17.0961 Y19.17327
G1 X17.07149 Y19.30516
G1 X17.02754 Y19.43192
G1 X16.96524 Y19.55074
G1 X16.88596 Y19.65898
G1 X16.83793 Y19.71095
G1 X16.08722 Y20.46166
G1 X15.98554 Y20.54919
G1 X15.87198 Y20.62064
G1 X15.74907 Y20.67441
G1 X15.61952 Y20.70931
G1 X15.48623 Y20.72457
G1 X15.35215 Y20.71984
G1 X15.22026 Y20.69523
G1 X15.09349 Y20.65129
G1 X14.97467 Y20.58899
G1 X14.86643 Y20.50972
G1 X14.81442 Y20.46166
G1 X14.29679 Y19.94403
G1 X11.90018 Y22.34045
G1 X16.08667 Y26.52694
G1 X18.48327 Y24.13034
G1 X18.39744 Y24.02722
G1 X18.32789 Y23.91249
G1 X18.27617 Y23.7887
G1 X18.24342 Y23.65859
G1 X18.23038 Y23.52506
G1 X18.23734 Y23.39108
G1 X18.26413 Y23.25962
G1 X18.31017 Y23.1336
G1 X18.37444 Y23.01583
G1 X18.45549 Y22.90892
G1 X18.49371 Y22.86824
G1 X22.86759 Y18.4938
G1 X22.96926 Y18.40626
G1 X23.08282 Y18.3348
G1 X23.20573 Y18.28102
G1 X23.33527 Y18.24611
G1 X23.46857 Y18.23085
G1 X23.60265 Y18.23557
G1 X23.73454 Y18.26017
G1 X23.8613 Y18.3041
G1 X23.98013 Y18.36639
G1 X24.08838 Y18.44565
G1 X24.13006 Y18.48355
G1 X26.52693 Y16.08668
G1 X22.34042 Y11.90039
G1 X19.94379 Y14.29684
G1 X20.46138 Y14.81442
G1 X20.54891 Y14.9161
G1 X20.62036 Y15.02966
G1 X20.67413 Y15.15258
G1 X20.70903 Y15.28212
G1 X20.72429 Y15.41541
G1 X20.71956 Y15.54949
G1 X20.69495 Y15.68138
G1 X20.65101 Y15.80815
G1 X20.58871 Y15.92697
G1 X20.50944 Y16.03521
G1 X20.46138 Y16.08722
G1 X19.85093 Y16.69766
G1 X19.74926 Y16.7852
G1 X19.6357 Y16.85664
G1 X19.51278 Y16.91041
G1 X19.38324 Y16.94531
G1 X19.24994 Y16.96057
G1 X19.11586 Y16.95584
G1 X18.98397 Y16.93123
G1 X18.85721 Y16.88729
G1 X18.73839 Y16.825
G1 X18.63014 Y16.74573
G1 X18.57811 Y16.69763
G1 X15.47592 Y13.59517
G1 X15.3884 Y13.49349
G1 X15.31695 Y13.37992
G1 X15.26319 Y13.257
G1 X15.22829 Y13.12746
G1 X15.21304 Y12.99416
G1 X15.21778 Y12.86008
G1 X15.24239 Y12.7282
G1 X15.28634 Y12.60143
G1 X15.34864 Y12.48261
G1 X15.42792 Y12.37437
G1 X15.47595 Y12.3224
G1 X16.08612 Y11.71224
G1 X16.18779 Y11.6247
G1 X16.30135 Y11.55326
G1 X16.42427 Y11.49949
G1 X16.55381 Y11.46459
G1 X16.68711 Y11.44933
G1 X16.82119 Y11.45406
G1 X16.95307 Y11.47867
G1 X17.07984 Y11.52261
G1 X17.19866 Y11.5849
G1 X17.30691 Y11.66417
G1 X17.35891 Y11.71224
G1 X17.91744 Y12.27077
G1 X20.31434 Y9.87388
G1 X16.08672 Y5.64691
G1 X13.6902 Y8.04342
G1 X13.77606 Y8.14652
G1 X13.84563 Y8.26123
G1 X13.89738 Y8.38501
G1 X13.93016 Y8.51511
G1 X13.94323 Y8.64864
G1 X13.9363 Y8.78262
G1 X13.9236 Y8.85734
G1 F300.0 X13.53243 Y8.77377
G1 F800.0 X13.50186 Y8.86898
G1 X13.45296 Y8.95621
G1 X13.39703 Y9.02284
G1 X9.02258 Y13.39757
G1 X8.94516 Y13.46086
G1 X8.85669 Y13.50747
G1 X8.76071 Y13.53555
G1 X8.66107 Y13.54397
G1 X8.56174 Y13.53238
G1 X8.4667 Y13.50127
G1 X8.37976 Y13.45186
G1 X8.31539 Y13.3975
G1 X8.04296 Y13.12495
G1 X5.08099 Y16.08669
G1 X9.87415 Y20.88009
G1 X12.83647 Y17.91822
G1 X11.99504 Y17.07659
G1 X11.93176 Y16.99915
G1 X11.88516 Y16.91068
G1 X11.8571 Y16.8147
G1 X11.8487 Y16.71505
G1 X11.86029 Y16.61572
G1 X11.89142 Y16.52069
G1 X11.94084 Y16.43376
G1 X11.99501 Y16.36959
G1 X12.74572 Y15.6186
G1 X12.82314 Y15.5553
G1 X12.9116 Y15.50867
G1 X13.00758 Y15.48058
G1 X13.10722 Y15.47215
G1 X13.20655 Y15.48371
G1 X13.30159 Y15.51481
G1 X13.38854 Y15.5642
G1 X13.45291 Y15.61855
G1 X16.5551 Y18.72102
G1 X16.61838 Y18.79845
G1 X16.66499 Y18.88692
G1 X16.69306 Y18.9829
G1 X16.70147 Y19.08255
G1 X16.68988 Y19.18187
G1 X16.65875 Y19.27691
G1 X16.60934 Y19.36384
G1 X16.55508 Y19.42811
G1 X15.80437 Y20.17882
G1 X15.72695 Y20.2421
G1 X15.63847 Y20.28871
G1 X15.5425 Y20.31679
G1 X15.44285 Y20.3252
G1 X15.34352 Y20.31362
G1 X15.24849 Y20.2825
G1 X15.16155 Y20.23309
G1 X15.09727 Y20.17882
G1 X14.2968 Y19.37835
G1 X11.33448 Y22.34044
G1 X16.08667 Y27.09263
G1 X19.04881 Y24.13048
G1 X18.77652 Y23.85807
G1 X18.71325 Y23.78063
G1 X18.66666 Y23.69215
G1 X18.63861 Y23.59616
G1 X18.63022 Y23.49651
G1 X18.64182 Y23.39719
G1 X18.67296 Y23.30216
G1 X18.72239 Y23.21523
G1 X18.77657 Y23.15107
G1 X23.15045 Y18.77662
G1 X23.22788 Y18.71333
G1 X23.31635 Y18.66671
G1 X23.41232 Y18.63863
G1 X23.51197 Y18.63021
G1 X23.6113 Y18.64179
G1 X23.70633 Y18.67291
G1 X23.79328 Y18.72231
G1 X23.8575 Y18.77652
G1 X24.1302 Y19.04909
G1 X27.09262 Y16.08668
G1 X22.34042 Y11.33473
G1 X19.3781 Y14.29683
G1 X20.17854 Y15.09727
G1 X20.24182 Y15.17469
G1 X20.28843 Y15.26317
G1 X20.31651 Y15.35914
G1 X20.32492 Y15.45879
G1 X20.31333 Y15.55812
G1 X20.28221 Y15.65315
G1 X20.23281 Y15.74009
G1 X20.17854 Y15.80437
G1 X19.56809 Y16.41482
G1 X19.49066 Y16.47811
G1 X19.40219 Y16.52472
G1 X19.30621 Y16.55279
G1 X19.20657 Y16.5612
G1 X19.10724 Y16.54962
G1 X19.0122 Y16.5185
G1 X18.92526 Y16.46909
G1 X18.86097 Y16.4148
G1 X15.75878 Y13.31234
G1 X15.6955 Y13.23491
G1 X15.64889 Y13.14643
G1 X15.62082 Y13.05045
G1 X15.61241 Y12.95081
G1 X15.624 Y12.85148
G1 X15.65513 Y12.75645
G1 X15.70454 Y12.66951
G1 X15.7588 Y12.60524
G1 X16.36896 Y11.99508
G1 X16.44639 Y11.93179
G1 X16.53486 Y11.88518
G1 X16.63084 Y11.85711
G1 X16.73048 Y11.8487
G1 X16.82981 Y11.86028
G1 X16.92484 Y11.8914
G1 X17.01179 Y11.94081
G1 X17.07607 Y11.99508
G1 X17.91744 Y12.83646
G1 X20.88004 Y9.87385
G1 X16.08669 Y5.08124
G1 X13.1246 Y8.04333
G1 X13.39702 Y8.31575
G1 X13.4603 Y8.39318
G1 X13.50691 Y8.48165
G1 X13.53499 Y8.57763
G1 X13.5434 Y8.67727
G1 X13.53243 Y8.77377
G0 Z3.0
G0 X16.07505 Y9.317
G0 Z0.2
G1 F300.0 Z-1.0
G1 F800.0 X16.32044 Y9.27482
G1 X16.56844 Y9.25246
G1 X16.58073 Y9.25188
G1 X16.1402 Y8.81142
G1 X16.11881 Y9.05949
G1 X16.07757 Y9.30505
G1 X16.07505 Y9.317
G1 F300.0 X15.87946 Y9.27522
G1 F800.0 X15.81941 Y9.50844
G1 X15.78905 Y9.60297
G1 X16.02009 Y9.53499
G1 X16.25597 Y9.48641
G1 X16.49507 Y9.45757
G1 X16.73574 Y9.44866
G1 X16.97631 Y9.45976
G1 X17.08286 Y9.47111
G1 X16.08682 Y8.47522
G1 X15.94303 Y8.61902
G1 X15.9372 Y8.85978
G1 X15.91142 Y9.09923
G1 X15.87946 Y9.27522
G0 Z3.0
G0 X13.23767 Y12.57644
G0 Z0.2
G1 F300.0 Z-1.0
G1 F800.0 X12.7167 Y13.09744
G1 X12.95654 Y13.0756
G1 X13.19736 Y13.07374
G1 X13.21465 Y13.07438
G1 X13.21506 Y12.83355
G1 X13.23544 Y12.59358
G1 X13.23767 Y12.57644
G0 Z3.0
G0 X9.31702 Y16.07555
G0 Z0.2
G1 F300.0 Z-1.0
G1 F800.0 X9.07162 Y16.11777
G1 X8.82364 Y16.14017
G1 X8.81189 Y16.14073
G1 X9.2519 Y16.58076
G1 X9.27331 Y16.33269
G1 X9.31456 Y16.08713
G1 X9.31702 Y16.07555
G1 F300.0 X9.5126 Y16.11732
G1 F800.0 X9.57265 Y15.8841
G1 X9.60301 Y15.78951
G1 X9.37199 Y15.85754
G1 X9.13611 Y15.90617
G1 X8.89702 Y15.93505
G1 X8.65635 Y15.944
G1 X8.61835 Y15.94359
G1 X8.47513 Y16.0868
G1 X9.47102 Y17.08275
G1 X9.4511 Y16.84274
G1 X9.45117 Y16.60191
G1 X9.47121 Y16.36191
G1 X9.5111 Y16.12441
G1 X9.5126 Y16.11732
G1 F300.0 X9.90378 Y16.20088
G1 F800.0 X9.96022 Y15.98451
G1 X10.03577 Y15.77405
G1 X10.12982 Y15.57118
G1 X10.24162 Y15.37753
G1 X10.37027 Y15.19465
G1 X10.51476 Y15.02399
G1 X10.58053 Y14.95564
G1 X11.33124 Y14.20465
G1 X11.49624 Y14.05373
G1 X11.67407 Y13.91817
G1 X11.86329 Y13.79903
G1 X12.0624 Y13.69727
G1 X12.26981 Y13.61372
G1 X12.48386 Y13.54903
G1 X12.70283 Y13.50373
G1 X12.92497 Y13.47817
G1 X13.14851 Y13.47257
G1 X13.37165 Y13.48696
G1 X13.59261 Y13.52123
G1 X13.68101 Y13.54069
G1 X13.63874 Y13.32112
G1 X13.61626 Y13.09864
G1 X13.61375 Y12.87505
G1 X13.63123 Y12.65213
G1 X13.66856 Y12.43166
G1 X13.72543 Y12.21541
G1 X13.8014 Y12.0051
G1 X13.89586 Y11.80243
G1 X14.00806 Y11.609
G1 X14.13708 Y11.42638
G1 X14.28191 Y11.25601
G1 X14.34458 Y11.19103
G1 X14.95474 Y10.58087
G1 X15.11977 Y10.42998
G1 X15.29762 Y10.29445
G1 X15.48687 Y10.17535
G1 X15.686 Y10.07363
G1 X15.89343 Y9.99011
G1 X16.10748 Y9.92547
G1 X16.32646 Y9.8802
G1 X16.54861 Y9.85469
G1 X16.77214 Y9.84913
G1 X16.99529 Y9.86356
G1 X17.21624 Y9.89787
G1 X17.43325 Y9.95179
G1 X17.64457 Y10.02489
G1 X17.82206 Y10.10341
G1 X18.05151 Y9.87396
G1 X16.0868 Y7.90956
G1 X15.53482 Y8.46155
G1 X15.54341 Y8.68499
G1 X15.53201 Y8.9083
G1 X15.5007 Y9.12971
G1 X15.44974 Y9.34743
G1 X15.37952 Y9.55972
G1 X15.29061 Y9.7649
G1 X15.18373 Y9.9613
G1 X15.05972 Y10.14738
G1 X14.91959 Y10.32162
G1 X14.81129 Y10.43701
G1 X10.43684 Y14.81174
G1 X10.27182 Y14.96263
G1 X10.09398 Y15.09817
G1 X9.90473 Y15.21728
G1 X9.7056 Y15.319
G1 X9.49818 Y15.40252
G1 X9.28413 Y15.46718
G1 X9.06515 Y15.51245
G1 X8.843 Y15.53797
G1 X8.61947 Y15.54354
G1 X8.46091 Y15.53535
G1 X7.90944 Y16.08678
G1 X9.87429 Y18.05173
G1 X10.10342 Y17.82264
G1 X10.01415 Y17.61762
G1 X9.94356 Y17.40545
G1 X9.89221 Y17.18782
G1 X9.86051 Y16.96647
G1 X9.84871 Y16.74318
G1 X9.85692 Y16.51972
G1 X9.88506 Y16.29789
G1 X9.90378 Y16.20088
G0 Z3.0
G0 X15.593 Y22.922
G0 Z0.2
G1 F300.0 Z-1.0
G1 F800.0 X16.03341 Y23.36242
G1 X16.05481 Y23.11434
G1 X16.09605 Y22.86878
G1 X16.09858 Y22.85683
G1 X15.85319 Y22.89904
G1 X15.6052 Y22.92142
G1 X15.593 Y22.922
G1 F300.0 X15.45157 Y23.06342
G1 F800.0 X16.08667 Y23.69852
G1 X16.23058 Y23.5546
G1 X16.23643 Y23.31384
G1 X16.26224 Y23.07439
G1 X16.30782 Y22.83792
G1 X16.37287 Y22.60604
G1 X16.3846 Y22.57082
G1 X16.15357 Y22.63883
G1 X15.91769 Y22.68744
G1 X15.6786 Y22.7163
G1 X15.43793 Y22.72524
G1 X15.19736 Y22.71417
G1 X15.09101 Y22.70286
G1 X15.45157 Y23.06342
G0 Z3.0
G0 X19.07619 Y19.45708
G0 Z0.2
G1 F300.0 Z-1.0
G1 F800.0 X19.59731 Y18.93589
G1 X19.35747 Y18.95774
G1 X19.11664 Y18.95961
G1 X19.09923 Y18.95897
G1 X19.09882 Y19.19981
G1 X19.07844 Y19.43977
G1 X19.07619 Y19.45708
G0 Z3.0
G0 X22.85656 Y16.09852
G0 Z0.2
G1 F300.0 Z-1.0
G1 F800.0 X23.10196 Y16.05634
G1 X23.34995 Y16.03398
G1 X23.36228 Y16.03339
G1 X22.92173 Y15.59286
G1 X22.90034 Y15.84094
G1 X22.85911 Y16.0865
G1 X22.85656 Y16.09852
G1 F300.0 X22.66098 Y16.05673
G1 F800.0 X22.60092 Y16.28996
G1 X22.57057 Y16.38449
G1 X22.80161 Y16.31651
G1 X23.03749 Y16.26792
G1 X23.27659 Y16.23908
G1 X23.51726 Y16.23018
G1 X23.55459 Y16.23059
G1 X23.69846 Y16.08672
G1 X22.70256 Y15.09086
G1 X22.7225 Y15.33087
G1 X22.72246 Y15.5717
G1 X22.70244 Y15.8117
G1 X22.66257 Y16.04921
G1 X22.66098 Y16.05673
G1 F300.0 X22.26981 Y15.97316
G1 F800.0 X22.21335 Y16.18952
G1 X22.13779 Y16.39998
G1 X22.04373 Y16.60284
G1 X21.93192 Y16.79648
G1 X21.80325 Y16.97936
G1 X21.65876 Y17.15001
G1 X21.59275 Y17.21859
G1 X20.9823 Y17.82903
G1 X20.81728 Y17.97992
G1 X20.63943 Y18.11545
G1 X20.45018 Y18.23455
G1 X20.25105 Y18.33627
G1 X20.04362 Y18.41979
G1 X19.82957 Y18.48443
G1 X19.61059 Y18.5297
G1 X19.38844 Y18.55521
G1 X19.1649 Y18.56077
G1 X18.94176 Y18.54634
G1 X18.72081 Y18.51203
G1 X18.63287 Y18.49266
G1 X18.67514 Y18.71223
G1 X18.69762 Y18.93471
G1 X18.70013 Y19.1583
G1 X18.68265 Y19.38122
G1 X18.64532 Y19.60169
G1 X18.58845 Y19.81794
G1 X18.51248 Y20.02825
G1 X18.41802 Y20.23092
G1 X18.30582 Y20.42435
G1 X18.1768 Y20.60698
G1 X18.03197 Y20.77734
G1 X17.9693 Y20.84232
G1 X17.21859 Y21.59303
G1 X17.05356 Y21.74392
G1 X16.87571 Y21.87945
G1 X16.68646 Y21.99855
G1 X16.48733 Y22.10027
G1 X16.27991 Y22.18378
G1 X16.06585 Y22.24843
G1 X15.84687 Y22.29369
G1 X15.62472 Y22.31921
G1 X15.40119 Y22.32477
G1 X15.17805 Y22.31034
G1 X14.95709 Y22.27602
G1 X14.74008 Y22.22211
G1 X14.52876 Y22.14901
G1 X14.40669 Y22.09678
G1 X14.16296 Y22.3405
G1 X16.08667 Y24.2642
G1 X16.63878 Y23.71209
G1 X16.6302 Y23.48865
G1 X16.64163 Y23.26533
G1 X16.67296 Y23.04393
G1 X16.72395 Y22.82622
G1 X16.79419 Y22.61393
G1 X16.88312 Y22.40877
G1 X16.99002 Y22.21237
G1 X17.11405 Y22.02631
G1 X17.2542 Y21.85208
G1 X17.36227 Y21.73694
G1 X21.73615 Y17.3625
G1 X21.90117 Y17.2116
G1 X22.07901 Y17.07606
G1 X22.26825 Y16.95694
G1 X22.46737 Y16.85521
G1 X22.67479 Y16.77168
G1 X22.88885 Y16.70702
G1 X23.10782 Y16.66175
G1 X23.32997 Y16.63622
G1 X23.5535 Y16.63064
G1 X23.71205 Y16.63882
G1 X24.26416 Y16.08671
G1 X22.34041 Y14.16306
G1 X22.09658 Y14.40687
G1 X22.18078 Y14.61402
G1 X22.24612 Y14.82786
G1 X22.2921 Y15.04669
G1 X22.31834 Y15.26875
G1 X22.32464 Y15.49227
G1 X22.31094 Y15.71546
G1 X22.27735 Y15.93653
G1 X22.26981 Y15.97316
G1 F300.0 X21.87863 Y15.88958
G1 F800.0 X21.82609 Y16.08767
G1 X21.75448 Y16.27969
G1 X21.6645 Y16.46382
G1 X21.557 Y16.6383
G1 X21.433 Y16.80148
G1 X21.30991 Y16.93574
G1 X20.69946 Y17.54619
G1 X20.54765 Y17.68386
G1 X20.38314 Y17.80608
G1 X20.2075 Y17.91168
G1 X20.02241 Y17.99965
G1 X19.82962 Y18.06917
G1 X19.63097 Y18.11956
G1 X19.42836 Y18.15035
G1 X19.22371 Y18.16125
G1 X19.01897 Y18.15214
G1 X18.8161 Y18.12312
G1 X18.61702 Y18.07447
G1 X18.42363 Y18.00664
G1 X18.23777 Y17.92028
G1 X18.06122 Y17.81622
G1 X17.89565 Y17.69545
G1 X17.74264 Y17.55911
G1 X17.72954 Y17.54612
G1 X14.62736 Y14.44365
G1 X14.48969 Y14.29184
G1 X14.36748 Y14.12732
G1 X14.26189 Y13.95168
G1 X14.17393 Y13.76658
G1 X14.10442 Y13.57379
G1 X14.05403 Y13.37514
G1 X14.02325 Y13.17253
G1 X14.01237 Y12.96788
G1 X14.02148 Y12.76314
G1 X14.05051 Y12.56027
G1 X14.09918 Y12.36119
G1 X14.16701 Y12.1678
G1 X14.25338 Y11.98195
G1 X14.35745 Y11.8054
G1 X14.47823 Y11.63984
G1 X14.61458 Y11.48683
G1 X14.62742 Y11.47387
G1 X15.23759 Y10.86371
G1 X15.3894 Y10.72604
G1 X15.55391 Y10.60382
G1 X15.72955 Y10.49822
G1 X15.91464 Y10.41025
G1 X16.10743 Y10.34073
G1 X16.30608 Y10.29034
G1 X16.50869 Y10.25955
G1 X16.71334 Y10.24865
G1 X16.91808 Y10.25776
G1 X17.12095 Y10.28678
G1 X17.32003 Y10.33543
G1 X17.51342 Y10.40326
G1 X17.69927 Y10.48962
G1 X17.87583 Y10.59368
G1 X17.88885 Y10.60231
G1 X18.61722 Y9.87394
G1 X16.08678 Y7.3439
G1 X15.1137 Y8.31698
G1 X15.13818 Y8.52045
G1 X15.14272 Y8.72534
G1 X15.12726 Y8.92969
G1 X15.09195 Y9.13157
G1 X15.03714 Y9.32904
G1 X14.96334 Y9.52023
G1 X14.87125 Y9.70332
G1 X14.76176 Y9.87655
G1 X14.6359 Y10.03829
G1 X14.52844 Y10.15418
G1 X10.15399 Y14.52891
G1 X10.00218 Y14.66658
G1 X9.83768 Y14.7888
G1 X9.66205 Y14.89441
G1 X9.47695 Y14.98239
G1 X9.28417 Y15.05191
G1 X9.08552 Y15.10231
G1 X8.88291 Y15.13311
G1 X8.67826 Y15.14401
G1 X8.47352 Y15.13491
G1 X8.31638 Y15.11421
G1 X7.34375 Y16.08676
G1 X9.87426 Y18.61741
G1 X10.60233 Y17.88945
G1 X10.49695 Y17.71368
G1 X10.40921 Y17.52847
G1 X10.33995 Y17.33559
G1 X10.28981 Y17.13688
G1 X10.25928 Y16.93423
G1 X10.24864 Y16.72957
G1 X10.25801 Y16.52484
G1 X10.28729 Y16.322
G1 X10.3362 Y16.12299
G1 X10.40428 Y15.92968
G1 X10.49087 Y15.74394
G1 X10.59516 Y15.56752
G1 X10.71614 Y15.4021
G1 X10.85268 Y15.24927
G1 X10.86343 Y15.23843
G1 X11.61414 Y14.48744
G1 X11.76593 Y14.34974
G1 X11.93041 Y14.22749
G1 X12.10603 Y14.12186
G1 X12.29111 Y14.03385
G1 X12.48388 Y13.9643
G1 X12.68252 Y13.91387
G1 X12.88513 Y13.88304
G1 X13.08978 Y13.87211
G1 X13.29451 Y13.88117
G1 X13.49739 Y13.91015
G1 X13.69648 Y13.95877
G1 X13.88988 Y14.02656
G1 X14.07576 Y14.11289
G1 X14.25233 Y14.21691
G1 X14.41792 Y14.33766
G1 X14.57096 Y14.47397
G1 X14.58434 Y14.48723
G1 X17.68652 Y17.5897
G1 X17.82419 Y17.74151
G1 X17.9464 Y17.90603
G1 X18.05199 Y18.08167
G1 X18.13995 Y18.26677
G1 X18.20946 Y18.45956
G1 X18.25985 Y18.65821
G1 X18.29063 Y18.86083
G1 X18.30151 Y19.06548
G1 X18.2924 Y19.27021
G1 X18.26337 Y19.47308
G1 X18.2147 Y19.67216
G1 X18.14687 Y19.86555
G1 X18.0605 Y20.0514
G1 X17.95643 Y20.22795
G1 X17.83565 Y20.39351
G1 X17.6993 Y20.54652
G1 X17.68646 Y20.55948
G1 X16.93574 Y21.31019
G1 X16.78393 Y21.44786
G1 X16.61942 Y21.57008
G1 X16.44379 Y21.67567
G1 X16.25869 Y21.76365
G1 X16.0659 Y21.83317
G1 X15.86725 Y21.88356
G1 X15.66464 Y21.91435
G1 X15.45999 Y21.92524
G1 X15.25526 Y21.91614
G1 X15.05238 Y21.88712
G1 X14.8533 Y21.83846
G1 X14.65991 Y21.77063
G1 X14.47406 Y21.68428
G1 X14.33409 Y21.60372
G1 X13.59727 Y22.34049
G1 X16.08667 Y24.82989
G1 X17.05988 Y23.85668
G1 X17.03542 Y23.6532
G1 X17.03091 Y23.44831
G1 X17.04639 Y23.24396
G1 X17.08172 Y23.04209
G1 X17.13655 Y22.84462
G1 X17.21038 Y22.65344
G1 X17.30248 Y22.47037
G1 X17.412 Y22.29714
G1 X17.53787 Y22.13542
G1 X17.64513 Y22.01977
G1 X22.01901 Y17.64532
G1 X22.17081 Y17.50764
G1 X22.33531 Y17.38542
G1 X22.51095 Y17.2798
G1 X22.69604 Y17.19182
G1 X22.88882 Y17.12229
G1 X23.08746 Y17.07188
G1 X23.29007 Y17.04108
G1 X23.49472 Y17.03017
G1 X23.69946 Y17.03926
G1 X23.8566 Y17.05996
G1 X24.82985 Y16.08671
G1 X22.34041 Y13.5974
G1 X21.60352 Y14.33422
G1 X21.70389 Y14.5129
G1 X21.78637 Y14.70051
G1 X21.85016 Y14.89527
G1 X21.89467 Y15.09532
G1 X21.91947 Y15.29875
G1 X21.92432 Y15.50363
G1 X21.90917 Y15.70801
G1 X21.87863 Y15.88958
G1 F300.0 X21.48746 Y15.80601
G1 F800.0 X21.43921 Y15.98398
G1 X21.37197 Y16.15567
G1 X21.28653 Y16.31907
G1 X21.1839 Y16.47226
G1 X21.06528 Y16.61343
G1 X21.02706 Y16.6529
G1 X20.41662 Y17.26335
G1 X20.27936 Y17.38647
G1 X20.12956 Y17.494
G1 X19.96901 Y17.58467
G1 X19.79958 Y17.65743
G1 X19.62326 Y17.7114
G1 X19.44214 Y17.74596
G1 X19.25834 Y17.7607
G1 X19.07402 Y17.75545
G1 X18.89136 Y17.73027
G1 X18.7125 Y17.68545
G1 X18.53955 Y17.62152
G1 X18.37453 Y17.53924
G1 X18.2194 Y17.43956
G1 X18.07598 Y17.32368
G1 X18.0124 Y17.26329
G1 X14.91021 Y14.16082
G1 X14.7871 Y14.02356
G1 X14.67957 Y13.87376
G1 X14.58891 Y13.7132
G1 X14.51616 Y13.54377
G1 X14.4622 Y13.36745
G1 X14.42764 Y13.18632
G1 X14.41291 Y13.00252
G1 X14.41817 Y12.81821
G1 X14.44336 Y12.63555
G1 X14.48819 Y12.45669
G1 X14.55213 Y12.28373
G1 X14.63442 Y12.11873
G1 X14.7341 Y11.9636
G1 X14.84999 Y11.82018
G1 X14.91027 Y11.75672
G1 X15.52043 Y11.14655
G1 X15.65769 Y11.02343
G1 X15.80748 Y10.9159
G1 X15.96804 Y10.82523
G1 X16.13747 Y10.75247
G1 X16.31379 Y10.6985
G1 X16.49491 Y10.66394
G1 X16.67871 Y10.6492
G1 X16.86303 Y10.65445
G1 X17.04569 Y10.67963
G1 X17.22455 Y10.72445
G1 X17.3975 Y10.78838
G1 X17.56252 Y10.87066
G1 X17.71765 Y10.97034
G1 X17.86107 Y11.08622
G1 X17.91742 Y11.13942
G1 X19.18292 Y9.87392
G1 X16.08676 Y6.77823
G1 X14.67461 Y8.19038
G1 X14.71688 Y8.36986
G1 X14.73947 Y8.55286
G1 X14.74211 Y8.73724
G1 X14.72476 Y8.92081
G1 X14.68763 Y9.10142
G1 X14.63115 Y9.27695
G1 X14.556 Y9.44533
G1 X14.46306 Y9.60459
G1 X14.35341 Y9.75283
G1 X14.24558 Y9.87134
G1 X9.87114 Y14.24607
G1 X9.73388 Y14.3692
G1 X9.58409 Y14.47673
G1 X9.42354 Y14.56741
G1 X9.25411 Y14.64017
G1 X9.0778 Y14.69415
G1 X8.89668 Y14.72872
G1 X8.71288 Y14.74346
G1 X8.52856 Y14.73822
G1 X8.3459 Y14.71304
G1 X8.18982 Y14.67509
G1 X6.77806 Y16.08674
G1 X9.87423 Y19.18308
G1 X11.13947 Y17.91803
G1 X11.01716 Y17.78005
G1 X10.91052 Y17.62962
G1 X10.82079 Y17.46853
G1 X10.74904 Y17.29868
G1 X10.69611 Y17.12205
G1 X10.66262 Y16.94072
G1 X10.64897 Y16.75684
G1 X10.65531 Y16.57255
G1 X10.68157 Y16.39004
G1 X10.72745 Y16.21145
G1 X10.7924 Y16.03888
G1 X10.87565 Y15.87435
G1 X10.97624 Y15.71981
G1 X11.09297 Y15.57708
G1 X11.14632 Y15.52122
G1 X11.89704 Y14.77023
G1 X12.03428 Y14.64708
G1 X12.18405 Y14.53952
G1 X12.34458 Y14.44882
G1 X12.514 Y14.37603
G1 X12.69031 Y14.32203
G1 X12.87142 Y14.28743
G1 X13.05522 Y14.27266
G1 X13.23954 Y14.27787
G1 X13.42221 Y14.30302
G1 X13.60108 Y14.34781
G1 X13.77404 Y14.41171
G1 X13.93907 Y14.49396
G1 X14.09422 Y14.5936
G1 X14.23767 Y14.70946
G1 X14.30148 Y14.77006
G1 X17.40367 Y17.87253
G1 X17.52678 Y18.00979
G1 X17.63431 Y18.15959
G1 X17.72497 Y18.32015
G1 X17.79772 Y18.48958
G1 X17.85168 Y18.6659
G1 X17.88624 Y18.84703
G1 X17.90097 Y19.03083
G1 X17.89571 Y19.21514
G1 X17.87052 Y19.39781
G1 X17.82569 Y19.57666
G1 X17.76175 Y19.74962
G1 X17.67946 Y19.91463
G1 X17.57978 Y20.06975
G1 X17.46389 Y20.21317
G1 X17.40361 Y20.27663
G1 X16.6529 Y21.02735
G1 X16.51564 Y21.15047
G1 X16.36585 Y21.258
G1 X16.20529 Y21.34867
G1 X16.03586 Y21.42142
G1 X15.85955 Y21.4754
G1 X15.67842 Y21.50996
G1 X15.49462 Y21.5247
G1 X15.31031 Y21.51945
G1 X15.12764 Y21.49426
G1 X14.94878 Y21.44944
G1 X14.77583 Y21.38552
G1 X14.61081 Y21.30323
G1 X14.45568 Y21.20356
G1 X14.31226 Y21.08767
G1 X14.29773 Y21.07441
G1 X13.03157 Y22.34048
G1 X16.08667 Y25.39557
G1 X17.49894 Y23.9833
G1 X17.45669 Y23.80381
G1 X17.43413 Y23.62081
G1 X17.43152 Y23.43644
G1 X17.44889 Y23.25286
G1 X17.48605 Y23.07226
G1 X17.54254 Y22.89673
G1 X17.61772 Y22.72836
G1 X17.71068 Y22.56912
G1 X17.82035 Y22.42089
G1 X17.92799 Y22.30259
G1 X22.30187 Y17.92815
G1 X22.43913 Y17.80502
G1 X22.58891 Y17.69748
G1 X22.74946 Y17.60679
G1 X22.91889 Y17.53403
G1 X23.0952 Y17.48004
G1 X23.27632 Y17.44547
G1 X23.46012 Y17.43072
G1 X23.64444 Y17.43596
G1 X23.8271 Y17.46113
G1 X23.98317 Y17.49907
G1 X25.39554 Y16.0867
G1 X22.34041 Y13.03173
G1 X21.07422 Y14.29782
G1 X21.19175 Y14.43991
G1 X21.2932 Y14.59388
G1 X21.37737 Y14.75794
G1 X21.44328 Y14.93015
G1 X21.49016 Y15.10848
G1 X21.51744 Y15.29084
G1 X21.52481 Y15.47508
G1 X21.51218 Y15.65904
G1 X21.48746 Y15.80601
G1 F300.0 X21.09629 Y15.72244
G1 F800.0 X21.05289 Y15.87773
G1 X20.99059 Y16.02646
G1 X20.91036 Y16.16633
G1 X20.81344 Y16.29519
G1 X20.74422 Y16.37006
G1 X20.13378 Y16.98051
G1 X20.01291 Y17.08723
G1 X19.87975 Y17.17818
G1 X19.73637 Y17.25193
G1 X19.58496 Y17.30738
G1 X19.42784 Y17.34365
G1 X19.26745 Y17.36019
G1 X19.10624 Y17.35675
G1 X18.9467 Y17.33338
G1 X18.79128 Y17.29043
G1 X18.64237 Y17.22858
G1 X18.50226 Y17.14877
G1 X18.37311 Y17.05223
G1 X18.29526 Y16.98046
G1 X15.19307 Y13.878
G1 X15.08635 Y13.75712
G1 X14.99541 Y13.62397
G1 X14.92166 Y13.48058
G1 X14.86622 Y13.32916
G1 X14.82996 Y13.17204
G1 X14.81342 Y13.01165
G1 X14.81687 Y12.85044
G1 X14.84025 Y12.6909
G1 X14.8832 Y12.53548
G1 X14.94506 Y12.38657
G1 X15.02488 Y12.24647
G1 X15.12143 Y12.11732
G1 X15.19311 Y12.03956
G1 X15.80327 Y11.42939
G1 X15.92414 Y11.32267
G1 X16.05729 Y11.23172
G1 X16.20068 Y11.15797
G1 X16.35209 Y11.10252
G1 X16.50921 Y11.06625
G1 X16.6696 Y11.04971
G1 X16.83081 Y11.05315
G1 X16.99035 Y11.07652
G1 X17.14577 Y11.11947
G1 X17.29468 Y11.18132
G1 X17.43479 Y11.26113
G1 X17.56394 Y11.35767
G1 X17.64175 Y11.42939
G1 X17.91744 Y11.70508
G1 X19.74863 Y9.8739
G1 X16.08674 Y6.21257
G1 X14.20794 Y8.09137
G1 X14.27052 Y8.23997
G1 X14.31423 Y8.39518
G1 X14.33839 Y8.55461
G1 X14.34263 Y8.7158
G1 X14.32688 Y8.87627
G1 X14.29139 Y9.03356
G1 X14.2367 Y9.18525
G1 X14.16365 Y9.32899
G1 X14.07336 Y9.46259
G1 X13.96723 Y9.58399
G1 X13.96273 Y9.58851
G1 X9.58829 Y13.96324
G1 X9.46742 Y14.06997
G1 X9.33427 Y14.16092
G1 X9.19089 Y14.23468
G1 X9.03948 Y14.29013
G1 X8.88237 Y14.3264
G1 X8.72197 Y14.34295
G1 X8.56076 Y14.33951
G1 X8.40122 Y14.31615
G1 X8.2458 Y14.27321
G1 X8.09689 Y14.21136
G1 X8.09085 Y14.20838
G1 X6.21237 Y16.08673
G1 X9.8742 Y19.74875
G1 X11.70512 Y17.91811
G1 X11.42929 Y17.64221
G1 X11.32257 Y17.52133
G1 X11.23165 Y17.38816
G1 X11.1579 Y17.24477
G1 X11.10248 Y17.09335
G1 X11.06623 Y16.93623
G1 X11.0497 Y16.77584
G1 X11.05316 Y16.61463
G1 X11.07656 Y16.45509
G1 X11.11952 Y16.29967
G1 X11.18139 Y16.15077
G1 X11.26122 Y16.01067
G1 X11.35777 Y15.88153
G1 X11.42922 Y15.80401
G1 X12.17993 Y15.05302
G1 X12.30078 Y14.94627
G1 X12.43392 Y14.8553
G1 X12.57729 Y14.78151
G1 X12.72869 Y14.72604
G1 X12.8858 Y14.68974
G1 X13.04619 Y14.67317
G1 X13.2074 Y14.67658
G1 X13.36694 Y14.69992
G1 X13.52237 Y14.74284
G1 X13.6713 Y14.80466
G1 X13.81142 Y14.88445
G1 X13.94059 Y14.98097
G1 X14.01862 Y15.05289
G1 X17.12081 Y18.15536
G1 X17.22753 Y18.27623
G1 X17.31847 Y18.40939
G1 X17.39222 Y18.55278
G1 X17.44766 Y18.70419
G1 X17.48392 Y18.86131
G1 X17.50046 Y19.0217
G1 X17.49701 Y19.18291
G1 X17.47363 Y19.34245
G1 X17.43068 Y19.49787
G1 X17.36882 Y19.64678
G1 X17.289 Y19.78688
G1 X17.19245 Y19.91603
G1 X17.12077 Y19.99379
G1 X16.37006 Y20.7445
G1 X16.24919 Y20.85123
G1 X16.11604 Y20.94217
G1 X15.97265 Y21.01593
G1 X15.82124 Y21.07137
G1 X15.66413 Y21.10764
G1 X15.50373 Y21.12419
G1 X15.34252 Y21.12075
G1 X15.18298 Y21.09737
G1 X15.02756 Y21.05443
G1 X14.87865 Y20.99258
G1 X14.73854 Y20.91277
G1 X14.60939 Y20.81622
G1 X14.53158 Y20.7445
G1 X14.29678 Y20.5097
G1 X12.46587 Y22.34046
G1 X16.08667 Y25.96126
G1 X17.96559 Y24.08234
G1 X17.90302 Y23.93373
G1 X17.85934 Y23.77851
G1 X17.8352 Y23.61908
G1 X17.83099 Y23.45789
G1 X17.84677 Y23.29742
G1 X17.88229 Y23.14014
G1 X17.937 Y22.98846
G1 X18.01008 Y22.84472
G1 X18.10038 Y22.71114
G1 X18.20653 Y22.58976
G1 X18.21085 Y22.58542
G1 X22.58473 Y18.21097
G1 X22.7056 Y18.10424
G1 X22.83874 Y18.01329
G1 X22.98212 Y17.93952
G1 X23.13353 Y17.88406
G1 X23.29064 Y17.84778
G1 X23.45104 Y17.83123
G1 X23.61224 Y17.83466
G1 X23.77179 Y17.85802
G1 X23.92721 Y17.90096
G1 X24.07613 Y17.9628
G1 X24.08215 Y17.96577
G1 X25.96123 Y16.08669
G1 X22.34042 Y12.46606
G1 X20.50949 Y14.29685
G1 X20.74422 Y14.53158
G1 X20.85095 Y14.65245
G1 X20.94189 Y14.7856
G1 X21.01565 Y14.92899
G1 X21.07109 Y15.0804
G1 X21.10736 Y15.23752
G1 X21.1239 Y15.39791
G1 X21.12046 Y15.55912
G1 X21.09709 Y15.71866
G1 X21.09629 Y15.72244
G1 F300.0 X20.70512 Y15.63886
G1 F800.0 X20.66739 Y15.76761
G1 X20.61093 Y15.88932
G1 X20.53701 Y16.00128
G1 X20.46138 Y16.08722
G1 X19.85093 Y16.69766
G1 X19.74926 Y16.7852
G1 X19.6357 Y16.85664
G1 X19.51278 Y16.91041
G1 X19.38324 Y16.94531
G1 X19.24994 Y16.96057
G1 X19.11586 Y16.95584
G1 X18.98397 Y16.93123
G1 X18.85721 Y16.88729
G1 X18.73839 Y16.825
G1 X18.63014 Y16.74573
G1 X18.57811 Y16.69763
G1 X15.47592 Y13.59517
G1 X15.3884 Y13.49349
G1 X15.31695 Y13.37992
G1 X15.26319 Y13.257
G1 X15.22829 Y13.12746
G1 X15.21304 Y12.99416
G1 X15.21778 Y12.86008
G1 X15.24239 Y12.7282
G1 X15.28634 Y12.60143
G1 X15.34864 Y12.48261
G1 X15.42792 Y12.37437
G1 X15.47595 Y12.3224
G1 X16.08612 Y11.71224
G1 X16.18779 Y11.6247
G1 X16.30135 Y11.55326
G1 X16.42427 Y11.49949
G1 X16.55381 Y11.46459
G1 X16.68711 Y11.44933
G1 X16.82119 Y11.45406
G1 X16.95307 Y11.47867
G1 X17.07984 Y11.52261
G1 X17.19866 Y11.5849
G1 X17.30691 Y11.66417
G1 X17.35891 Y11.71224
G1 X17.91744 Y12.27077
G1 X20.31434 Y9.87388
G1 X16.08672 Y5.64691
G1 X13.6902 Y8.04342
G1 X13.77606 Y8.14652
G1 X13.84563 Y8.26123
G1 X13.89738 Y8.38501
G1 X13.93016 Y8.51511
G1 X13.94323 Y8.64864
G1 X13.9363 Y8.78262
G1 X13.90954 Y8.91409
G1 X13.86352 Y9.04012
G1 X13.79929 Y9.1579
G1 X13.71826 Y9.26483
G1 X13.67988 Y9.30568
G1 X9.30544 Y13.6804
G1 X9.20376 Y13.76794
G1 X9.09021 Y13.83939
G1 X8.96729 Y13.89317
G1 X8.83775 Y13.92807
G1 X8.70446 Y13.94333
G1 X8.57037 Y13.93861
G1 X8.43849 Y13.914
G1 X8.31172 Y13.87007
G1 X8.19289 Y13.80777
G1 X8.08465 Y13.72851
G1 X8.04297 Y13.6906
G1 X5.64668 Y16.08671
G1 X9.87417 Y20.31442
G1 X12.2708 Y17.91817
G1 X11.71216 Y17.3594
G1 X11.62464 Y17.25771
G1 X11.55321 Y17.14415
G1 X11.49945 Y17.02122
G1 X11.46457 Y16.89167
G1 X11.44933 Y16.75838
G1 X11.45407 Y16.6243
G1 X11.47869 Y16.49241
G1 X11.52265 Y16.36565
G1 X11.58496 Y16.24684
G1 X11.66424 Y16.1386
G1 X11.71212 Y16.0868
G1 X12.46283 Y15.33581
G1 X12.56449 Y15.24826
G1 X12.67803 Y15.17679
G1 X12.80094 Y15.12299
G1 X12.93048 Y15.08807
G1 X13.06377 Y15.07279
G1 X13.19785 Y15.07749
G1 X13.32974 Y15.10207
G1 X13.45652 Y15.14599
G1 X13.57535 Y15.20827
G1 X13.68361 Y15.28751
G1 X13.73577 Y15.33572
G1 X16.83796 Y18.43819
G1 X16.92548 Y18.53987
G1 X16.99693 Y18.65343
G1 X17.05069 Y18.77635
G1 X17.08559 Y18.90589
G1 X17.10084 Y19.03919
G1 X17.0961 Y19.17327
G1 X17.07149 Y19.30516
G1 X17.02754 Y19.43192
G1 X16.96524 Y19.55074
G1 X16.88596 Y19.65898
G1 X16.83793 Y19.71095
G1 X16.08722 Y20.46166
G1 X15.98554 Y20.54919
G1 X15.87198 Y20.62064
G1 X15.74907 Y20.67441
G1 X15.61952 Y20.70931
G1 X15.48623 Y20.72457
G1 X15.35215 Y20.71984
G1 X15.22026 Y20.69523
G1 X15.09349 Y20.65129
G1 X14.97467 Y20.58899
G1 X14.86643 Y20.50972
G1 X14.81442 Y20.46166
G1 X14.29679 Y19.94403
G1 X11.90018 Y22.34045
G1 X16.08667 Y26.52694
G1 X18.48327 Y24.13034
G1 X18.39744 Y24.02722
G1 X18.32789 Y23.91249
G1 X18.27617 Y23.7887
G1 X18.24342 Y23.65859
G1 X18.23038 Y23.52506
G1 X18.23734 Y23.39108
G1 X18.26413 Y23.25962
G1 X18.31017 Y23.1336
G1 X18.37444 Y23.01583
G1 X18.45549 Y22.90892
G1 X18.49371 Y22.86824
G1 X22.86759 Y18.4938
G1 X22.96926 Y18.40626
G1 X23.08282 Y18.3348
G1 X23.20573 Y18.28102
G1 X23.33527 Y18.24611
G1 X23.46857 Y18.23085
G1 X23.60265 Y18.23557
G1 X23.73454 Y18.26017
G1 X23.8613 Y18.3041
G1 X23.98013 Y18.36639
G1 X24.08838 Y18.44565
G1 X24.13006 Y18.48355
G1 X26.52693 Y16.08668
G1 X22.34042 Y11.90039
G1 X19.94379 Y14.29684
G1 X20.46138 Y14.81442
G1 X20.54891 Y14.9161
G1 X20.62036 Y15.02966
G1 X20.67413 Y15.15258
G1 X20.70903 Y15.28212
G1 X20.72429 Y15.41541
G1 X20.71956 Y15.54949
G1 X20.70512 Y15.63886
G1 F300.0 X20.31395 Y15.55529
G1 F800.0 X20.28338 Y15.6505
G1 X20.23447 Y15.73773
G1 X20.17854 Y15.80437
G1 X19.56809 Y16.41482
G1 X19.49066 Y16.47811
G1 X19.40219 Y16.52472
G1 X19.30621 Y16.55279
G1 X19.20657 Y16.5612
G1 X19.10724 Y16.54962
G1 X19.0122 Y16.5185
G1 X18.92526 Y16.46909
G1 X18.86097 Y16.4148
G1 X15.75878 Y13.31234
G1 X15.6955 Y13.23491
G1 X15.64889 Y13.14643
G1 X15.62082 Y13.05045
G1 X15.61241 Y12.95081
G1 X15.624 Y12.85148
G1 X15.65513 Y12.75645
G1 X15.70454 Y12.66951
G1 X15.7588 Y12.60524
G1 X16.36896 Y11.99508
G1 X16.44639 Y11.93179
G1 X16.53486 Y11.88518
G1 X16.63084 Y11.85711
G1 X16.73048 Y11.8487
G1 X16.82981 Y11.86028
G1 X16.92484 Y11.8914
G1 X17.01179 Y11.94081
G1 X17.07607 Y11.99508
G1 X17.91744 Y12.83646
G1 X20.88004 Y9.87385
G1 X16.08669 Y5.08124
G1 X13.1246 Y8.04333
G1 X13.39702 Y8.31575
G1 X13.4603 Y8.39318
G1 X13.50691 Y8.48165
G1 X13.53499 Y8.57763
G1 X13.5434 Y8.67727
G1 X13.53182 Y8.7766
G1 X13.5007 Y8.87163
G1 X13.45129 Y8.95858
G1 X13.39703 Y9.02284
G1 X9.02258 Y13.39757
G1 X8.94516 Y13.46086
G1 X8.85669 Y13.50747
G1 X8.76071 Y13.53555
G1 X8.66107 Y13.54397
G1 X8.56174 Y13.53238
G1 X8.4667 Y13.50127
G1 X8.37976 Y13.45186
G1 X8.31539 Y13.3975
G1 X8.04296 Y13.12495
G1 X5.08099 Y16.08669
G1 X9.87415 Y20.88009
G1 X12.83647 Y17.91822
G1 X11.99504 Y17.07659
G1 X11.93176 Y16.99915
G1 X11.88516 Y16.91068
G1 X11.8571 Y16.8147
G1 X11.8487 Y16.71505
G1 X11.86029 Y16.61572
G1 X11.89142 Y16.52069
G1 X11.94084 Y16.43376
G1 X11.99501 Y16.36959
G1 X12.74572 Y15.6186
G1 X12.82314 Y15.5553
G1 X12.9116 Y15.50867
G1 X13.00758 Y15.48058
G1 X13.10722 Y15.47215
G1 X13.20655 Y15.48371
G1 X13.30159 Y15.51481
G1 X13.38854 Y15.5642
G1 X13.45291 Y15.61855
G1 X16.5551 Y18.72102
G1 X16.61838 Y18.79845
G1 X16.66499 Y18.88692
G1 X16.69306 Y18.9829
G1 X16.70147 Y19.08255
G1 X16.68988 Y19.18187
G1 X16.65875 Y19.27691
G1 X16.60934 Y19.36384
G1 X16.55508 Y19.42811
G1 X15.80437 Y20.17882
G1 X15.72695 Y20.2421
G1 X15.63847 Y20.28871
G1 X15.5425 Y20.31679
G1 X15.44285 Y20.3252
G1 X15.34352 Y20.31362
G1 X15.24849 Y20.2825
G1 X15.16155 Y20.23309
G1 X15.09727 Y20.17882
G1 X14.2968 Y19.37835
G1 X11.33448 Y22.34044
G1 X16.08667 Y27.09263
G1 X19.04881 Y24.13048
G1 X18.77652 Y23.85807
G1 X18.71325 Y23.78063
G1 X18.66666 Y23.69215
G1 X18.63861 Y23.59616
G1 X18.63022 Y23.49651
G1 X18.64182 Y23.39719
G1 X18.67296 Y23.30216
G1 X18.72239 Y23.21523
G1 X18.77657 Y23.15107
G1 X23.15045 Y18.77662
G1 X23.22788 Y18.71333
G1 X23.31635 Y18.66671
G1 X23.41232 Y18.63863
G1 X23.51197 Y18.63021
G1 X23.6113 Y18.64179
G1 X23.70633 Y18.67291
G1 X23.79328 Y18.72231
G1 X23.8575 Y18.77652
G1 X24.1302 Y19.04909
G1 X27.09262 Y16.08668
G1 X22.34042 Y11.33473
G1 X19.3781 Y14.29683
G1 X20.17854 Y15.09727
G1 X20.24182 Y15.17469
G1 X20.28843 Y15.26317
G1 X20.31651 Y15.35914
G1 X20.32492 Y15.45879
G1 X20.31395 Y15.55529
# Profile1
S1000
G0 Z3.0
G0 X16.08731 Y31.67333
G0 Z1.0
G1 F300.0 Z-0.4
G1 F800.0 X16.64467 Y31.66405
G1 X17.20135 Y31.63477
G1 X17.75661 Y31.58554
G1 X18.30976 Y31.51643
G1 X18.86007 Y31.42752
G1 X19.40683 Y31.31892
G1 X19.94935 Y31.19079
G1 X20.48692 Y31.04327
G1 X21.01885 Y30.87656
G1 X21.54446 Y30.69088
G1 X22.06308 Y30.48646
G1 X22.57402 Y30.26358
G1 X23.07664 Y30.0225
G1 X23.57029 Y29.76355
G1 X24.05433 Y29.48706
G1 X24.52815 Y29.19339
G1 X24.99112 Y28.8829
G1 X25.44266 Y28.55601
G1 X25.88218 Y28.21313
G1 X26.30912 Y27.85471
G1 X26.72292 Y27.4812
G1 X27.10765 Y27.10856
G1 X27.10831 Y27.1079
G1 X27.49631 Y26.70621
G1 X27.86969 Y26.29088
G1 X28.22796 Y25.86244
G1 X28.57065 Y25.42146
G1 X28.89734 Y24.96848
G1 X29.2076 Y24.5041
G1 X29.50103 Y24.02891
G1 X29.77726 Y23.54352
G1 X30.03593 Y23.04855
G1 X30.27671 Y22.54463
G1 X30.49085 Y22.05281
G1 X30.69488 Y21.53431
G1 X30.88017 Y21.00882
G1 X31.04649 Y20.47702
G1 X31.19361 Y19.9396
G1 X31.32135 Y19.39724
G1 X31.42954 Y18.85065
G1 X31.51805 Y18.30052
G1 X31.58675 Y17.74758
G1 X31.63557 Y17.19252
G1 X31.66444 Y16.63607
G1 X31.67333 Y16.0874
G1 F300.0 Y16.08603
G1 F800.0 X31.66405 Y15.52866
G1 X31.63477 Y14.97199
G1 X31.58554 Y14.41672
G1 X31.51643 Y13.86358
G1 X31.42752 Y13.31327
G1 X31.31892 Y12.7665
G1 X31.19079 Y12.22399
G1 X31.04327 Y11.68642
G1 X30.87656 Y11.15448
G1 X30.69088 Y10.62887
G1 X30.48647 Y10.11026
G1 X30.26358 Y9.59931
G1 X30.0225 Y9.09669
G1 X29.76356 Y8.60304
G1 X29.48707 Y8.119
G1 X29.19339 Y7.64519
G1 X28.88291 Y7.18222
G1 X28.55602 Y6.73068
G1 X28.21314 Y6.29116
G1 X27.85471 Y5.86422
G1 X27.4812 Y5.45041
G1 X27.10856 Y5.06568
G1 X27.1079 Y5.06503
G1 X26.70621 Y4.67702
G1 X26.29088 Y4.30364
G1 X25.86244 Y3.94538
G1 X25.42146 Y3.60268
G1 X24.96848 Y3.276
G1 X24.5041 Y2.96574
G1 X24.02891 Y2.67231
G1 X23.54352 Y2.39608
G1 X23.04855 Y2.13741
G1 X22.54463 Y1.89662
G1 X22.05281 Y1.68248
G1 X21.53431 Y1.47845
G1 X21.00882 Y1.29316
G1 X20.47702 Y1.12685
G1 X19.9396 Y0.97972
G1 X19.39724 Y0.85199
G1 X18.85065 Y0.74379
G1 X18.30052 Y0.65529
G1 X17.74758 Y0.58658
G1 X17.19252 Y0.53776
G1 X16.63607 Y0.50889
G1 X16.0874 Y0.5
G1 F300.0 X16.08603
G1 F800.0 X15.52866 Y0.50929
G1 X14.97199 Y0.53856
G1 X14.41672 Y0.58779
G1 X13.86358 Y0.6569
G1 X13.31327 Y0.74581
G1 X12.7665 Y0.85441
G1 X12.22399 Y0.98255
G1 X11.68642 Y1.13006
G1 X11.15448 Y1.29677
G1 X10.62887 Y1.48245
G1 X10.11026 Y1.68687
G1 X9.59931 Y1.90976
G1 X9.09669 Y2.15083
G1 X8.60304 Y2.40978
G1 X8.119 Y2.68627
G1 X7.64519 Y2.97994
G1 X7.18222 Y3.29043
G1 X6.73068 Y3.61732
G1 X6.29116 Y3.9602
G1 X5.86422 Y4.31862
G1 X5.45041 Y4.69213
G1 X5.06568 Y5.06478
G1 X5.06503 Y5.06543
G1 X4.67702 Y5.46713
G1 X4.30364 Y5.88246
G1 X3.94538 Y6.31089
G1 X3.60268 Y6.75188
G1 X3.276 Y7.20485
G1 X2.96574 Y7.66923
G1 X2.67231 Y8.14442
G1 X2.39608 Y8.62981
G1 X2.1374 Y9.12479
G1 X1.89662 Y9.6287
G1 X1.68248 Y10.12052
G1 X1.47845 Y10.63902
G1 X1.29316 Y11.16451
G1 X1.12685 Y11.69631
G1 X0.97972 Y12.23374
G1 X0.85199 Y12.7761
G1 X0.74379 Y13.32269
G1 X0.65529 Y13.87281
G1 X0.58658 Y14.42576
G1 X0.53776 Y14.98082
G1 X0.50889 Y15.53727
G1 X0.5 Y16.08593
G1 F300.0 Y16.08731
G1 F800.0 X0.50929 Y16.64467
G1 X0.53856 Y17.20135
G1 X0.58779 Y17.75661
G1 X0.6569 Y18.30976
G1 X0.74581 Y18.86007
G1 X0.85441 Y19.40683
G1 X0.98255 Y19.94935
G1 X1.13007 Y20.48692
G1 X1.29677 Y21.01885
G1 X1.48245 Y21.54446
G1 X1.68687 Y22.06308
G1 X1.90976 Y22.57402
G1 X2.15083 Y23.07664
G1 X2.40978 Y23.57029
G1 X2.68627 Y24.05433
G1 X2.97995 Y24.52815
G1 X3.29043 Y24.99112
G1 X3.61732 Y25.44266
G1 X3.9602 Y25.88218
G1 X4.31862 Y26.30912
G1 X4.69213 Y26.72292
G1 X5.06478 Y27.10765
G1 X5.06543 Y27.10831
G1 X5.46713 Y27.49631
G1 X5.88246 Y27.86969
G1 X6.31089 Y28.22796
G1 X6.75188 Y28.57065
G1 X7.20485 Y28.89734
G1 X7.66923 Y29.2076
G1 X8.14442 Y29.50103
G1 X8.62982 Y29.77726
G1 X9.12479 Y30.03593
G1 X9.6287 Y30.27671
G1 X10.12052 Y30.49085
G1 X10.63902 Y30.69488
G1 X11.16451 Y30.88017
G1 X11.69631 Y31.04649
G1 X12.23374 Y31.19361
G1 X12.7761 Y31.32135
G1 X13.32269 Y31.42954
G1 X13.87281 Y31.51805
G1 X14.42576 Y31.58675
G1 X14.98082 Y31.63557
G1 X15.53727 Y31.66444
G1 X16.08593 Y31.67333
G1 F300.0 X16.08731
G1 Z-0.8
G1 F800.0 X16.64467 Y31.66405
G1 X17.20135 Y31.63477
G1 X17.75661 Y31.58554
G1 X18.30976 Y31.51643
G1 X18.86007 Y31.42752
G1 X19.40683 Y31.31892
G1 X19.94935 Y31.19079
G1 X20.48692 Y31.04327
G1 X21.01885 Y30.87656
G1 X21.54446 Y30.69088
G1 X22.06308 Y30.48646
G1 X22.57402 Y30.26358
G1 X23.07664 Y30.0225
G1 X23.57029 Y29.76355
G1 X24.05433 Y29.48706
G1 X24.52815 Y29.19339
G1 X24.99112 Y28.8829
G1 X25.44266 Y28.55601
G1 X25.88218 Y28.21313
G1 X26.30912 Y27.85471
G1 X26.72292 Y27.4812
G1 X27.10765 Y27.10856
G1 X27.10831 Y27.1079
G1 X27.49631 Y26.70621
G1 X27.86969 Y26.29088
G1 X28.22796 Y25.86244
G1 X28.57065 Y25.42146
G1 X28.89734 Y24.96848
G1 X29.2076 Y24.5041
G1 X29.50103 Y24.02891
G1 X29.77726 Y23.54352
G1 X30.03593 Y23.04855
G1 X30.27671 Y22.54463
G1 X30.49085 Y22.05281
G1 X30.69488 Y21.53431
G1 X30.88017 Y21.00882
G1 X31.04649 Y20.47702
G1 X31.19361 Y19.9396
G1 X31.32135 Y19.39724
G1 X31.42954 Y18.85065
G1 X31.51805 Y18.30052
G1 X31.58675 Y17.74758
G1 X31.63557 Y17.19252
G1 X31.66444 Y16.63607
G1 X31.67333 Y16.0874
G1 F300.0 Y16.08603
G1 F800.0 X31.66405 Y15.52866
G1 X31.63477 Y14.97199
G1 X31.58554 Y14.41672
G1 X31.51643 Y13.86358
G1 X31.42752 Y13.31327
G1 X31.31892 Y12.7665
G1 X31.19079 Y12.22399
G1 X31.04327 Y11.68642
G1 X30.87656 Y11.15448
G1 X30.69088 Y10.62887
G1 X30.48647 Y10.11026
G1 X30.26358 Y9.59931
G1 X30.0225 Y9.09669
G1 X29.76356 Y8.60304
G1 X29.48707 Y8.119
G1 X29.19339 Y7.64519
G1 X28.88291 Y7.18222
G1 X28.55602 Y6.73068
G1 X28.21314 Y6.29116
G1 X27.85471 Y5.86422
G1 X27.4812 Y5.45041
G1 X27.10856 Y5.06568
G1 X27.1079 Y5.06503
G1 X26.70621 Y4.67702
G1 X26.29088 Y4.30364
G1 X25.86244 Y3.94538
G1 X25.42146 Y3.60268
G1 X24.96848 Y3.276
G1 X24.5041 Y2.96574
G1 X24.02891 Y2.67231
G1 X23.54352 Y2.39608
G1 X23.04855 Y2.13741
G1 X22.54463 Y1.89662
G1 X22.05281 Y1.68248
G1 X21.53431 Y1.47845
G1 X21.00882 Y1.29316
G1 X20.47702 Y1.12685
G1 X19.9396 Y0.97972
G1 X19.39724 Y0.85199
G1 X18.85065 Y0.74379
G1 X18.30052 Y0.65529
G1 X17.74758 Y0.58658
G1 X17.19252 Y0.53776
G1 X16.63607 Y0.50889
G1 X16.0874 Y0.5
G1 F300.0 X16.08603
G1 F800.0 X15.52866 Y0.50929
G1 X14.97199 Y0.53856
G1 X14.41672 Y0.58779
G1 X13.86358 Y0.6569
G1 X13.31327 Y0.74581
G1 X12.7665 Y0.85441
G1 X12.22399 Y0.98255
G1 X11.68642 Y1.13006
G1 X11.15448 Y1.29677
G1 X10.62887 Y1.48245
G1 X10.11026 Y1.68687
G1 X9.59931 Y1.90976
G1 X9.09669 Y2.15083
G1 X8.60304 Y2.40978
G1 X8.119 Y2.68627
G1 X7.64519 Y2.97994
G1 X7.18222 Y3.29043
G1 X6.73068 Y3.61732
G1 X6.29116 Y3.9602
G1 X5.86422 Y4.31862
G1 X5.45041 Y4.69213
G1 X5.06568 Y5.06478
G1 X5.06503 Y5.06543
G1 X4.67702 Y5.46713
G1 X4.30364 Y5.88246
G1 X3.94538 Y6.31089
G1 X3.60268 Y6.75188
G1 X3.276 Y7.20485
G1 X2.96574 Y7.66923
G1 X2.67231 Y8.14442
G1 X2.39608 Y8.62981
G1 X2.1374 Y9.12479
G1 X1.89662 Y9.6287
G1 X1.68248 Y10.12052
G1 X1.47845 Y10.63902
G1 X1.29316 Y11.16451
G1 X1.12685 Y11.69631
G1 X0.97972 Y12.23374
G1 X0.85199 Y12.7761
G1 X0.74379 Y13.32269
G1 X0.65529 Y13.87281
G1 X0.58658 Y14.42576
G1 X0.53776 Y14.98082
G1 X0.50889 Y15.53727
G1 X0.5 Y16.08593
G1 F300.0 Y16.08731
G1 F800.0 X0.50929 Y16.64467
G1 X0.53856 Y17.20135
G1 X0.58779 Y17.75661
G1 X0.6569 Y18.30976
G1 X0.74581 Y18.86007
G1 X0.85441 Y19.40683
G1 X0.98255 Y19.94935
G1 X1.13007 Y20.48692
G1 X1.29677 Y21.01885
G1 X1.48245 Y21.54446
G1 X1.68687 Y22.06308
G1 X1.90976 Y22.57402
G1 X2.15083 Y23.07664
G1 X2.40978 Y23.57029
G1 X2.68627 Y24.05433
G1 X2.97995 Y24.52815
G1 X3.29043 Y24.99112
G1 X3.61732 Y25.44266
G1 X3.9602 Y25.88218
G1 X4.31862 Y26.30912
G1 X4.69213 Y26.72292
G1 X5.06478 Y27.10765
G1 X5.06543 Y27.10831
G1 X5.46713 Y27.49631
G1 X5.88246 Y27.86969
G1 X6.31089 Y28.22796
G1 X6.75188 Y28.57065
G1 X7.20485 Y28.89734
G1 X7.66923 Y29.2076
G1 X8.14442 Y29.50103
G1 X8.62982 Y29.77726
G1 X9.12479 Y30.03593
G1 X9.6287 Y30.27671
G1 X10.12052 Y30.49085
G1 X10.63902 Y30.69488
G1 X11.16451 Y30.88017
G1 X11.69631 Y31.04649
G1 X12.23374 Y31.19361
G1 X12.7761 Y31.32135
G1 X13.32269 Y31.42954
G1 X13.87281 Y31.51805
G1 X14.42576 Y31.58675
G1 X14.98082 Y31.63557
G1 X15.53727 Y31.66444
G1 X16.08593 Y31.67333
G1 F300.0 X16.08731
G1 Z-1.2
G1 F800.0 X16.64467 Y31.66405
G1 X17.20135 Y31.63477
G1 X17.75661 Y31.58554
G1 X18.30976 Y31.51643
G1 X18.86007 Y31.42752
G1 X19.40683 Y31.31892
G1 X19.94935 Y31.19079
G1 X20.48692 Y31.04327
G1 X21.01885 Y30.87656
G1 X21.54446 Y30.69088
G1 X22.06308 Y30.48646
G1 X22.57402 Y30.26358
G1 X23.07664 Y30.0225
G1 X23.57029 Y29.76355
G1 X24.05433 Y29.48706
G1 X24.52815 Y29.19339
G1 X24.99112 Y28.8829
G1 X25.44266 Y28.55601
G1 X25.88218 Y28.21313
G1 X26.30912 Y27.85471
G1 X26.72292 Y27.4812
G1 X27.10765 Y27.10856
G1 X27.10831 Y27.1079
G1 X27.49631 Y26.70621
G1 X27.86969 Y26.29088
G1 X28.22796 Y25.86244
G1 X28.57065 Y25.42146
G1 X28.89734 Y24.96848
G1 X29.2076 Y24.5041
G1 X29.50103 Y24.02891
G1 X29.77726 Y23.54352
G1 X30.03593 Y23.04855
G1 X30.27671 Y22.54463
G1 X30.49085 Y22.05281
G1 X30.69488 Y21.53431
G1 X30.88017 Y21.00882
G1 X31.04649 Y20.47702
G1 X31.19361 Y19.9396
G1 X31.32135 Y19.39724
G1 X31.42954 Y18.85065
G1 X31.51805 Y18.30052
G1 X31.58675 Y17.74758
G1 X31.63557 Y17.19252
G1 X31.66444 Y16.63607
G1 X31.67333 Y16.0874
G1 F300.0 Y16.08603
G1 F800.0 X31.66405 Y15.52866
G1 X31.63477 Y14.97199
G1 X31.58554 Y14.41672
G1 X31.51643 Y13.86358
G1 X31.42752 Y13.31327
G1 X31.31892 Y12.7665
G1 X31.19079 Y12.22399
G1 X31.04327 Y11.68642
G1 X30.87656 Y11.15448
G1 X30.69088 Y10.62887
G1 X30.48647 Y10.11026
G1 X30.26358 Y9.59931
G1 X30.0225 Y9.09669
G1 X29.76356 Y8.60304
G1 X29.48707 Y8.119
G1 X29.19339 Y7.64519
G1 X28.88291 Y7.18222
G1 X28.55602 Y6.73068
G1 X28.21314 Y6.29116
G1 X27.85471 Y5.86422
G1 X27.4812 Y5.45041
G1 X27.10856 Y5.06568
G1 X27.1079 Y5.06503
G1 X26.70621 Y4.67702
G1 X26.29088 Y4.30364
G1 X25.86244 Y3.94538
G1 X25.42146 Y3.60268
G1 X24.96848 Y3.276
G1 X24.5041 Y2.96574
G1 X24.02891 Y2.67231
G1 X23.54352 Y2.39608
G1 X23.04855 Y2.13741
G1 X22.54463 Y1.89662
G1 X22.05281 Y1.68248
G1 X21.53431 Y1.47845
G1 X21.00882 Y1.29316
G1 X20.47702 Y1.12685
G1 X19.9396 Y0.97972
G1 X19.39724 Y0.85199
G1 X18.85065 Y0.74379
G1 X18.30052 Y0.65529
G1 X17.74758 Y0.58658
G1 X17.19252 Y0.53776
G1 X16.63607 Y0.50889
G1 X16.0874 Y0.5
G1 F300.0 X16.08603
G1 F800.0 X15.52866 Y0.50929
G1 X14.97199 Y0.53856
G1 X14.41672 Y0.58779
G1 X13.86358 Y0.6569
G1 X13.31327 Y0.74581
G1 X12.7665 Y0.85441
G1 X12.22399 Y0.98255
G1 X11.68642 Y1.13006
G1 X11.15448 Y1.29677
G1 X10.62887 Y1.48245
G1 X10.11026 Y1.68687
G1 X9.59931 Y1.90976
G1 X9.09669 Y2.15083
G1 X8.60304 Y2.40978
G1 X8.119 Y2.68627
G1 X7.64519 Y2.97994
G1 X7.18222 Y3.29043
G1 X6.73068 Y3.61732
G1 X6.29116 Y3.9602
G1 X5.86422 Y4.31862
G1 X5.45041 Y4.69213
G1 X5.06568 Y5.06478
G1 X5.06503 Y5.06543
G1 X4.67702 Y5.46713
G1 X4.30364 Y5.88246
G1 X3.94538 Y6.31089
G1 X3.60268 Y6.75188
G1 X3.276 Y7.20485
G1 X2.96574 Y7.66923
G1 X2.67231 Y8.14442
G1 X2.39608 Y8.62981
G1 X2.1374 Y9.12479
G1 X1.89662 Y9.6287
G1 X1.68248 Y10.12052
G1 X1.47845 Y10.63902
G1 X1.29316 Y11.16451
G1 X1.12685 Y11.69631
G1 X0.97972 Y12.23374
G1 X0.85199 Y12.7761
G1 X0.74379 Y13.32269
G1 X0.65529 Y13.87281
G1 X0.58658 Y14.42576
G1 X0.53776 Y14.98082
G1 X0.50889 Y15.53727
G1 X0.5 Y16.08593
G1 F300.0 Y16.08731
G1 F800.0 X0.50929 Y16.64467
G1 X0.53856 Y17.20135
G1 X0.58779 Y17.75661
G1 X0.6569 Y18.30976
G1 X0.74581 Y18.86007
G1 X0.85441 Y19.40683
G1 X0.98255 Y19.94935
G1 X1.13007 Y20.48692
G1 X1.29677 Y21.01885
G1 X1.48245 Y21.54446
G1 X1.68687 Y22.06308
G1 X1.90976 Y22.57402
G1 X2.15083 Y23.07664
G1 X2.40978 Y23.57029
G1 X2.68627 Y24.05433
G1 X2.97995 Y24.52815
G1 X3.29043 Y24.99112
G1 X3.61732 Y25.44266
G1 X3.9602 Y25.88218
G1 X4.31862 Y26.30912
G1 X4.69213 Y26.72292
G1 X5.06478 Y27.10765
G1 X5.06543 Y27.10831
G1 X5.46713 Y27.49631
G1 X5.88246 Y27.86969
G1 X6.31089 Y28.22796
G1 X6.75188 Y28.57065
G1 X7.20485 Y28.89734
G1 X7.66923 Y29.2076
G1 X8.14442 Y29.50103
G1 X8.62982 Y29.77726
G1 X9.12479 Y30.03593
G1 X9.6287 Y30.27671
G1 X10.12052 Y30.49085
G1 X10.63902 Y30.69488
G1 X11.16451 Y30.88017
G1 X11.69631 Y31.04649
G1 X12.23374 Y31.19361
G1 X12.7761 Y31.32135
G1 X13.32269 Y31.42954
G1 X13.87281 Y31.51805
G1 X14.42576 Y31.58675
G1 X14.98082 Y31.63557
G1 X15.53727 Y31.66444
G1 X16.08593 Y31.67333
G1 F300.0 X16.08731
G1 Z-1.6
G1 F800.0 X16.64467 Y31.66405
G1 X17.20135 Y31.63477
G1 X17.75661 Y31.58554
G1 X18.30976 Y31.51643
G1 X18.86007 Y31.42752
G1 X19.40683 Y31.31892
G1 X19.94935 Y31.19079
G1 X20.48692 Y31.04327
G1 X21.01885 Y30.87656
G1 X21.54446 Y30.69088
G1 X22.06308 Y30.48646
G1 X22.57402 Y30.26358
G1 X23.07664 Y30.0225
G1 X23.57029 Y29.76355
G1 X24.05433 Y29.48706
G1 X24.52815 Y29.19339
G1 X24.99112 Y28.8829
G1 X25.44266 Y28.55601
G1 X25.88218 Y28.21313
G1 X26.30912 Y27.85471
G1 X26.72292 Y27.4812
G1 X27.10765 Y27.10856
G1 X27.10831 Y27.1079
G1 X27.49631 Y26.70621
G1 X27.86969 Y26.29088
G1 X28.22796 Y25.86244
G1 X28.57065 Y25.42146
G1 X28.89734 Y24.96848
G1 X29.2076 Y24.5041
G1 X29.50103 Y24.02891
G1 X29.77726 Y23.54352
G1 X30.03593 Y23.04855
G1 X30.27671 Y22.54463
G1 X30.49085 Y22.05281
G1 X30.69488 Y21.53431
G1 X30.88017 Y21.00882
G1 X31.04649 Y20.47702
G1 X31.19361 Y19.9396
G1 X31.32135 Y19.39724
G1 X31.42954 Y18.85065
G1 X31.51805 Y18.30052
G1 X31.58675 Y17.74758
G1 X31.63557 Y17.19252
G1 X31.66444 Y16.63607
G1 X31.67333 Y16.0874
G1 F300.0 Y16.08603
G1 F800.0 X31.66405 Y15.52866
G1 X31.63477 Y14.97199
G1 X31.58554 Y14.41672
G1 X31.51643 Y13.86358
G1 X31.42752 Y13.31327
G1 X31.31892 Y12.7665
G1 X31.19079 Y12.22399
G1 X31.04327 Y11.68642
G1 X30.87656 Y11.15448
G1 X30.69088 Y10.62887
G1 X30.48647 Y10.11026
G1 X30.26358 Y9.59931
G1 X30.0225 Y9.09669
G1 X29.76356 Y8.60304
G1 X29.48707 Y8.119
G1 X29.19339 Y7.64519
G1 X28.88291 Y7.18222
G1 X28.55602 Y6.73068
G1 X28.21314 Y6.29116
G1 X27.85471 Y5.86422
G1 X27.4812 Y5.45041
G1 X27.10856 Y5.06568
G1 X27.1079 Y5.06503
G1 X26.70621 Y4.67702
G1 X26.29088 Y4.30364
G1 X25.86244 Y3.94538
G1 X25.42146 Y3.60268
G1 X24.96848 Y3.276
G1 X24.5041 Y2.96574
G1 X24.02891 Y2.67231
G1 X23.54352 Y2.39608
G1 X23.04855 Y2.13741
G1 X22.54463 Y1.89662
G1 X22.05281 Y1.68248
G1 X21.53431 Y1.47845
G1 X21.00882 Y1.29316
G1 X20.47702 Y1.12685
G1 X19.9396 Y0.97972
G1 X19.39724 Y0.85199
G1 X18.85065 Y0.74379
G1 X18.30052 Y0.65529
G1 X17.74758 Y0.58658
G1 X17.19252 Y0.53776
G1 X16.63607 Y0.50889
G1 X16.0874 Y0.5
G1 F300.0 X16.08603
G1 F800.0 X15.52866 Y0.50929
G1 X14.97199 Y0.53856
G1 X14.41672 Y0.58779
G1 X13.86358 Y0.6569
G1 X13.31327 Y0.74581
G1 X12.7665 Y0.85441
G1 X12.22399 Y0.98255
G1 X11.68642 Y1.13006
G1 X11.15448 Y1.29677
G1 X10.62887 Y1.48245
G1 X10.11026 Y1.68687
G1 X9.59931 Y1.90976
G1 X9.09669 Y2.15083
G1 X8.60304 Y2.40978
G1 X8.119 Y2.68627
G1 X7.64519 Y2.97994
G1 X7.18222 Y3.29043
G1 X6.73068 Y3.61732
G1 X6.29116 Y3.9602
G1 X5.86422 Y4.31862
G1 X5.45041 Y4.69213
G1 X5.06568 Y5.06478
G1 X5.06503 Y5.06543
G1 X4.67702 Y5.46713
G1 X4.30364 Y5.88246
G1 X3.94538 Y6.31089
G1 X3.60268 Y6.75188
G1 X3.276 Y7.20485
G1 X2.96574 Y7.66923
G1 X2.67231 Y8.14442
G1 X2.39608 Y8.62981
G1 X2.1374 Y9.12479
G1 X1.89662 Y9.6287
G1 X1.68248 Y10.12052
G1 X1.47845 Y10.63902
G1 X1.29316 Y11.16451
G1 X1.12685 Y11.69631
G1 X0.97972 Y12.23374
G1 X0.85199 Y12.7761
G1 X0.74379 Y13.32269
G1 X0.65529 Y13.87281
G1 X0.58658 Y14.42576
G1 X0.53776 Y14.98082
G1 X0.50889 Y15.53727
G1 X0.5 Y16.08593
G1 F300.0 Y16.08731
G1 F800.0 X0.50929 Y16.64467
G1 X0.53856 Y17.20135
G1 X0.58779 Y17.75661
G1 X0.6569 Y18.30976
G1 X0.74581 Y18.86007
G1 X0.85441 Y19.40683
G1 X0.98255 Y19.94935
G1 X1.13007 Y20.48692
G1 X1.29677 Y21.01885
G1 X1.48245 Y21.54446
G1 X1.68687 Y22.06308
G1 X1.90976 Y22.57402
G1 X2.15083 Y23.07664
G1 X2.40978 Y23.57029
G1 X2.68627 Y24.05433
G1 X2.97995 Y24.52815
G1 X3.29043 Y24.99112
G1 X3.61732 Y25.44266
G1 X3.9602 Y25.88218
G1 X4.31862 Y26.30912
G1 X4.69213 Y26.72292
G1 X5.06478 Y27.10765
G1 X5.06543 Y27.10831
G1 X5.46713 Y27.49631
G1 X5.88246 Y27.86969
G1 X6.31089 Y28.22796
G1 X6.75188 Y28.57065
G1 X7.20485 Y28.89734
G1 X7.66923 Y29.2076
G1 X8.14442 Y29.50103
G1 X8.62982 Y29.77726
G1 X9.12479 Y30.03593
G1 X9.6287 Y30.27671
G1 X10.12052 Y30.49085
G1 X10.63902 Y30.69488
G1 X11.16451 Y30.88017
G1 X11.69631 Y31.04649
G1 X12.23374 Y31.19361
G1 X12.7761 Y31.32135
G1 X13.32269 Y31.42954
G1 X13.87281 Y31.51805
G1 X14.42576 Y31.58675
G1 X14.98082 Y31.63557
G1 X15.53727 Y31.66444
G1 X16.08593 Y31.67333
G1 F300.0 X16.08731
G1 Z-2.0
G1 F800.0 X16.64467 Y31.66405
G1 X17.20135 Y31.63477
G1 X17.75661 Y31.58554
G1 X18.30976 Y31.51643
G1 X18.86007 Y31.42752
G1 X19.40683 Y31.31892
G1 X19.94935 Y31.19079
G1 X20.48692 Y31.04327
G1 X21.01885 Y30.87656
G1 X21.54446 Y30.69088
G1 X22.06308 Y30.48646
G1 X22.57402 Y30.26358
G1 X23.07664 Y30.0225
G1 X23.57029 Y29.76355
G1 X24.05433 Y29.48706
G1 X24.52815 Y29.19339
G1 X24.99112 Y28.8829
G1 X25.44266 Y28.55601
G1 X25.88218 Y28.21313
G1 X26.30912 Y27.85471
G1 X26.72292 Y27.4812
G1 X27.10765 Y27.10856
G1 X27.10831 Y27.1079
G1 X27.49631 Y26.70621
G1 X27.86969 Y26.29088
G1 X28.22796 Y25.86244
G1 X28.57065 Y25.42146
G1 X28.89734 Y24.96848
G1 X29.2076 Y24.5041
G1 X29.50103 Y24.02891
G1 X29.77726 Y23.54352
G1 X30.03593 Y23.04855
G1 X30.27671 Y22.54463
G1 X30.49085 Y22.05281
G1 X30.69488 Y21.53431
G1 X30.88017 Y21.00882
G1 X31.04649 Y20.47702
G1 X31.19361 Y19.9396
G1 X31.32135 Y19.39724
G1 X31.42954 Y18.85065
G1 X31.51805 Y18.30052
G1 X31.58675 Y17.74758
G1 X31.63557 Y17.19252
G1 X31.66444 Y16.63607
G1 X31.67333 Y16.0874
G1 F300.0 Y16.08603
G1 F800.0 X31.66405 Y15.52866
G1 X31.63477 Y14.97199
G1 X31.58554 Y14.41672
G1 X31.51643 Y13.86358
G1 X31.42752 Y13.31327
G1 X31.31892 Y12.7665
G1 X31.19079 Y12.22399
G1 X31.04327 Y11.68642
G1 X30.87656 Y11.15448
G1 X30.69088 Y10.62887
G1 X30.48647 Y10.11026
G1 X30.26358 Y9.59931
G1 X30.0225 Y9.09669
G1 X29.76356 Y8.60304
G1 X29.48707 Y8.119
G1 X29.19339 Y7.64519
G1 X28.88291 Y7.18222
G1 X28.55602 Y6.73068
G1 X28.21314 Y6.29116
G1 X27.85471 Y5.86422
G1 X27.4812 Y5.45041
G1 X27.10856 Y5.06568
G1 X27.1079 Y5.06503
G1 X26.70621 Y4.67702
G1 X26.29088 Y4.30364
G1 X25.86244 Y3.94538
G1 X25.42146 Y3.60268
G1 X24.96848 Y3.276
G1 X24.5041 Y2.96574
G1 X24.02891 Y2.67231
G1 X23.54352 Y2.39608
G1 X23.04855 Y2.13741
G1 X22.54463 Y1.89662
G1 X22.05281 Y1.68248
G1 X21.53431 Y1.47845
G1 X21.00882 Y1.29316
G1 X20.47702 Y1.12685
G1 X19.9396 Y0.97972
G1 X19.39724 Y0.85199
G1 X18.85065 Y0.74379
G1 X18.30052 Y0.65529
G1 X17.74758 Y0.58658
G1 X17.19252 Y0.53776
G1 X16.63607 Y0.50889
G1 X16.0874 Y0.5
G1 F300.0 X16.08603
G1 F800.0 X15.52866 Y0.50929
G1 X14.97199 Y0.53856
G1 X14.41672 Y0.58779
G1 X13.86358 Y0.6569
G1 X13.31327 Y0.74581
G1 X12.7665 Y0.85441
G1 X12.22399 Y0.98255
G1 X11.68642 Y1.13006
G1 X11.15448 Y1.29677
G1 X10.62887 Y1.48245
G1 X10.11026 Y1.68687
G1 X9.59931 Y1.90976
G1 X9.09669 Y2.15083
G1 X8.60304 Y2.40978
G1 X8.119 Y2.68627
G1 X7.64519 Y2.97994
G1 X7.18222 Y3.29043
G1 X6.73068 Y3.61732
G1 X6.29116 Y3.9602
G1 X5.86422 Y4.31862
G1 X5.45041 Y4.69213
G1 X5.06568 Y5.06478
G1 X5.06503 Y5.06543
G1 X4.67702 Y5.46713
G1 X4.30364 Y5.88246
G1 X3.94538 Y6.31089
G1 X3.60268 Y6.75188
G1 X3.276 Y7.20485
G1 X2.96574 Y7.66923
G1 X2.67231 Y8.14442
G1 X2.39608 Y8.62981
G1 X2.1374 Y9.12479
G1 X1.89662 Y9.6287
G1 X1.68248 Y10.12052
G1 X1.47845 Y10.63902
G1 X1.29316 Y11.16451
G1 X1.12685 Y11.69631
G1 X0.97972 Y12.23374
G1 X0.85199 Y12.7761
G1 X0.74379 Y13.32269
G1 X0.65529 Y13.87281
G1 X0.58658 Y14.42576
G1 X0.53776 Y14.98082
G1 X0.50889 Y15.53727
G1 X0.5 Y16.08593
G1 F300.0 Y16.08731
G1 F800.0 X0.50929 Y16.64467
G1 X0.53856 Y17.20135
G1 X0.58779 Y17.75661
G1 X0.6569 Y18.30976
G1 X0.74581 Y18.86007
G1 X0.85441 Y19.40683
G1 X0.98255 Y19.94935
G1 X1.13007 Y20.48692
G1 X1.29677 Y21.01885
G1 X1.48245 Y21.54446
G1 X1.68687 Y22.06308
G1 X1.90976 Y22.57402
G1 X2.15083 Y23.07664
G1 X2.40978 Y23.57029
G1 X2.68627 Y24.05433
G1 X2.97995 Y24.52815
G1 X3.29043 Y24.99112
G1 X3.61732 Y25.44266
G1 X3.9602 Y25.88218
G1 X4.31862 Y26.30912
G1 X4.69213 Y26.72292
G1 X5.06478 Y27.10765
G1 X5.06543 Y27.10831
G1 X5.46713 Y27.49631
G1 X5.88246 Y27.86969
G1 X6.31089 Y28.22796
G1 X6.75188 Y28.57065
G1 X7.20485 Y28.89734
