( Made using CamBam - http://www.cambam.co.uk )
( CamBam 3/6/2014 9:37:44 AM )
( T1 : 3.0 )
G21 G90 G64 G40
G0 Z3.0
( T1 : 3.0 )
T1 M6
( Pocket1 )
G17
M3 S1000
G0 X123.877 Y167.8782
G0 Z0.2
G1 F300.0 Z-0.4
G1 F800.0 X125.1536 Y166.8221
G3 X123.6318 Y165.3543 I30.9557 J-33.6157
G3 X123.877 Y167.8782 I-20.4417 J3.2602
G1 F300.0 X124.642 Y168.8028
G1 F800.0 X126.9941 Y166.8568
G3 X120.8567 Y160.3595 I29.1151 J-33.6504
G3 X122.5995 Y170.4927 I-17.6665 J8.255
G1 X124.642 Y168.8028
G0 Z3.0
G0 X109.8871 Y146.5066
G0 Z0.2
G1 F300.0 Z-0.4
G3 F800.0 X109.7179 Y145.9037 I46.2221 J-13.3001
G3 X109.2407 Y146.321 I-15.4441 J-17.1782
G3 X109.8871 Y146.5066 I-6.0505 J22.2935
G1 F300.0 X111.0403 Y146.1747
G3 F800.0 X110.3718 Y143.5735 I45.0689 J-12.9683
G3 X106.8171 Y146.6775 I-16.0981 J-14.848
G1 X106.4212 Y146.9542
G3 X111.7622 Y148.4619 I-3.231 J21.6603
G3 X111.0403 Y146.1747 I44.347 J-15.2554
G1 F300.0 X112.1935 Y145.8429
G3 F800.0 X111.0546 Y140.8454 I43.9157 J-12.6365
G3 X106.1298 Y145.6938 I-16.7809 J-12.1199
G1 X102.9496 Y147.9159
G3 X114.0024 Y150.9627 I0.2406 J20.6986
G3 X112.1935 Y145.8429 I42.1068 J-17.7563
G1 F300.0 X113.3467 Y145.5111
G3 F800.0 X111.7983 Y137.2778 I42.7625 J-12.3046
G3 X105.4425 Y144.7101 I-17.5245 J-8.5523
G1 X98.4747 Y149.5787
G1 X100.5407 Y149.2953
G3 X117.5607 Y155.4335 I2.6495 J19.3192
G3 X113.3467 Y145.5111 I38.5486 J-22.2271
G0 Z3.0
G0 X155.0498 Y133.5113
G0 Z0.2
G1 F300.0 Z-0.4
G2 F800.0 X157.064 Y133.7576 I1.0594 J-0.3048
G3 X157.4492 Y133.2064 I3.3754 J1.9488
G3 X157.064 Y132.6552 I2.9902 J-2.5
G2 X155.0498 Y133.5113 I-0.9547 J0.5512
G1 F300.0 X153.8966 Y133.8431
G2 F800.0 X158.1032 Y134.3576 I2.2126 J-0.6367
G3 X159.4259 Y133.2064 I2.3362 J1.3488
G3 X158.1032 Y132.0552 I1.0134 J-2.5
G2 X153.8966 Y133.8431 I-1.9939 J1.1512
G0 Z3.0
G0 X161.4528 Y133.2064
G0 Z0.2
G1 F300.0 Z-0.4
G3 F800.0 X161.7882 Y133.3702 I-1.0134 J2.5
G1 X179.1087 Y143.3702
G3 X180.0961 Y147.0552 I-1.3488 J2.3362
G3 X180.0203 Y119.2273 I-23.9868 J-13.8488
G3 X200.0823 Y119.7126 I9.7713 J10.9791
G3 X202.9092 Y116.3695 I6.0607 J2.2581
G3 X209.7069 Y116.5735 I3.2338 J5.6012
G3 X211.8541 Y115.5088 I2.1472 J1.6329
G1 X221.8541
G3 X224.235 Y116.9382 I0.0 J2.6976
G1 X227.1465 Y122.4041
G1 Y118.2064
G3 X231.9927 Y116.5753 I2.6976 J0.0
G1 X238.5028 Y125.1503
G1 X238.4757 Y118.217
G3 X241.1732 Y115.5088 I2.6976 J-0.0106
G1 X251.1732
G3 X253.8708 Y118.2064 I0.0 J2.6976
G1 Y148.2064
G3 X251.1732 Y150.904 I-2.6976 J0.0
G1 X241.2909
G3 X239.5625 Y150.2776 I0.0 J-2.6976
G3 X237.8341 Y150.904 I-1.7284 J-2.0712
G1 X227.8341
G3 X225.4532 Y149.4747 I0.0 J-2.6976
G1 X212.1196 Y124.4428
G3 X205.9944 Y128.4366 I-5.9766 J-2.4721
G1 X211.9141 Y137.967
G3 X201.7556 Y150.3681 I-7.1939 J4.4684
G1 X184.6463 Y143.974
G3 X176.1423 Y124.7553 I5.1453 J-13.7676
G1 X161.7882 Y133.0426
G3 X161.4528 Y133.2064 I-1.3488 J-2.3362
G1 F300.0 X161.0029 Y132.0966
G3 F800.0 X159.1403 Y131.4564 I-0.5635 J-1.3901
G2 Y134.9564 I-3.0311 J1.75
G3 X161.1894 Y134.4074 I1.299 J0.75
G1 X178.5099 Y144.4074
G3 X179.0589 Y146.4564 I-0.75 J1.299
G3 Y119.9564 I-22.9497 J-13.25
G3 X178.5099 Y122.0055 I-1.299 J0.75
G1 X161.1894 Y132.0055
G3 X161.0029 Y132.0966 I-0.75 J-1.299
G0 Z3.0
G0 X176.3206 Y131.0909
G0 Z0.2
G1 F300.0 Z-0.4
G3 F800.0 X200.9038 Y122.5403 I13.471 J-0.8844
G3 X203.508 Y117.4066 I5.2392 J-0.5696
G3 X211.4131 Y121.9707 I2.635 J4.564
G3 X203.508 Y126.5347 I-5.2701 J0.0
G3 X203.3406 Y126.4339 I2.635 J-4.564
G1 X210.8968 Y138.5989
G3 X202.1748 Y149.2463 I-6.1765 J3.8365
G1 X185.0656 Y142.8522
G3 X176.3206 Y131.0909 I4.726 J-12.6457
G0 Z3.0
G0 X210.444 Y118.7178
G0 Z0.2
G1 F300.0 Z-0.4
G3 F800.0 X211.8541 Y116.7064 I1.4102 J-0.5113
G1 X221.8541
G3 X223.178 Y117.5012 I0.0 J1.5
G1 X228.3441 Y127.1998
G1 Y118.2064
G3 X231.0388 Y117.2994 I1.5 J0.0
G1 X239.7145 Y128.7268
G1 X239.6732 Y118.2123
G3 X241.1732 Y116.7064 I1.5 J-0.0059
G1 X251.1732
G3 X252.6732 Y118.2064 I0.0 J1.5
G1 Y148.2064
G3 X251.1732 Y149.7064 I-1.5 J0.0
G1 X241.2909
G3 X240.0984 Y149.1164 I0.0 J-1.5
G1 X239.3794 Y148.1742
G1 X239.297 Y148.5378
G3 X237.8341 Y149.7064 I-1.4629 J-0.3314
G1 X227.8341
G3 X226.5102 Y148.9116 I0.0 J-1.5
G1 X210.5302 Y118.9116
G3 X210.444 Y118.7178 I1.3239 J-0.7052
G0 Z3.0
G0 X230.3746 Y89.1137
G0 Z0.2
G1 F300.0 Z-0.4
G3 F800.0 X234.033 Y89.4119 I-0.5305 J29.0928
G3 X231.3563 Y86.8213 I18.8583 J-22.1625
G1 X231.06 Y87.5532
G3 X230.3746 Y89.1137 I-26.9742 J-10.9181
G1 F300.0 X230.3527 Y90.3135
G3 F800.0 X235.2472 Y90.8371 I-0.5086 J27.893
G3 X236.2517 Y89.6445 I21.8307 J17.3694
G3 X230.9885 Y84.5317 I16.6395 J-22.395
G1 X229.9477 Y87.103
G3 X228.3839 Y90.3471 I-25.8618 J-10.4679
G3 X230.3527 Y90.3135 I1.4602 J27.8594
G1 F300.0 X230.3308 Y91.5133
G3 F800.0 X235.5087 Y92.1167 I-0.4867 J26.6932
G3 X235.8237 Y92.0503 I5.6646 J26.0897
G3 X238.0707 Y89.4585 I21.2542 J16.1562
G3 X230.6873 Y82.0775 I14.8206 J-22.209
G1 X228.8354 Y86.6528
G3 X226.0779 Y91.7758 I-24.7495 J-10.0176
G3 X230.3308 Y91.5133 I3.7662 J26.4306
G1 F300.0 X230.309 Y92.7131
G3 F800.0 X235.5087 Y93.346 I-0.4648 J25.4934
G3 X236.5084 Y93.1392 I5.6646 J24.8604
G3 X240.0149 Y89.2596 I20.5695 J15.0672
G3 X230.4746 Y79.4045 I12.8764 J-22.0102
G1 X227.723 Y86.2025
G3 X223.8201 Y92.7847 I-23.6371 J-9.5674
G3 X225.8491 Y93.0237 I-1.966 J25.4217
G3 X230.309 Y92.7131 I3.995 J25.1827
G1 F300.0 X230.2871 Y93.9129
G3 F800.0 X235.5087 Y94.5784 I-0.443 J24.2936
G3 X237.1981 Y94.2362 I5.6646 J23.6281
G3 X242.1411 Y89.0422 I19.8798 J13.9702
G3 X231.1567 Y78.1168 I10.7501 J-21.7928
G1 X230.3524 Y76.5081
G1 X226.6107 Y85.7523
G3 X221.1771 Y93.9088 I-22.5248 J-9.1172
G1 X221.8541
G3 X225.8491 Y94.2395 I0.0 J24.2976
G3 X230.2871 Y93.9129 I3.995 J23.9669
G1 F300.0 X230.2652 Y95.1127
G3 F800.0 X235.5087 Y95.8142 I-0.4211 J23.0938
G3 X237.8939 Y95.3428 I5.6646 J22.3922
G3 X244.5603 Y88.7949 I19.184 J12.8636
G3 X232.23 Y77.5801 I8.331 J-21.5454
G1 X230.2372 Y73.5944
G1 X225.4984 Y85.3021
G3 X217.9543 Y95.1088 I-21.4125 J-8.667
G1 X221.8541
G3 X225.8491 Y95.4569 I0.0 J23.0976
G3 X230.2652 Y95.1127 I3.995 J22.7495
G1 F300.0 X230.2433 Y96.3125
G3 F800.0 X235.5087 Y97.0542 I-0.3992 J21.894
G3 X238.5969 Y96.4609 I5.6646 J21.1523
G3 X247.553 Y88.4889 I18.481 J11.7455
G3 X233.3033 Y77.0434 I5.3383 J-21.2394
G1 X230.122 Y70.6807
G1 X224.386 Y84.8518
G3 X213.7064 Y96.3088 I-20.3001 J-8.2167
G1 X221.8541
G3 X225.8491 Y96.6763 I0.0 J21.8976
G3 X230.2433 Y96.3125 I3.995 J21.5301
G0 Z3.0
G0 X273.1708 Y82.7088
G0 Z0.2
G1 F300.0 Z-0.4
G1 F800.0 X276.8416
G3 X274.5024 Y80.7849 I15.0002 J-20.6215
G3 X273.1708 Y82.7088 I-21.6111 J-13.5354
G1 F300.0 Y83.9088
G1 F800.0 X281.0478
G3 X281.1503 Y83.909 I0.0 J38.2976
G3 X274.2455 Y78.8463 I10.6915 J-21.8216
G3 X270.5818 Y83.9088 I-21.3542 J-11.5969
G1 X273.1708
G0 Z3.0
G0 X309.672 Y87.324
G0 Z0.2
G1 F300.0 Z-0.4
G3 F800.0 X310.0368 Y87.3353 I-1.1424 J42.8824
G1 X309.9736 Y87.1082
G3 X309.672 Y87.324 I-18.1319 J-25.0209
G1 F300.0 X309.6561 Y87.9238
G3 F800.0 X310.8366 Y87.9718 I-1.1264 J42.2826
G1 X310.3169 Y86.1032
G3 X308.47 Y87.417 I-18.4751 J-24.0158
G3 X309.0871 Y87.9125 I-27.4221 J34.7894
G3 X309.6561 Y87.9238 I-0.5575 J42.2939
G1 F300.0 X309.6241 Y89.1234
G3 F800.0 X312.4752 Y89.2987 I-1.0944 J41.083
G3 X312.1421 Y88.1874 I27.7026 J-8.9093
G1 X310.9798 Y84.0087
G3 X306.346 Y87.3151 I-19.1381 J-21.9213
G3 X308.6515 Y89.109 I-25.2981 J34.8914
G3 X309.6241 Y89.1234 I-0.1218 J41.0974
G1 F300.0 X309.5921 Y90.323
G3 F800.0 X314.262 Y90.7228 I-1.0625 J39.8835
G3 X313.2982 Y87.8658 I25.9158 J-10.3334
G1 X311.6055 Y81.7801
G3 X304.0385 Y87.1802 I-19.7638 J-19.6927
G3 X308.2146 Y90.3101 I-22.9907 J35.0263
G3 X309.5921 Y90.323 I0.3151 J39.8964
G1 F300.0 X309.5602 Y91.5226
G3 F800.0 X316.2779 Y92.2925 I-1.0305 J38.6839
G3 X314.4543 Y87.5443 I23.8999 J-11.9031
G1 X312.1839 Y79.3815
G3 X301.4567 Y86.996 I-20.3422 J-17.2941
G3 X307.7761 Y91.5162 I-20.4089 J35.2104
G3 X309.5602 Y91.5226 I0.7535 J38.6903
G1 F300.0 X309.5282 Y92.7221
G3 F800.0 X317.2076 Y93.7268 I-0.9986 J37.4843
G3 X318.2806 Y93.4569 I7.6735 J28.2439
G3 X315.6105 Y87.2227 I21.8972 J-13.0676
G1 X312.6995 Y76.7572
G3 X298.4066 Y86.7278 I-20.8578 J-14.6698
G3 X307.3361 Y92.7278 I-17.3588 J35.4786
G3 X309.5282 Y92.7221 I1.1936 J37.4786
G1 F300.0 X309.4963 Y93.9217
G3 F800.0 X317.228 Y94.9665 I-0.9666 J36.2847
G3 X320.2453 Y94.2884 I7.6531 J27.0042
G3 X316.7666 Y86.9011 I19.9325 J-13.8991
G1 X313.1259 Y73.8122
G3 X294.2743 Y86.2653 I-21.2842 J-11.7249
G3 X306.8942 Y93.9457 I-13.2265 J35.9411
G3 X309.4963 Y93.9217 I1.6354 J36.2607
G1 F300.0 X309.4643 Y95.1213
G3 F800.0 X317.2501 Y96.2094 I-0.9346 J35.0852
G3 X322.4608 Y95.2122 I7.631 J25.7612
G3 X317.9227 Y86.5796 I17.7171 J-14.8228
G1 X313.4886 Y70.638
G1 X312.128 Y73.1362
G3 X273.963 Y76.7148 I-20.2863 J-11.0488
G3 X267.5423 Y85.1088 I-21.0717 J-9.4653
G1 X281.0478
G3 X306.4504 Y95.1705 I0.0 J37.0976
G3 X309.4643 Y95.1213 I2.0793 J35.036
G1 F300.0 X309.4324 Y96.3209
G3 F800.0 X317.274 Y97.4561 I-0.9027 J33.8856
G3 X325.1336 Y96.3042 I7.607 J24.5145
G3 X319.0788 Y86.258 I15.0442 J-15.9148
G1 X313.8512 Y67.4635
G1 X311.0742 Y72.5622
G3 X273.638 Y74.2625 I-19.2325 J-10.4748
G3 X263.6779 Y86.3088 I-20.7467 J-7.0131
G1 X281.0478
G3 X306.0042 Y96.403 I0.0 J35.8976
G3 X309.4324 Y96.3209 I2.5254 J33.8034
G1 F300.0 X309.4004 Y97.5204
G3 F800.0 X317.3001 Y98.707 I-0.8707 J32.686
G3 X327.8794 Y97.6874 I7.581 J23.2636
G3 X328.6733 Y97.598 I2.7128 J20.5191
G3 X320.2349 Y85.9364 I11.5045 J-17.2086
G1 X314.2137 Y64.2889
G1 X310.0204 Y71.9882
G3 X273.2368 Y71.1618 I-18.1786 J-9.9009
G1 X273.0368 Y72.0083
G3 X257.1396 Y87.5088 I-20.1456 J-4.7588
G1 X281.0478
G3 X305.5555 Y97.6444 I0.0 J34.6976
G3 X309.4004 Y97.5204 I2.9741 J32.5621
G0 Z3.0
G0 X360.7617 Y93.9088
G0 Z0.2
G1 F300.0 Z-0.4
G1 F800.0 X361.3467
G3 X361.1248 Y93.5144 I21.0665 J-12.1116
G1 X360.7617 Y93.9088
G1 F300.0 X359.8789 Y93.096
G1 F800.0 X357.9486 Y95.1924
G3 X359.9113 Y95.1088 I1.9627 J23.0141
G1 X363.5344
G3 X361.416 Y91.4266 I18.8789 J-13.3116
G1 X359.8789 Y93.096
G1 F300.0 X358.9961 Y92.2831
G1 F800.0 X356.2884 Y95.2238
G3 X354.4488 Y97.0011 I-16.1105 J-14.8344
G3 X359.9113 Y96.3088 I5.4625 J21.2053
G1 X366.0113
G3 X361.8116 Y89.2255 I16.4019 J-14.5116
G1 X358.9961 Y92.2831
G1 F300.0 X358.1134 Y91.4703
G1 F800.0 X355.4056 Y94.411
G3 X351.5037 Y97.7161 I-15.2278 J-14.0216
G3 X354.2467 Y98.2991 I-2.9216 J20.4904
G3 X359.9113 Y97.5088 I5.6646 J19.9074
G1 X368.936
G3 X362.3455 Y86.8741 I13.4772 J-15.7116
G1 X358.1134 Y91.4703
G1 F300.0 X357.2306 Y90.6574
G1 F800.0 X354.5228 Y93.5981
G3 X346.5658 Y98.8134 I-14.345 J-13.2088
G3 X354.2467 Y99.5498 I2.0164 J19.3931
G3 X359.9113 Y98.7088 I5.6646 J18.6566
G1 X369.9113
G3 X373.2131 Y98.9904 I0.0 J19.4976
G3 X363.0758 Y84.3095 I9.2002 J-17.1932
G1 X357.2306 Y90.6574
G0 Z3.0
G0 X388.6423 Y104.6918
G0 Z0.2
G1 F300.0 Z-0.4
G3 F800.0 X390.1333 Y107.0455 I-18.7311 J13.5147
G1 X393.2801 Y104.5281
G1 X388.6423 Y104.6918
G1 F300.0 X388.6 Y103.4925
G1 F800.0 X386.205 Y103.577
G3 X389.7338 Y108.9019 I-16.2937 J14.6294
G1 X396.8599 Y103.201
G1 X388.6 Y103.4925
G1 F300.0 X388.5577 Y102.2933
G1 F800.0 X383.3635 Y102.4766
G3 X389.2486 Y110.8268 I-13.4522 J15.7299
G1 X400.4397 Y101.8739
G1 X388.5577 Y102.2933
G1 F300.0 X388.5154 Y101.094
G1 F800.0 X383.1011 Y101.2851
G3 X379.1107 Y101.0155 I-0.6878 J-19.4879
G3 X388.6568 Y112.8435 I-9.1994 J17.1909
G3 X389.003 Y112.56 I12.5277 J14.9434
G1 X404.0195 Y100.5468
G1 X388.5154 Y101.094
G0 Z3.0
G0 X390.6089 Y147.3837
G0 Z0.2
G1 F300.0 Z-0.4
G1 F800.0 Y148.2064
G3 X390.6087 Y148.2888 I-20.6976 J0.0
G3 X391.6521 Y148.6264 I-5.849 J19.8565
G1 X390.6089 Y147.3837
G1 F300.0 X389.4089
G1 F800.0 Y148.2064
G3 X389.3835 Y149.2013 I-19.4976 J0.0
G3 X392.6794 Y150.3259 I-4.6238 J18.9439
G1 X395.8159 Y151.7199
G1 X389.4089 Y144.088
G1 Y147.3837
G1 F300.0 X388.2089
G1 F800.0 Y148.2064
G3 X388.105 Y150.1536 I-18.2976 J0.0
G3 X392.192 Y151.4225 I-3.3453 J17.9916
G1 X400.0738 Y154.9255
G1 X388.2089 Y140.7922
G1 Y147.3837
G1 F300.0 X387.0089
G1 F800.0 Y148.2064
G3 X386.7516 Y151.1616 I-17.0976 J0.0
G3 X391.7046 Y152.519 I-1.9919 J16.9836
G1 X404.3318 Y158.1311
G1 X388.0878 Y138.7817
G3 X387.0089 Y137.3504 I13.0967 J-10.9948
G1 Y147.3837
G1 F300.0 X385.8089
G1 F800.0 Y148.2064
G3 X385.285 Y152.2539 I-15.8976 J0.0
G3 X391.2173 Y153.6156 I-0.5253 J15.8913
G1 X408.5897 Y161.3367
G1 X389.0069 Y138.0101
G3 X385.8089 Y131.8364 I12.1777 J-10.2232
G1 Y147.3837
G0 Z3.0
G0 X361.8767 Y171.304
G0 Z0.2
G1 F300.0 Z-0.4
G1 F800.0 X361.7363
G1 X361.8949 Y171.433
G3 X361.8767 Y171.304 I22.8648 J-3.2878
G1 F300.0 Y170.104
G1 F800.0 X360.0289
G3 X358.3005 Y170.0357 I0.0 J-21.8976
G3 X358.278 Y170.0375 I-1.7284 J-21.8293
G1 X363.6093 Y174.3748
G1 X363.1762 Y171.8549
G3 X362.9475 Y170.104 I21.5835 J-3.7097
G1 X361.8767
G1 F300.0 Y168.904
G1 F800.0 X360.0289
G3 X358.3005 Y168.8317 I0.0 J-20.6976
G3 X356.5721 Y168.904 I-1.7284 J-20.6253
G1 X354.9833
G1 X365.3339 Y177.3248
G1 X364.3588 Y171.6516
G3 X364.0736 Y168.904 I20.4009 J-3.5064
G1 X361.8767
G1 F300.0 Y167.704
G1 F800.0 X360.0289
G3 X358.3005 Y167.6273 I0.0 J-19.4976
G3 X356.5721 Y167.704 I-1.7284 J-19.4208
G1 X351.5952
G3 X352.0148 Y168.0359 I-11.8867 J15.4582
G1 X367.0585 Y180.2749
G1 X365.5415 Y171.4483
G3 X365.2647 Y167.704 I19.2182 J-3.3031
G1 X361.8767
G1 F300.0 Y166.504
G1 F800.0 X360.0289
G3 X358.3005 Y166.4222 I0.0 J-18.2976
G3 X356.5721 Y166.504 I-1.7284 J-18.2158
G1 X347.2844
G3 X351.2575 Y168.9667 I-7.5759 J16.6582
G1 X368.7832 Y183.2249
G1 X366.7241 Y171.2451
G3 X366.5334 Y166.504 I18.0355 J-3.0999
G1 X361.8767
G0 Z3.0
G0 X314.7373 Y173.7109
G0 Z0.2
G1 F300.0 Z-0.4
G3 F800.0 X312.0918 Y172.8495 I8.721 J-31.2755
G1 X309.7782 Y171.9848
G3 X314.1946 Y175.2928 I-13.7129 J22.9095
G3 X314.7373 Y173.7109 I25.514 J7.8694
G1 F300.0 X315.0596 Y172.555
G3 F800.0 X312.5119 Y171.7254 I8.3987 J-30.1196
G1 X306.1667 Y169.354
G3 X304.8274 Y170.947 I-29.7446 J-23.6476
G3 X314.8191 Y177.6158 I-8.7622 J23.9473
G3 X316.3692 Y172.8898 I24.8895 J5.5464
G3 X315.0596 Y172.555 I7.0891 J-30.4545
G1 F300.0 X315.382 Y171.3991
G3 F800.0 X312.932 Y170.6013 I8.0763 J-28.9637
G1 X305.7599 Y167.9209
G3 X302.6619 Y171.5068 I-29.3379 J-22.2145
G3 X314.1916 Y178.7101 I-6.5967 J23.3875
G1 X315.5816 Y180.267
G3 X318.1112 Y172.0248 I24.1269 J2.8952
G3 X315.382 Y171.3991 I5.3471 J-29.5894
G1 F300.0 X315.7043 Y170.2432
G3 F800.0 X313.3521 Y169.4773 I7.754 J-27.8078
G1 X305.3319 Y166.4799
G3 X300.2304 Y172.1729 I-28.9098 J-20.7735
G3 X313.2964 Y179.5094 I-4.1652 J22.7214
G1 X316.6086 Y183.219
G3 X320.0096 Y171.0973 I23.0999 J-0.0567
G3 X315.7043 Y170.2432 I3.4487 J-28.6619
G1 F300.0 X316.0266 Y169.0873
G3 F800.0 X313.7722 Y168.3532 I7.4317 J-26.6519
G1 X304.8809 Y165.0303
G3 X297.32 Y173.0303 I-28.4588 J-19.3239
G3 X312.4013 Y180.3086 I-1.2547 J21.864
G1 X317.9518 Y186.5251
G1 X317.8371 Y184.2798
G3 X322.1505 Y170.0731 I21.8715 J-1.1175
G3 X316.0266 Y169.0873 I1.3078 J-27.6377
G1 F300.0 X316.3489 Y167.9314
G3 F800.0 X314.1922 Y167.2291 I7.1094 J-25.496
G1 X304.4049 Y163.5714
G3 X293.111 Y174.4062 I-27.9829 J-17.8649
G3 X311.5062 Y181.1078 I2.9543 J20.4881
G1 X319.324 Y189.8637
G1 X319.0355 Y184.2185
G3 X324.7313 Y168.8734 I20.673 J-1.0563
G3 X316.3489 Y167.9314 I-1.273 J-26.438
G0 Z3.0
G0 X284.0938 Y178.0072
G0 Z0.2
G1 F300.0 Z-0.4
G3 F800.0 X278.6895 Y178.8283 I-7.6717 J-32.3008
G1 X280.0336 Y181.7995
G3 X284.0938 Y178.0072 I16.0317 J13.0948
G1 F300.0 X283.8165 Y176.8397
G3 F800.0 X276.8632 Y177.7028 I-7.3944 J-31.1333
G1 X279.7849 Y184.1612
G3 X310.6111 Y181.907 I16.2804 J10.7331
G1 X320.6961 Y193.2023
G1 X320.234 Y184.1573
G3 X328.5192 Y167.192 I19.4746 J-0.9951
G3 X314.6123 Y166.1051 I-5.0609 J-24.7567
G1 X303.9018 Y162.1023
G3 X283.8165 Y176.8397 I-27.4797 J-16.3958
G1 F300.0 X283.5392 Y175.6722
G3 F800.0 X276.092 Y176.504 I-7.1171 J-29.9658
G1 X274.9233
G3 X275.6652 Y177.966 I-15.9313 J9.0046
G1 X279.6573 Y186.7907
G3 X309.7159 Y182.7062 I16.4079 J8.1037
G1 X322.0683 Y196.5408
G1 X321.4324 Y184.0961
G3 X339.025 Y164.875 I18.2762 J-0.9338
G3 X335.8769 Y163.0528 I7.5472 J-16.6686
G3 X315.0324 Y164.981 I-12.4186 J-20.6174
G1 X303.3688 Y160.622
G3 X283.5392 Y175.6722 I-26.9467 J-14.9156
G1 F300.0 X283.2619 Y174.5047
G3 F800.0 X276.0985 Y175.304 I-6.8398 J-28.7982
G1 X272.7133
G3 X274.5719 Y178.4606 I-13.7213 J10.2046
G1 X279.7254 Y189.8526
G3 X308.8208 Y183.5055 I16.3399 J5.0417
G1 X323.4404 Y199.8794
G1 X322.6308 Y184.0348
G3 X350.5001 Y169.8976 I17.0777 J-0.8726
G1 X370.5078 Y186.175
G1 X367.9068 Y171.0418
G3 X367.8974 Y165.304 I16.8529 J-2.8966
G1 X360.0289
G3 X358.3005 Y165.2164 I0.0 J-17.0976
G3 X356.5721 Y165.304 I-1.7284 J-17.01
G1 X346.5721
G3 X335.9408 Y161.5969 I0.0 J-17.0976
G3 X315.4525 Y163.8569 I-12.4825 J-19.1615
G1 X302.8028 Y159.1294
G3 X283.2619 Y174.5047 I-26.3808 J-13.423
G1 F300.0 X282.9846 Y173.3372
G3 F800.0 X276.1051 Y174.104 I-6.5626 J-27.6307
G1 X270.071
G3 X273.4786 Y178.9552 I-11.079 J11.4046
G1 X280.0977 Y193.5871
G1 X280.497 Y191.6632
G3 X307.9257 Y184.3047 I15.5682 J3.2311
G1 X324.8126 Y203.218
G1 X323.8293 Y183.9736
G3 X349.7428 Y170.8284 I15.8793 J-0.8114
G1 X372.2324 Y189.1251
G1 X369.0895 Y170.8385
G3 X369.3818 Y164.104 I15.6702 J-2.6933
G1 X360.0289
G3 X358.3005 Y164.0098 I0.0 J-15.8976
G3 X356.5721 Y164.104 I-1.7284 J-15.8034
G1 X346.5721
G3 X336.0165 Y160.0939 I0.0 J-15.8976
G3 X315.8726 Y162.7329 I-12.5582 J-17.6585
G1 X302.2002 Y157.6232
G3 X282.9846 Y173.3372 I-25.7782 J-11.9167
G1 F300.0 X282.7073 Y172.1696
G3 F800.0 X276.1119 Y172.904 I-6.2853 J-26.4632
G1 X266.5559
G3 X272.3852 Y179.4498 I-7.5639 J12.6046
G1 X280.5237 Y197.44
G1 X281.672 Y191.907
G3 X307.0306 Y185.1039 I14.3933 J2.9873
G1 X326.1847 Y206.5565
G1 X325.0277 Y183.9124
G3 X348.9855 Y171.7593 I14.6808 J-0.7501
G1 X373.9571 Y192.0751
G1 X370.2721 Y170.6353
G3 X371.0425 Y162.8604 I14.4876 J-2.4901
G3 X369.9113 Y162.904 I-1.1312 J-14.654
G1 X360.0289
G3 X358.3005 Y162.8021 I0.0 J-14.6976
G3 X356.5721 Y162.904 I-1.7284 J-14.5956
G1 X346.5721
G3 X336.108 Y158.5273 I0.0 J-14.6976
G3 X316.2927 Y161.6088 I-12.6497 J-16.092
G1 X301.5566 Y156.1016
G3 X282.7073 Y172.1696 I-25.1346 J-10.3951
G0 Z3.0
G0 X238.005 Y173.2596
G0 Z0.2
G1 F300.0 Z-0.4
G3 F800.0 X237.4322 Y172.504 I19.0729 J-15.0532
G1 X235.8481
G3 X237.6216 Y173.9417 I-14.3988 J19.5746
G3 X238.005 Y173.2596 I21.3704 J11.567
G1 F300.0 X238.947 Y172.5162
G3 F800.0 X238.0521 Y171.303 I18.1309 J-14.3098
G3 X237.8341 Y171.304 I-0.2181 J-23.0966
G1 X231.5502
G3 X237.9701 Y175.9332 I-10.1008 J20.7746
G3 X239.4716 Y173.1569 I21.0219 J9.5755
G3 X238.947 Y172.5162 I17.6063 J-14.9505
G0 Z3.0
G0 X203.7828 Y173.69
G0 Z0.2
G1 F300.0 Z-0.4
G3 F800.0 X201.0062 Y173.4827 I0.9375 J-31.2546
G3 X201.9719 Y175.6202 I-22.7309 J11.5567
G3 X203.7828 Y173.69 I19.4774 J16.4585
G1 F300.0 X204.6141 Y174.5553
G3 F800.0 X207.1897 Y172.4025 I16.8352 J17.5233
G3 X198.7156 Y171.8984 I-2.4694 J-29.9671
G3 X201.5661 Y178.1091 I-20.4402 J13.141
G3 X204.6141 Y174.5553 I19.8832 J13.9695
G1 F300.0 X205.4455 Y175.4207
G3 F800.0 X218.2157 Y169.2061 I16.0038 J16.658
G3 X216.9567 Y168.5824 I9.6184 J-20.9996
G3 X195.6813 Y169.8525 I-12.2364 J-26.1471
G3 X200.7239 Y179.5923 I-17.406 J15.1869
G1 X201.1007 Y181.1451
G3 X205.4455 Y175.4207 I20.3486 J10.9336
G1 F300.0 X206.2769 Y176.286
G3 F800.0 X238.3604 Y178.1637 I15.1725 J15.7926
G3 X240.9802 Y173.0513 I20.6315 J7.345
G3 X238.6838 Y170.0875 I16.0977 J-14.8448
G3 X237.8341 Y170.104 I-0.8497 J-21.8811
G1 X227.8341
G3 X216.9941 Y167.2327 I0.0 J-21.8976
G3 X195.0341 Y168.3532 I-12.2738 J-24.7973
G1 X189.7176 Y166.3663
G3 X199.5578 Y179.8753 I-11.4422 J18.6731
G1 X200.7132 Y184.637
G1 X201.7648 Y182.4804
G3 X206.2769 Y176.286 I19.6846 J9.5983
G1 F300.0 X207.1083 Y177.1514
G3 F800.0 X238.8194 Y180.8194 I14.3411 J14.9273
G1 X238.9882 Y180.1851
G3 X242.5431 Y172.9418 I20.0037 J5.3236
G3 X239.3268 Y168.8501 I14.5348 J-14.7354
G3 X237.8341 Y168.904 I-1.4927 J-20.6437
G1 X227.8341
G3 X217.0362 Y165.8642 I0.0 J-20.6976
G3 X195.4542 Y167.2291 I-12.3159 J-23.4288
G1 X189.0809 Y164.8473
G3 X187.4359 Y166.4767 I-32.9716 J-31.6408
G3 X198.3916 Y180.1582 I-9.1606 J18.5627
G1 X200.3323 Y188.1561
G1 X202.8434 Y183.0063
G3 X207.1083 Y177.1514 I18.606 J9.0723
G1 F300.0 X207.9396 Y178.0167
G3 F800.0 X239.2082 Y184.0243 I13.5097 J14.0619
G1 X240.1479 Y180.4937
G3 X244.1787 Y172.8272 I18.8441 J5.015
G3 X240.0271 Y167.663 I12.8992 J-14.6208
G3 X239.5625 Y167.6273 I1.2638 J-19.4566
G3 X237.8341 Y167.704 I-1.7284 J-19.4208
G1 X227.8341
G3 X217.084 Y164.4727 I0.0 J-19.4976
G3 X195.8743 Y166.1051 I-12.3637 J-22.0373
G1 X188.7545 Y163.4442
G3 X185.2542 Y166.831 I-32.6453 J-30.2378
G3 X197.2255 Y180.4412 I-6.9788 J18.2084
G1 X199.9514 Y191.6753
G1 X203.922 Y183.5322
G3 X207.9396 Y178.0167 I17.5274 J8.5464
G1 F300.0 X208.771 Y178.8821
G3 F800.0 X238.2776 Y184.8884 I12.6784 J13.1966
G1 X239.4745 Y187.6897
G1 X241.3075 Y180.8023
G3 X245.9164 Y172.7055 I17.6845 J4.7063
G3 X240.766 Y166.4965 I11.1615 J-14.4991
G3 X239.5625 Y166.4222 I0.5249 J-18.2901
G3 X237.8341 Y166.504 I-1.7284 J-18.2158
G1 X227.8341
G3 X217.1389 Y163.0528 I0.0 J-18.2976
G3 X196.2944 Y164.981 I-12.4186 J-20.6174
G1 X188.4134 Y162.0357
G3 X182.7915 Y167.3054 I-32.3041 J-28.8292
G3 X196.0593 Y180.7242 I-4.5161 J17.734
G1 X199.5705 Y195.1945
G1 X205.0006 Y184.0582
G3 X208.771 Y178.8821 I16.4488 J8.0205
G1 F300.0 X209.6024 Y179.7474
G3 F800.0 X237.1741 Y185.3599 I11.847 J12.3312
G1 X239.7389 Y191.3625
G1 X242.4671 Y181.1109
G3 X247.8081 Y172.573 I16.5248 J4.3977
G3 X241.5231 Y165.304 I9.2698 J-14.3666
G1 X241.2909
G3 X239.5625 Y165.2164 I0.0 J-17.0976
G3 X237.8341 Y165.304 I-1.7284 J-17.01
G1 X227.8341
G3 X217.2028 Y161.5969 I0.0 J-17.0976
G3 X196.7145 Y163.8569 I-12.4825 J-19.1615
G1 X188.0566 Y160.6213
G3 X179.7971 Y168.0072 I-31.9474 J-27.4148
G3 X194.8931 Y181.0071 I-1.5217 J17.0322
G1 X199.1896 Y198.7136
G1 X206.0792 Y184.5841
G3 X209.6024 Y179.7474 I15.3702 J7.4945
G1 F300.0 X210.4337 Y180.6128
G3 F800.0 X236.0706 Y185.8314 I11.0156 J11.4659
G1 X240.0032 Y195.0353
G1 X243.6268 Y181.4195
G3 X249.9613 Y172.4222 I15.3652 J4.0891
G3 X242.3147 Y164.104 I7.1166 J-14.2157
G1 X241.2909
G3 X239.5625 Y164.0098 I0.0 J-15.8976
G3 X237.8341 Y164.104 I-1.7284 J-15.8034
G1 X227.8341
G3 X217.2784 Y160.0939 I0.0 J-15.8976
G3 X197.1346 Y162.7329 I-12.5582 J-17.6585
G1 X187.6832 Y159.2007
G3 X174.9979 Y169.4808 I-31.574 J-25.9942
G3 X193.727 Y181.2901 I3.2775 J15.5585
G1 X198.8087 Y202.2328
G1 X207.1578 Y185.11
G3 X210.4337 Y180.6128 I14.2916 J6.9686
G0 Z3.0
G0 X162.3253 Y176.0555
G0 Z0.2
G1 F300.0 Z-0.4
G3 F800.0 X161.6998 Y176.1416 I-6.2161 J-42.8491
G3 X161.7859 Y176.9579 I-18.1513 J2.3278
G1 X162.3253 Y176.0555
G1 F300.0 X163.3553 Y176.6712
G1 F800.0 X163.5978 Y176.2656
G3 X164.909 Y174.3741 I14.6776 J8.7737
G3 X160.3119 Y175.0937 I-8.7997 J-41.1676
G3 X160.4038 Y181.3514 I-16.7635 J3.3757
G1 X160.3422 Y181.7119
G1 X163.3553 Y176.6712
G1 F300.0 X164.3853 Y177.2869
G1 F800.0 X164.6278 Y176.8813
G3 X169.2897 Y171.9219 I13.6476 J8.158
G3 X158.8116 Y174.0147 I-13.1804 J-38.7155
G3 X159.221 Y181.1492 I-15.2632 J4.4548
G1 X158.0769 Y187.8402
G1 X164.3853 Y177.2869
G1 F300.0 X165.4154 Y177.9026
G1 F800.0 X165.6578 Y177.497
G3 X192.5608 Y181.5731 I12.6176 J7.5423
G1 X198.4278 Y205.752
G1 X208.2364 Y185.636
G3 X234.9671 Y186.3028 I13.2129 J6.4427
G1 X240.2675 Y198.7081
G1 X244.7864 Y181.7282
G3 X252.6827 Y172.2315 I14.2056 J3.7805
G3 X243.1512 Y162.904 I4.3952 J-14.025
G1 X241.2909
G3 X239.5625 Y162.8021 I0.0 J-14.6976
G3 X237.8341 Y162.904 I-1.7284 J-14.5956
G1 X227.8341
G3 X217.3699 Y158.5273 I0.0 J-14.6976
G3 X197.5546 Y161.6088 I-12.6497 J-16.092
G1 X187.292 Y157.7734
G3 X157.1486 Y172.8904 I-31.1828 J-24.567
G3 X158.0382 Y180.947 I-13.6002 J5.579
G1 X155.8117 Y193.9686
G1 X165.4154 Y177.9026
G1 F300.0 X166.4454 Y178.5183
G1 F800.0 X166.6878 Y178.1127
G3 X191.3947 Y181.856 I11.5876 J6.9266
G1 X198.0469 Y209.2711
G1 X209.315 Y186.1619
G3 X233.8636 Y186.7743 I12.1343 J5.9167
G1 X240.5319 Y202.3809
G1 X245.946 Y182.0368
G3 X271.2919 Y179.9444 I13.0459 J3.4719
G1 X280.9496 Y201.2929
G1 X282.847 Y192.1509
G3 X306.1354 Y185.9031 I13.2183 J2.7434
G1 X327.5569 Y209.8951
G1 X326.2261 Y183.8511
G3 X348.2282 Y172.6902 I13.4824 J-0.6889
G1 X375.6817 Y195.0252
G1 X371.4548 Y170.432
G3 X373.1128 Y161.3189 I13.3049 J-2.2868
G3 X369.9113 Y161.704 I-3.2015 J-13.1124
G1 X360.0289
G3 X358.3005 Y161.5929 I0.0 J-13.4976
G3 X356.5721 Y161.704 I-1.7284 J-13.3865
G1 X346.5721
G3 X336.2221 Y156.8703 I0.0 J-13.4976
G3 X316.7128 Y160.4847 I-12.7638 J-14.4349
G1 X300.8666 Y154.5626
G3 X276.1188 Y171.704 I-24.4445 J-8.8562
G1 X257.0779
G3 X244.0413 Y161.704 I0.0 J-13.4976
G1 X241.2909
G3 X239.5625 Y161.5929 I0.0 J-13.4976
G3 X237.8341 Y161.704 I-1.7284 J-13.3865
G1 X227.8341
G3 X217.4841 Y156.8703 I0.0 J-13.4976
G3 X197.9747 Y160.4847 I-12.7638 J-14.4349
G1 X186.8818 Y156.339
G3 X155.225 Y171.6939 I-30.7725 J-23.1326
G3 X156.8553 Y180.7447 I-11.6766 J6.7756
G1 X153.5464 Y200.097
G1 X166.4454 Y178.5183
G0 Z3.0
G0 X172.1947 Y135.2215
G0 Z0.2
G1 F300.0 Z-0.4
G3 F800.0 X171.5446 Y131.5666 I17.5969 J-5.0151
G1 X168.7044 Y133.2064
G1 X172.1947 Y135.2215
G1 F300.0 X171.5947 Y136.2608
G1 F800.0 X174.5595 Y137.9725
G3 X172.7082 Y129.5092 I15.2321 J-7.7661
G1 X166.3044 Y133.2064
G1 X171.5947 Y136.2608
G1 F300.0 X170.9947 Y137.3
G1 F800.0 X179.1237 Y141.9933
G3 X174.1652 Y127.2824 I10.6679 J-11.7869
G1 X163.9044 Y133.2064
G1 X170.9947 Y137.3
G0 Z3.0
G0 X177.3462 Y84.7591
G0 Z0.2
G1 F300.0 Z-0.4
G1 F800.0 X177.2165 Y84.4065
G3 X177.0643 Y84.6365 I-23.3438 J-15.2799
G3 X177.3462 Y84.7591 I-20.9551 J48.57
G1 F300.0 X176.8645 Y85.8581
G3 F800.0 X179.53 Y87.1184 I-20.7552 J47.3483
G3 X179.0292 Y85.8574 I24.5559 J-10.4833
G1 X177.4695 Y81.6198
G3 X175.2157 Y85.1691 I-23.5968 J-12.4932
G3 X176.8645 Y85.8581 I-19.1065 J48.0373
G1 F300.0 X176.3827 Y86.9572
G3 F800.0 X182.4421 Y90.1183 I-20.2734 J46.2493
G3 X180.1553 Y85.4429 I21.6438 J-13.4832
G1 X177.5975 Y78.4933
G1 X177.3674 Y79.0385
G3 X173.2473 Y85.706 I-23.4948 J-9.9119
G3 X176.3827 Y86.9572 I-17.138 J47.5005
G1 F300.0 X175.9009 Y88.0562
G3 F800.0 X186.1186 Y94.0952 I-19.7917 J45.1502
G3 X187.0966 Y94.009 I3.673 J36.1113
G3 X181.2815 Y85.0284 I16.9893 J-17.3739
G1 X177.6735 Y75.2257
G1 X176.2618 Y78.572
G3 X171.116 Y86.2485 I-22.3891 J-9.4454
G3 X175.9009 Y88.0562 I-15.0067 J46.958
G1 F300.0 X175.4192 Y89.1553
G3 F800.0 X185.7664 Y95.3404 I-19.3099 J44.0512
G3 X190.221 Y95.1115 I4.0253 J34.866
G3 X182.4076 Y84.6139 I13.8649 J-18.4763
G1 X177.7496 Y71.9582
G1 X175.1562 Y78.1056
G3 X168.7484 Y86.7992 I-21.2835 J-8.979
G3 X175.4192 Y89.1553 I-12.6392 J46.4072
G1 F300.0 X174.9374 Y90.2543
G3 F800.0 X185.4147 Y96.5926 I-18.8281 J42.9521
G3 X195.5436 Y96.8004 I4.3769 J33.6138
G3 X183.5337 Y84.1995 I8.5423 J-20.1653
G1 X177.8257 Y68.6907
G1 X174.0505 Y77.6391
G3 X165.9983 Y87.3633 I-20.1779 J-8.5125
G3 X174.9374 Y90.2543 I-9.8891 J45.8431
G1 F300.0 X174.4556 Y91.3533
G3 F800.0 X185.0638 Y97.8524 I-18.3464 J41.8531
G3 X198.562 Y98.707 I4.7278 J32.354
G3 X209.1414 Y97.6874 I7.581 J23.2636
G3 X211.8541 Y97.5088 I2.7128 J20.5191
G1 X221.8541
G3 X225.8491 Y97.898 I0.0 J20.6976
G3 X235.5087 Y98.2991 I3.995 J20.3084
G3 X239.3087 Y97.593 I5.6646 J19.9074
G3 X252.8303 Y87.9494 I17.7692 J10.6134
G3 X234.3766 Y76.5068 I0.061 J-20.6999
G1 X230.0067 Y67.767
G1 X223.2737 Y84.4016
G3 X184.6599 Y83.785 I-19.1878 J-7.7665
G1 X177.9017 Y65.4232
G1 X172.9449 Y77.1727
G3 X162.4752 Y87.9544 I-19.0722 J-8.0461
G3 X174.4556 Y91.3533 I-6.3659 J45.252
G0 Z3.0
G0 X140.2652 Y87.7934
G0 Z0.2
G1 F300.0 Z-0.4
G3 F800.0 X139.0557 Y86.8486 I13.6074 J-18.6668
G3 X137.0517 Y89.0455 I-18.0328 J-14.437
G3 X140.2652 Y87.7934 I19.0576 J44.1609
G0 Z3.0
G0 X120.0139 Y97.8916
G0 Z0.2
G1 F300.0 Z-0.4
G3 F800.0 X119.1876 Y97.8454 I1.0089 J-25.48
G3 X119.0658 Y98.8875 I-25.3831 J-2.439
G3 X120.0139 Y97.8916 I37.0435 J34.3189
G1 F300.0 X120.8717 Y98.7308
G3 F800.0 X123.0621 Y96.6259 I35.2375 J34.4756
G3 X118.0784 Y96.5325 I-2.0392 J-24.2143
G3 X116.6717 Y103.6271 I-24.2739 J-1.1261
G3 X120.8717 Y98.7308 I39.4375 J29.5793
G1 F300.0 X121.7294 Y99.57
G3 F800.0 X127.4064 Y94.612 I34.3798 J33.6364
G3 X116.903 Y95.1412 I-6.3836 J-22.2005
G3 X110.038 Y111.8406 I-23.0985 J0.2652
G3 X112.0332 Y113.9534 I-15.7642 J16.8849
G3 X121.7294 Y99.57 I44.0761 J19.253
G1 F300.0 X122.5872 Y100.4092
G3 F800.0 X143.048 Y88.1644 I33.522 J32.7972
G3 X138.8798 Y85.0899 I10.8247 J-19.0378
G3 X115.633 Y93.6379 I-17.857 J-12.6783
G3 X108.2509 Y111.8658 I-21.8285 J1.7685
G3 X112.3444 Y116.3536 I-13.9771 J16.8597
G3 X122.5872 Y100.4092 I43.7649 J16.8529
G1 F300.0 X123.445 Y101.2484
G3 F800.0 X146.6038 Y88.5084 I32.6643 J31.958
G3 X138.6906 Y83.1977 I7.2689 J-19.3818
G3 X114.2156 Y91.9603 I-17.6678 J-10.7861
G3 X106.3218 Y111.893 I-20.4111 J3.4462
G3 X112.6267 Y119.1516 I-12.0481 J16.8325
G3 X123.445 Y101.2484 I43.4825 J14.0549
G1 F300.0 X124.3027 Y102.0876
G3 F800.0 X184.7136 Y99.1209 I31.8065 J31.1188
G3 X198.5905 Y99.9628 I5.078 J31.0856
G3 X209.1469 Y98.8977 I7.5524 J22.0079
G3 X211.8541 Y98.7088 I2.7072 J19.3087
G1 X221.8541
G3 X225.8491 Y99.1225 I0.0 J19.4976
G3 X235.5087 Y99.5498 I3.995 J19.0839
G3 X240.0313 Y98.7423 I5.6646 J18.6566
G3 X257.0779 Y88.7088 I17.0466 J9.4641
G1 X281.0478
G3 X305.104 Y98.8957 I0.0 J33.4976
G3 X317.3286 Y99.9628 I3.4257 J31.3108
G3 X327.885 Y98.8977 I7.5524 J22.0079
G3 X330.5922 Y98.7088 I2.7072 J19.3087
G1 X333.496
G3 X321.391 Y85.6149 I6.6819 J-18.3195
G1 X314.5763 Y61.1143
G1 X308.9665 Y71.4143
G3 X274.1053 Y70.1911 I-17.1248 J-9.3269
G1 X272.8712 Y67.4899
G1 X271.869 Y71.7324
G3 X235.4499 Y75.9701 I-18.9777 J-4.4829
G1 X229.8915 Y64.8533
G1 X222.1614 Y83.9514
G3 X185.786 Y83.3705 I-18.0755 J-7.3163
G1 X177.9778 Y62.1557
G1 X171.8393 Y76.7063
G3 X138.4808 Y81.0991 I-17.9666 J-7.5797
G3 X112.5299 Y89.9649 I-17.4579 J-8.6875
G3 X104.17 Y111.9233 I-18.7254 J5.4415
G3 X112.8482 Y122.7891 I-9.8962 J16.8022
G3 X124.3027 Y102.0876 I43.261 J10.4173
G1 F300.0 X125.1605 Y102.9268
G3 F800.0 X184.3643 Y100.3989 I30.9488 J30.2796
G3 X198.6219 Y101.2242 I5.4273 J29.8075
G3 X209.1533 Y100.1093 I7.5211 J20.7465
G3 X211.8541 Y99.9088 I2.7008 J18.0972
G1 X221.8541
G3 X225.8491 Y100.3503 I0.0 J18.2976
G3 X235.5087 Y100.8077 I3.995 J17.8562
G3 X240.7676 Y99.9133 I5.6646 J17.3987
G3 X257.0779 Y89.9088 I16.3103 J8.2931
G1 X281.0478
G3 X304.6491 Y100.1584 I0.0 J32.2976
G3 X317.3599 Y101.2242 I3.8806 J30.0481
G3 X327.8914 Y100.1093 I7.5211 J20.7465
G3 X330.5922 Y99.9088 I2.7008 J18.0972
G1 X340.5922
G3 X344.5872 Y100.3503 I0.0 J18.2976
G3 X354.2467 Y100.8077 I3.995 J17.8562
G3 X359.9113 Y99.9088 I5.6646 J17.3987
G1 X369.9113
G3 X387.9513 Y115.1469 I0.0 J18.2976
G3 X389.7526 Y113.497 I13.2333 J12.64
G1 X407.5993 Y99.2197
G1 X383.0587 Y100.0858
G3 X364.1174 Y81.4066 I-0.6455 J-18.2886
G1 X353.6401 Y92.7853
G3 X322.5471 Y85.2933 I-13.4622 J-12.3959
G1 X314.9389 Y57.9398
G1 X307.9127 Y70.8403
G3 X275.1968 Y69.6924 I-16.071 J-8.7529
G1 X272.508 Y63.8074
G1 X270.7011 Y71.4565
G3 X236.5233 Y75.4335 I-17.8098 J-4.2071
G1 X229.7763 Y61.9396
G1 X221.049 Y83.5011
G3 X186.9122 Y82.956 I-16.9631 J-6.866
G1 X178.0539 Y58.8881
G1 X170.7336 Y76.2398
G3 X138.2339 Y78.6302 I-16.861 J-7.1132
G3 X111.683 Y88.1487 I-17.211 J-6.2186
G1 X110.1936 Y87.2647
G3 X101.6077 Y111.9594 I-16.3891 J8.1417
G3 X104.7552 Y143.7265 I-7.334 J16.7661
G1 X93.7111 Y151.4432
G1 X100.7037 Y150.4842
G3 X120.8197 Y173.5226 I2.4864 J18.1303
G1 X128.8701 Y166.8622
G3 X125.1605 Y102.9268 I27.2391 J-33.6558
G1 F300.0 X126.0182 Y103.766
G3 F800.0 X184.016 Y101.6878 I30.091 J29.4404
G3 X198.6565 Y102.4921 I5.7757 J28.5186
G3 X209.1607 Y101.3223 I7.4865 J19.4785
G3 X211.8541 Y101.1088 I2.6934 J16.8841
G1 X221.8541
G3 X225.8491 Y101.5821 I0.0 J17.0976
G3 X235.5087 Y102.0745 I3.995 J16.6243
G3 X241.1732 Y101.1088 I5.6646 J16.132
G1 X241.5231
G3 X257.0779 Y91.1088 I15.5548 J7.0976
G1 X281.0478
G3 X304.1903 Y101.4342 I0.0 J31.0976
G3 X317.3946 Y102.4921 I4.3393 J28.7722
G3 X327.8988 Y101.3223 I7.4865 J19.4785
G3 X330.5922 Y101.1088 I2.6934 J16.8841
G1 X340.5922
G3 X344.5872 Y101.5821 I0.0 J17.0976
G3 X354.2467 Y102.0745 I3.995 J16.6243
G3 X359.9113 Y101.1088 I5.6646 J16.132
G1 X369.9113
G3 X387.0089 Y118.2064 I0.0 J17.0976
G1 Y118.2234
G3 X390.5023 Y114.4341 I14.1757 J9.5635
G1 X411.1791 Y97.8926
G1 X383.0164 Y98.8866
G3 X365.3204 Y81.3042 I-0.6032 J-17.0894
G1 X365.409 Y78.2324
G1 X352.7573 Y91.9724
G3 X323.7032 Y84.9717 I-12.5795 J-11.5831
G1 X315.3014 Y54.7652
G1 X306.8589 Y70.2663
G3 X276.2883 Y69.1937 I-15.0171 J-8.179
G1 X272.1448 Y60.125
G1 X269.5333 Y71.1806
G3 X237.5966 Y74.8968 I-16.642 J-3.9312
G1 X229.6611 Y59.0259
G1 X219.9367 Y83.0509
G3 X188.0383 Y82.5415 I-15.8508 J-6.4158
G1 X178.1299 Y55.6206
G1 X169.628 Y75.7734
G3 X138.4159 Y76.4409 I-15.7553 J-6.6468
G1 X137.8769 Y75.3018
G3 X112.2954 Y87.1167 I-16.854 J-2.8902
G1 X107.1302 Y84.0512
G1 X108.8962 Y87.3658
G3 X99.1058 Y111.6639 I-15.0917 J8.0406
G1 X97.9783 Y112.0316
G3 X104.0679 Y142.7428 I-3.7045 J16.6939
G1 X88.9475 Y153.3077
G1 X100.8667 Y151.6731
G3 X119.123 Y174.8236 I2.3234 J16.9414
G1 X118.1682 Y177.2738
G1 X130.7852 Y166.8353
G3 X126.0182 Y103.766 I25.3241 J-33.6288
G1 F300.0 X126.876 Y104.6052
G3 F800.0 X183.6687 Y102.9891 I29.2333 J28.6012
G3 X198.6951 Y103.7677 I6.1229 J27.2174
G3 X209.1693 Y102.5372 I7.4479 J18.2029
G3 X211.8541 Y102.3088 I2.6849 J15.6692
G1 X221.8541
G3 X225.8491 Y102.819 I0.0 J15.8976
G3 X235.5087 Y103.3523 I3.995 J15.3875
G3 X241.1732 Y102.3088 I5.6646 J14.8542
G1 X242.3147
G3 X257.0779 Y92.3088 I14.7632 J5.8976
G1 X281.0478
G3 X303.7272 Y102.7253 I0.0 J29.8976
G3 X317.4331 Y103.7677 I4.8025 J27.4811
G3 X327.9073 Y102.5372 I7.4479 J18.2029
G3 X330.5922 Y102.3088 I2.6849 J15.6692
G1 X340.5922
G3 X344.5872 Y102.819 I0.0 J15.8976
G3 X354.2467 Y103.3523 I3.995 J15.3875
G3 X359.9113 Y102.3088 I5.6646 J14.8542
G1 X369.9113
G3 X385.8089 Y118.2064 I0.0 J15.8976
G1 Y123.7374
G3 X391.2519 Y115.3711 I15.3757 J4.0495
G1 X414.7589 Y96.5655
G1 X382.9741 Y97.6873
G3 X366.5199 Y81.3388 I-0.5608 J-15.8901
G1 X366.7011 Y75.0577
G1 X351.8745 Y91.1596
G3 X324.8594 Y84.6501 I-11.6967 J-10.7702
G1 X315.664 Y51.5907
G1 X305.805 Y69.6924
G3 X277.3797 Y68.695 I-13.9633 J-7.605
G1 X271.7817 Y56.4426
G1 X268.3654 Y70.9048
G3 X238.6699 Y74.3602 I-15.4741 J-3.6553
G1 X229.5459 Y56.1122
G1 X218.8243 Y82.6007
G3 X189.1645 Y82.127 I-14.7385 J-5.9656
G1 X178.206 Y52.3531
G1 X168.5224 Y75.3069
G3 X139.5006 Y75.9277 I-14.6497 J-6.1803
G1 X137.2588 Y71.1902
G1 X136.7631 Y74.6602
G3 X112.9079 Y86.0848 I-15.7402 J-2.2486
G1 X104.0544 Y80.8303
G1 X107.8371 Y87.93
G3 X98.7338 Y110.523 I-14.0326 J7.4764
G1 X93.1584 Y112.3411
G1 X97.1972 Y113.0965
G3 X103.3806 Y141.7591 I-2.9234 J15.6289
G1 X84.1838 Y155.1723
G1 X101.0298 Y152.8619
G3 X118.0049 Y174.3879 I2.1603 J15.7526
G1 X115.3717 Y181.1449
G1 X132.7438 Y166.7723
G3 X126.876 Y104.6052 I23.3655 J-33.5659
G1 F300.0 X127.7337 Y105.4444
G3 F800.0 X183.3227 Y104.3044 I28.3755 J27.762
G3 X198.7382 Y105.0525 I6.4689 J25.902
G3 X209.1793 Y103.7543 I7.4048 J16.9182
G3 X211.8541 Y103.5088 I2.6748 J14.4522
G1 X221.8541
G3 X225.8491 Y104.0622 I0.0 J14.6976
G3 X235.5087 Y104.6443 I3.995 J14.1442
G3 X241.1732 Y103.5088 I5.6646 J13.5622
G1 X243.1512
G3 X257.0779 Y93.5088 I13.9267 J4.6976
G1 X281.0478
G3 X303.2588 Y104.0343 I0.0 J28.6976
G3 X317.4762 Y105.0525 I5.2709 J26.1721
G3 X327.9174 Y103.7543 I7.4048 J16.9182
G3 X330.5922 Y103.5088 I2.6748 J14.4522
G1 X340.5922
G3 X344.5872 Y104.0622 I0.0 J14.6976
G3 X354.2467 Y104.6443 I3.995 J14.1442
G3 X359.9113 Y103.5088 I5.6646 J13.5622
G1 X369.9113
G3 X384.6089 Y118.2064 I0.0 J14.6976
G1 Y148.2064
G3 X383.6268 Y153.4889 I-14.6976 J0.0
G3 X390.7299 Y154.7122 I1.1329 J14.6563
G1 X412.8476 Y164.5423
G1 X389.926 Y137.2386
G3 X392.0016 Y116.3081 I11.2586 J-9.4517
G1 X418.3387 Y95.2384
G1 X382.9318 Y96.4881
G3 X367.7194 Y81.3734 I-0.5185 J-14.6909
G1 X367.9931 Y71.8829
G1 X350.9918 Y90.3467
G3 X326.0155 Y84.3286 I-10.8139 J-9.9574
G1 X316.0266 Y48.4161
G1 X304.7512 Y69.1184
G3 X278.4712 Y68.1963 I-12.9095 J-7.031
G1 X271.4185 Y52.7602
G1 X267.1976 Y70.6289
G3 X239.7432 Y73.8235 I-14.3063 J-3.3794
G1 X229.4307 Y53.1985
G1 X217.712 Y82.1505
G3 X190.2906 Y81.7125 I-13.6261 J-5.5153
G1 X178.2821 Y49.0856
G1 X167.4167 Y74.8405
G3 X140.5853 Y75.4144 I-13.5441 J-5.7139
G1 X136.6355 Y67.0677
G1 X135.5751 Y74.4905
G3 X113.5203 Y85.0529 I-14.5523 J-2.0789
G1 X100.9787 Y77.6095
G1 X106.778 Y88.4943
G3 X98.3618 Y109.3822 I-12.9735 J6.9121
G1 X88.3196 Y112.6568
G1 X96.9765 Y114.2761
G3 X102.6933 Y140.7754 I-2.7028 J14.4494
G1 X79.4202 Y157.0368
G1 X101.1928 Y154.0508
G3 X116.8868 Y173.9522 I1.9973 J14.5637
G1 X112.5752 Y185.016
G1 X134.1779 Y167.1433
G3 X134.7682 Y166.6797 I9.3706 J11.3262
G3 X127.7337 Y105.4444 I21.341 J-33.4733
G1 F300.0 X128.5915 Y106.2836
G3 F800.0 X182.9782 Y105.636 I27.5178 J26.9228
G3 X198.7868 Y106.3482 I6.8135 J24.5704
G3 X209.1912 Y104.9741 I7.3562 J15.6224
G3 X211.8541 Y104.7088 I2.663 J13.2323
G1 X221.8541
G3 X225.8491 Y105.3136 I0.0 J13.4976
G3 X235.5087 Y105.955 I3.995 J12.8928
G3 X241.1732 Y104.7088 I5.6646 J12.2514
G1 X244.0413
G3 X257.0779 Y94.7088 I13.0366 J3.4976
G1 X281.0478
G3 X302.7842 Y105.3646 I0.0 J27.4976
G3 X317.5249 Y106.3482 I5.7455 J24.8418
G3 X327.9292 Y104.9741 I7.3562 J15.6224
G3 X330.5922 Y104.7088 I2.663 J13.2323
G1 X340.5922
G3 X344.5872 Y105.3136 I0.0 J13.4976
G3 X354.2467 Y105.955 I3.995 J12.8928
G3 X359.9113 Y104.7088 I5.6646 J12.2514
G1 X369.9113
G3 X383.4089 Y118.2064 I0.0 J13.4976
G1 Y148.2064
G3 X381.5567 Y155.0307 I-13.4976 J0.0
G3 X390.2425 Y155.8088 I3.203 J13.1145
G1 X417.1055 Y167.7478
G1 X390.845 Y136.467
G3 X392.7512 Y117.2452 I10.3395 J-8.6801
G1 X421.9185 Y93.9113
G1 X382.8894 Y95.2888
G3 X368.9189 Y81.408 I-0.4762 J-13.4916
G1 X369.2852 Y68.7081
G1 X350.109 Y89.5339
G3 X327.1716 Y84.007 I-9.9311 J-9.1445
G1 X316.3891 Y45.2415
G1 X303.6974 Y68.5444
G3 X279.5627 Y67.6976 I-11.8556 J-6.4571
G1 X271.0553 Y49.0778
G1 X266.0297 Y70.353
G3 X240.8165 Y73.2869 I-13.1384 J-3.1036
G1 X229.3155 Y50.2848
G1 X216.5997 Y81.7002
G3 X191.4168 Y81.2981 I-12.5138 J-5.0651
G1 X178.3581 Y45.818
G1 X166.3111 Y74.3741
G3 X141.67 Y74.9011 I-12.4384 J-5.2475
G1 X136.0123 Y62.9452
G1 X134.3872 Y74.3208
G3 X114.1328 Y84.0209 I-13.3643 J-1.9092
G1 X97.903 Y74.3886
G1 X105.719 Y89.0585
G3 X97.9898 Y108.2413 I-11.9145 J6.3479
G1 X83.4807 Y112.9725
G1 X96.7559 Y115.4556
G3 X102.006 Y139.7918 I-2.4821 J13.2699
G1 X74.6566 Y158.9013
G1 X101.3559 Y155.2397
G3 X115.7687 Y173.5165 I1.8343 J13.3748
G1 X109.7787 Y188.8871
G1 X134.9428 Y168.0678
G3 X137.0334 Y166.6456 I8.6056 J10.4016
G3 X128.5915 Y106.2836 I19.0759 J-33.4391
G1 F300.0 X129.4492 Y107.1229
G3 F800.0 X182.6353 Y106.9866 I26.66 J26.0836
G3 X198.8422 Y107.6574 I7.1563 J23.2198
G3 X209.2053 Y106.1975 I7.3008 J14.3133
G3 X211.8541 Y105.9088 I2.6488 J12.0089
G1 X221.8541
G3 X225.8491 Y106.5758 I0.0 J12.2976
G3 X235.5087 Y107.2911 I3.995 J11.6306
G3 X241.1732 Y105.9088 I5.6646 J10.9153
G1 X244.9968
G3 X257.0779 Y95.9088 I12.0811 J2.2976
G1 X281.0478
G3 X302.3022 Y106.7204 I0.0 J26.2976
G3 X317.5803 Y107.6574 I6.2275 J23.486
G3 X327.9434 Y106.1975 I7.3008 J14.3133
G3 X330.5922 Y105.9088 I2.6488 J12.0089
G1 X340.5922
G3 X344.5872 Y106.5758 I0.0 J12.2976
G3 X354.2467 Y107.2911 I3.995 J11.6306
G3 X359.9113 Y105.9088 I5.6646 J10.9153
G1 X369.9113
G3 X382.2089 Y118.2064 I0.0 J12.2976
G1 Y148.2064
G3 X369.9113 Y160.504 I-12.2976 J0.0
G1 X360.0289
G3 X358.3005 Y160.382 I0.0 J-12.2976
G3 X356.5721 Y160.504 I-1.7284 J-12.1755
G1 X346.5721
G3 X336.3709 Y155.0742 I0.0 J-12.2976
G3 X317.1329 Y159.3607 I-12.9126 J-12.6389
G1 X300.1235 Y153.0038
G3 X276.1259 Y170.504 I-23.7014 J-7.2974
G1 X257.0779
G3 X244.9968 Y160.504 I0.0 J-12.2976
G1 X241.2909
G3 X239.5625 Y160.382 I0.0 J-12.2976
G3 X237.8341 Y160.504 I-1.7284 J-12.1755
G1 X227.8341
G3 X217.6329 Y155.0742 I0.0 J-12.2976
G3 X198.3948 Y159.3607 I-12.9126 J-12.6389
G1 X186.4511 Y154.897
G3 X152.7933 Y170.3563 I-30.3419 J-21.6906
G3 X155.6725 Y180.5425 I-9.2449 J8.1131
G1 X151.2811 Y206.2253
G1 X167.7178 Y178.7284
G3 X190.2285 Y182.139 I10.5576 J6.3109
G1 X197.666 Y212.7903
G1 X210.3936 Y186.6878
G3 X232.7601 Y187.2458 I11.0557 J5.3908
G1 X240.7962 Y206.0537
G1 X247.1057 Y182.3454
G3 X270.1986 Y180.439 I11.8863 J3.1633
G1 X281.3755 Y205.1458
G1 X284.0219 Y192.3948
G3 X305.2403 Y186.7023 I12.0433 J2.4996
G1 X328.929 Y213.2337
G1 X327.4246 Y183.7899
G3 X347.4709 Y173.621 I12.284 J-0.6276
G1 X377.4064 Y197.9753
G1 X372.6374 Y170.2287
G3 X389.7552 Y156.9053 I12.1223 J-2.0835
G1 X421.3634 Y170.9534
G1 X391.7641 Y135.6955
G3 X393.5008 Y118.1822 I9.4205 J-7.9085
G1 X425.4983 Y92.5842
G1 X382.8471 Y94.0896
G3 X370.1184 Y81.4426 I-0.4338 J-12.2923
G1 X370.5773 Y65.5333
G1 X349.2262 Y88.7211
G3 X328.3277 Y83.6854 I-9.0484 J-8.3317
G1 X316.7517 Y42.067
G1 X302.6435 Y67.9705
G3 X280.6542 Y67.1989 I-10.8018 J-5.8831
G1 X270.6922 Y45.3954
G1 X264.8618 Y70.0772
G3 X241.8898 Y72.7502 I-11.9706 J-2.8277
G1 X229.2002 Y47.371
G1 X215.4873 Y81.25
G3 X192.5429 Y80.8836 I-11.4014 J-4.6149
G1 X178.4342 Y42.5505
G1 X165.2054 Y73.9076
G3 X142.7547 Y74.3878 I-11.3328 J-4.781
G1 X135.389 Y58.8227
G1 X133.1993 Y74.1511
G3 X114.7452 Y82.989 I-12.1764 J-1.7395
G1 X94.8273 Y71.1677
G1 X104.6599 Y89.6228
G3 X97.6177 Y107.1004 I-10.8554 J5.7836
G1 X78.6418 Y113.2882
G1 X96.5353 Y116.6352
G3 X101.3187 Y138.8081 I-2.2615 J12.0903
G1 X69.8929 Y160.7658
G1 X101.5189 Y156.4286
G3 X114.6506 Y173.0807 I1.6712 J12.1859
G1 X106.9822 Y192.7582
G1 X135.7078 Y168.9924
G3 X139.8066 Y166.7524 I7.8407 J9.477
G3 X129.4492 Y107.1229 I16.3027 J-33.546
G1 F300.0 X130.307 Y107.9621
G3 F800.0 X182.2944 Y108.3594 I25.8023 J25.2444
G3 X198.906 Y108.9832 I7.4972 J21.847
G3 X209.2225 Y107.4254 I7.237 J12.9875
G3 X211.8541 Y107.1088 I2.6317 J10.7811
G1 X221.8541
G3 X225.8491 Y107.8528 I0.0 J11.0976
G3 X235.5087 Y108.6634 I3.995 J10.3536
G3 X241.1732 Y107.1088 I5.6646 J9.543
G1 X246.0347
G3 X257.0779 Y97.1088 I11.0432 J1.0976
G1 X281.0478
G3 X301.8111 Y108.1076 I0.0 J25.0976
G3 X317.6441 Y108.9832 I6.7186 J22.0989
G3 X327.9605 Y107.4254 I7.237 J12.9875
G3 X330.5922 Y107.1088 I2.6317 J10.7811
G1 X340.5922
G3 X344.5872 Y107.8528 I0.0 J11.0976
G3 X354.2467 Y108.6634 I3.995 J10.3536
G3 X359.9113 Y107.1088 I5.6646 J9.543
G1 X369.9113
G3 X381.0089 Y118.2064 I0.0 J11.0976
G1 Y148.2064
G3 X369.9113 Y159.304 I-11.0976 J0.0
G1 X360.0289
G3 X358.3005 Y159.1686 I0.0 J-11.0976
G3 X356.5721 Y159.304 I-1.7284 J-10.9622
G1 X346.5721
G3 X336.7774 Y153.4237 I0.0 J-11.0976
G1 X336.5745 Y153.0428
G3 X317.553 Y158.2366 I-13.1162 J-10.6074
G1 X300.4437 Y151.8424
G3 X299.3265 Y151.3913 I8.0859 J-21.636
G3 X276.1332 Y169.304 I-22.9044 J-5.6849
G1 X257.0779
G3 X246.0347 Y159.304 I0.0 J-11.0976
G1 X241.2909
G3 X239.5625 Y159.1686 I0.0 J-11.0976
G3 X237.8341 Y159.304 I-1.7284 J-10.9622
G1 X227.8341
G3 X218.0394 Y153.4237 I0.0 J-11.0976
G1 X217.8365 Y153.0428
G3 X198.8149 Y158.2366 I-13.1162 J-10.6074
G1 X185.9985 Y153.4468
G3 X148.3444 Y168.459 I-29.8892 J-20.2403
G3 X154.4897 Y180.3402 I-4.796 J10.0104
G1 X149.0159 Y212.3537
G1 X168.7478 Y179.3441
G3 X189.0623 Y182.422 I9.5276 J5.6952
G1 X197.285 Y216.3095
G1 X211.4722 Y187.2138
G3 X231.6567 Y187.7173 I9.9771 J4.8649
G1 X241.0605 Y209.7264
G1 X248.2653 Y182.654
G3 X269.1053 Y180.9336 I10.7266 J2.8547
G1 X281.8014 Y208.9988
G1 X285.1969 Y192.6386
G3 X304.3452 Y187.5015 I10.8684 J2.2557
G1 X330.3012 Y216.5722
G1 X328.623 Y183.7287
G3 X346.7136 Y174.5519 I11.0855 J-0.5664
G1 X379.131 Y200.9253
G1 X373.8201 Y170.0255
G3 X389.2678 Y158.0019 I10.9396 J-1.8802
G1 X425.6213 Y174.159
G1 X392.6832 Y134.9239
G3 X394.2505 Y119.1193 I8.5014 J-7.137
G1 X429.0781 Y91.2571
G1 X382.8048 Y92.8903
G3 X371.3179 Y81.4772 I-0.3915 J-11.0931
G1 X371.8694 Y62.3585
G1 X348.3434 Y87.9082
G3 X329.4838 Y83.3639 I-8.1656 J-7.5188
G1 X317.1143 Y38.8924
G1 X301.5897 Y67.3965
G3 X281.7456 Y66.7002 I-9.748 J-5.3092
G1 X270.329 Y41.7129
G1 X263.694 Y69.8013
G3 X242.9631 Y72.2135 I-10.8027 J-2.5518
G1 X229.085 Y44.4573
G1 X214.375 Y80.7998
G3 X193.6691 Y80.4691 I-10.2891 J-4.1646
G1 X178.5103 Y39.283
G1 X164.0998 Y73.4412
G3 X143.8393 Y73.8745 I-10.2271 J-4.3146
G1 X134.7658 Y54.7002
G1 X132.0113 Y73.9814
G3 X115.3577 Y81.957 I-10.9884 J-1.5698
G1 X91.7516 Y67.9469
G1 X103.6008 Y90.1871
G3 X97.2457 Y105.9595 I-9.7963 J5.2194
G1 X73.803 Y113.6039
G1 X96.3146 Y117.8147
G3 X100.6314 Y137.8244 I-2.0409 J10.9108
G1 X65.1293 Y162.6304
G1 X101.682 Y157.6174
G3 X113.5325 Y172.645 I1.5082 J10.9971
G1 X104.1857 Y196.6293
G1 X136.4727 Y169.917
G3 X144.597 Y167.4191 I7.0757 J8.5524
G3 X130.307 Y107.9621 I11.5123 J-34.2126
G0 Z3.0
G0 X254.3803 Y108.2012
G0 Z0.2
G1 F300.0 Z-0.4
G3 F800.0 X257.0779 Y105.5088 I2.6976 J0.0052
G1 X281.0478
G3 X297.6402 Y120.3353 I0.0 J16.6976
G3 X318.8204 Y119.7126 I10.8894 J9.8712
G3 X321.6472 Y116.3695 I6.0607 J2.2581
G3 X328.445 Y116.5735 I3.2338 J5.6012
G3 X330.5922 Y115.5088 I2.1472 J1.6329
G1 X340.5922
G3 X342.9731 Y116.9382 I0.0 J2.6976
G1 X345.8846 Y122.4041
G1 Y118.2064
G3 X350.7307 Y116.5753 I2.6976 J0.0
G1 X357.2409 Y125.1503
G1 X357.2137 Y118.217
G3 X359.9113 Y115.5088 I2.6976 J-0.0106
G1 X369.9113
G3 X372.6089 Y118.2064 I0.0 J2.6976
G1 Y148.2064
G3 X369.9113 Y150.904 I-2.6976 J0.0
G1 X360.0289
G3 X358.3005 Y150.2776 I0.0 J-2.6976
G3 X356.5721 Y150.904 I-1.7284 J-2.0712
G1 X346.5721
G3 X344.1912 Y149.4747 I0.0 J-2.6976
G1 X330.8576 Y124.4428
G3 X324.7325 Y128.4366 I-5.9766 J-2.4721
G1 X330.6522 Y137.967
G3 X320.4936 Y150.3681 I-7.1939 J4.4684
G1 X303.3844 Y143.974
G3 X294.0435 Y132.6907 I5.1453 J-13.7676
G3 X288.8566 Y136.9656 I-12.9957 J-10.4843
G3 X276.1902 Y160.904 I-12.4346 J8.7408
G1 X257.0779
G3 X254.3803 Y158.2064 I0.0 J-2.6976
G1 Y108.2064
G3 Y108.2012 I2.6976 J0.0
G1 F300.0 X255.5779 Y108.2035
G3 F800.0 X257.0779 Y106.7064 I1.5 J0.0029
G1 X281.0478
G3 X296.4117 Y124.2563 I0.0 J15.5
G3 X319.6418 Y122.5403 I12.118 J5.9501
G3 X322.246 Y117.4066 I5.2392 J-0.5696
G3 X330.1511 Y121.9707 I2.635 J4.564
G3 X322.246 Y126.5347 I-5.2701 J0.0
G3 X322.0787 Y126.4339 I2.635 J-4.564
G1 X329.6348 Y138.5989
G3 X320.9129 Y149.2463 I-6.1765 J3.8365
G1 X303.8036 Y142.8522
G3 X295.1114 Y128.723 I4.726 J-12.6457
G3 X286.9906 Y136.5219 I-14.0636 J-6.5165
G3 X276.1995 Y159.7064 I-10.5686 J9.1845
G1 X257.0779
G3 X255.5779 Y158.2064 I0.0 J-1.5
G1 Y108.2064
G3 Y108.2035 I1.5 J0.0
G0 Z3.0
G0 X329.1054 Y118.0082
G0 Z0.2
G1 F300.0 Z-0.4
G3 F800.0 X330.5922 Y116.7064 I1.4868 J0.1983
G1 X340.5922
G3 X341.9161 Y117.5012 I0.0 J1.5
G1 X347.0822 Y127.1998
G1 Y118.2064
G3 X349.7769 Y117.2994 I1.5 J0.0
G1 X358.4525 Y128.7268
G1 X358.4113 Y118.2123
G3 X359.9113 Y116.7064 I1.5 J-0.0059
G1 X369.9113
G3 X371.4113 Y118.2064 I0.0 J1.5
G1 Y148.2064
G3 X369.9113 Y149.7064 I-1.5 J0.0
G1 X360.0289
G3 X358.8365 Y149.1164 I0.0 J-1.5
G1 X358.1175 Y148.1742
G1 X358.0351 Y148.5378
G3 X356.5721 Y149.7064 I-1.4629 J-0.3314
G1 X346.5721
G3 X345.2482 Y148.9116 I0.0 J-1.5
G1 X329.2683 Y118.9116
G3 X329.1054 Y118.0082 I1.3239 J-0.7052
G0 Z3.0
G0 X328.2567 Y115.086
G0 Z0.2
G1 F300.0 Z-0.4
G2 F800.0 X321.0472 Y115.3302 I-3.3757 J6.8846
G2 X318.4548 Y117.7877 I3.8338 J6.6404
G2 X298.4273 Y117.9314 I-9.9252 J12.4187
G2 X281.0478 Y104.3088 I-17.3795 J4.275
G1 X257.0779
G2 X253.1803 Y108.2064 I0.0 J3.8976
G1 Y114.8653
G2 X251.1732 Y114.3088 I-2.0071 J3.3411
G1 X241.1732
G2 X237.2757 Y118.2217 I0.0 J3.8976
G1 X237.2888 Y121.5667
G1 X232.9484 Y115.8496
G2 X225.9838 Y117.6687 I-3.1043 J2.3568
G1 X225.2942 Y116.3741
G2 X221.8541 Y114.3088 I-3.44 J1.8324
G1 X211.8541
G2 X209.5187 Y115.086 I0.0 J3.8976
G2 X202.3092 Y115.3302 I-3.3757 J6.8846
G2 X199.7168 Y117.7877 I3.8338 J6.6404
G2 X180.3239 Y117.4355 I-9.9252 J12.4187
G2 X181.1353 Y147.6552 I-24.2147 J15.7709
G2 X180.8812 Y143.3723 I-3.3754 J-1.9488
G2 X184.2262 Y145.0981 I8.9104 J-13.1658
G1 X201.3355 Y151.4922
G2 X212.9335 Y137.3338 I3.3848 J-9.0568
G1 X208.0102 Y129.4075
G2 X212.0483 Y126.8615 I-1.8672 J-7.4369
G1 X224.3941 Y150.0388
G2 X227.8341 Y152.104 I3.44 J-1.8324
G1 X237.8341
G2 X239.5625 Y151.6998 I0.0 J-3.8976
G2 X241.2909 Y152.104 I1.7284 J-3.4934
G1 X251.1732
G2 X253.1803 Y151.5475 I0.0 J-3.8976
G1 Y158.2064
G2 X257.0779 Y162.104 I3.8976 J0.0
G1 X276.1812
G2 X290.5474 Y137.3749 I0.2408 J-16.3976
G2 X293.4175 Y135.1415 I-9.4996 J-15.1685
G2 X302.9643 Y145.0981 I15.1122 J-4.9351
G1 X320.0735 Y151.4922
G2 X331.6715 Y137.3338 I3.3848 J-9.0568
G1 X326.7482 Y129.4075
G2 X330.7864 Y126.8615 I-1.8672 J-7.4369
G1 X343.1321 Y150.0388
G2 X346.5721 Y152.104 I3.44 J-1.8324
G1 X356.5721
G2 X358.3005 Y151.6998 I0.0 J-3.8976
G2 X360.0289 Y152.104 I1.7284 J-3.4934
G1 X369.9113
G2 X373.8089 Y148.2064 I0.0 J-3.8976
G1 Y118.2064
G2 X369.9113 Y114.3088 I-3.8976 J0.0
G1 X359.9113
G2 X356.0137 Y118.2217 I0.0 J3.8976
G1 X356.0268 Y121.5667
G1 X351.6865 Y115.8496
G2 X344.7218 Y117.6687 I-3.1043 J2.3568
G1 X344.0322 Y116.3741
G2 X340.5922 Y114.3088 I-3.44 J1.8324
G1 X330.5922
G2 X328.2567 Y115.086 I0.0 J3.8976
G1 F300.0 X328.1547 Y113.7294
G2 F800.0 X320.4472 Y114.291 I-3.2737 J8.2413
G2 X318.2183 Y116.1189 I4.4338 J7.6796
G2 X299.0915 Y115.9499 I-9.6886 J14.0875
G2 X281.0478 Y103.1088 I-18.0437 J6.2565
G1 X257.0779
G2 X251.9803 Y108.2064 I0.0 J5.0976
G1 Y113.1731
G2 X251.1732 Y113.1088 I-0.8071 J5.0333
G1 X241.1732
G2 X236.0802 Y117.9902 I0.0 J5.0976
G1 X233.9042 Y115.124
G2 X225.8491 Y115.0401 I-4.0601 J3.0824
G2 X221.8541 Y113.1088 I-3.995 J3.1663
G1 X211.8541
G2 X209.4167 Y113.7294 I0.0 J5.0976
G2 X201.7092 Y114.291 I-3.2737 J8.2413
G2 X199.4802 Y116.1189 I4.4338 J7.6796
G2 X180.6383 Y115.7654 I-9.6886 J14.0875
G2 X182.1745 Y148.2552 I-24.5291 J17.4411
G2 X182.8559 Y145.8341 I-4.4147 J-2.5488
G2 X183.8061 Y146.2221 I6.9357 J-15.6277
G1 X200.9154 Y152.6163
G2 X213.9528 Y136.7006 I3.8049 J-10.1809
G1 X209.8166 Y130.0416
G2 X211.7451 Y128.8447 I-3.6737 J-8.0709
G1 X223.335 Y150.603
G2 X227.8341 Y153.304 I4.4991 J-2.3965
G1 X237.8341
G2 X239.5625 Y153.0021 I0.0 J-5.0976
G2 X241.2909 Y153.304 I1.7284 J-4.7956
G1 X251.1732
G2 X251.9803 Y153.2397 I0.0 J-5.0976
G1 Y158.2064
G2 X257.0779 Y163.304 I5.0976 J0.0
G1 X276.1726
G2 X292.1264 Y137.7622 I0.2495 J-17.5976
G2 X292.9143 Y137.1699 I-11.0786 J-15.5558
G2 X302.5442 Y146.2221 I15.6153 J-6.9634
G1 X319.6534 Y152.6163
G2 X332.6909 Y136.7006 I3.8049 J-10.1809
G1 X328.5547 Y130.0416
G2 X330.4831 Y128.8447 I-3.6737 J-8.0709
G1 X342.073 Y150.603
G2 X346.5721 Y153.304 I4.4991 J-2.3965
G1 X356.5721
G2 X358.3005 Y153.0021 I0.0 J-5.0976
G2 X360.0289 Y153.304 I1.7284 J-4.7956
G1 X369.9113
G2 X375.0089 Y148.2064 I0.0 J-5.0976
G1 Y118.2064
G2 X369.9113 Y113.1088 I-5.0976 J0.0
G1 X359.9113
G2 X354.8183 Y117.9902 I0.0 J5.0976
G1 X352.6423 Y115.124
G2 X344.5872 Y115.0401 I-4.0601 J3.0824
G2 X340.5922 Y113.1088 I-3.995 J3.1663
G1 X330.5922
G2 X328.1547 Y113.7294 I0.0 J5.0976
G1 F300.0 X328.089 Y112.4277
G2 F800.0 X319.8472 Y113.2518 I-3.2079 J9.5429
G2 X318.0463 Y114.5784 I5.0338 J8.7189
G2 X299.6928 Y114.1842 I-9.5167 J15.628
G2 X281.0478 Y101.9088 I-18.645 J8.0222
G1 X257.0779
G2 X250.7803 Y108.2064 I0.0 J6.2976
G1 Y111.9088
G1 X241.1732
G2 X235.5694 Y115.3329 I0.0 J6.2976
G1 X234.86 Y114.3984
G2 X225.8491 Y113.3382 I-5.0159 J3.808
G2 X221.8541 Y111.9088 I-3.995 J4.8682
G1 X211.8541
G2 X209.3509 Y112.4277 I0.0 J6.2976
G2 X201.1092 Y113.2518 I-3.2079 J9.5429
G2 X199.3083 Y114.5784 I5.0338 J8.7189
G2 X180.9603 Y114.1811 I-9.5167 J15.628
G2 X183.2138 Y148.8552 I-24.8511 J19.0253
G2 X183.7968 Y147.4997 I-5.4539 J-3.1488
G1 X200.4953 Y153.7403
G2 X216.6491 Y140.6038 I4.225 J-11.305
G1 X222.2758 Y151.1671
G2 X227.8341 Y154.504 I5.5582 J-2.9607
G1 X237.8341
G2 X239.5625 Y154.2622 I0.0 J-6.2976
G2 X241.2909 Y154.504 I1.7284 J-6.0558
G1 X250.7803
G1 Y158.2064
G2 X257.0779 Y164.504 I6.2976 J0.0
G1 X276.1642
G2 X294.9385 Y142.4572 I0.2578 J-18.7976
G2 X302.1241 Y147.3462 I13.5912 J-12.2508
G1 X319.2333 Y153.7403
G2 X335.3872 Y140.6038 I4.225 J-11.305
G1 X341.0139 Y151.1671
G2 X346.5721 Y154.504 I5.5582 J-2.9607
G1 X356.5721
G2 X358.3005 Y154.2622 I0.0 J-6.2976
G2 X360.0289 Y154.504 I1.7284 J-6.0558
G1 X369.9113
G2 X376.2089 Y148.2064 I0.0 J-6.2976
G1 Y118.2064
G2 X369.9113 Y111.9088 I-6.2976 J0.0
G1 X359.9113
G2 X354.3075 Y115.3329 I0.0 J6.2976
G1 X353.598 Y114.3984
G2 X344.5872 Y113.3382 I-5.0159 J3.808
G2 X340.5922 Y111.9088 I-3.995 J4.8682
G1 X330.5922
G2 X328.089 Y112.4277 I0.0 J6.2976
G1 F300.0 X328.0427 Y111.1556
G2 F800.0 X319.2472 Y112.2126 I-3.1616 J10.815
G2 X317.9135 Y113.1155 I5.6338 J9.7581
G2 X300.2554 Y112.5516 I-9.3838 J17.0909
G2 X281.0478 Y100.7088 I-19.2076 J9.6548
G1 X257.0779
G2 X249.5803 Y108.2064 I0.0 J7.4976
G1 Y110.7088
G1 X241.1732
G2 X235.5087 Y113.2945 I0.0 J7.4976
G2 X225.8491 Y111.8618 I-5.6646 J4.9119
G2 X221.8541 Y110.7088 I-3.995 J6.3446
G1 X211.8541
G2 X209.3046 Y111.1556 I0.0 J7.4976
G2 X200.5092 Y112.2126 I-3.1616 J10.815
G2 X199.1754 Y113.1155 I5.6338 J9.7581
G2 X181.2881 Y112.6609 I-9.3838 J17.0909
G2 X184.253 Y149.4552 I-25.1788 J20.5456
G2 X184.478 Y149.0353 I-6.4931 J-3.7488
G1 X200.0752 Y154.8644
G2 X217.7091 Y145.1462 I4.6451 J-12.429
G1 X221.2167 Y151.7313
G2 X227.8341 Y155.704 I6.6174 J-3.5248
G1 X237.8341
G2 X239.5625 Y155.5021 I0.0 J-7.4976
G2 X241.2909 Y155.704 I1.7284 J-7.2957
G1 X249.5803
G1 Y158.2064
G2 X257.0779 Y165.704 I7.4976 J0.0
G1 X276.1561
G2 X296.4202 Y145.4877 I0.2659 J-19.9976
G2 X301.704 Y148.4702 I12.1095 J-15.2813
G1 X318.8133 Y154.8644
G2 X336.4471 Y145.1462 I4.6451 J-12.429
G1 X339.9548 Y151.7313
G2 X346.5721 Y155.704 I6.6174 J-3.5248
G1 X356.5721
G2 X358.3005 Y155.5021 I0.0 J-7.4976
G2 X360.0289 Y155.704 I1.7284 J-7.2957
G1 X369.9113
G2 X377.4089 Y148.2064 I0.0 J-7.4976
G1 Y118.2064
G2 X369.9113 Y110.7088 I-7.4976 J0.0
G1 X359.9113
G2 X354.2467 Y113.2945 I0.0 J7.4976
G2 X344.5872 Y111.8618 I-5.6646 J4.9119
G2 X340.5922 Y110.7088 I-3.995 J6.3446
G1 X330.5922
G2 X328.0427 Y111.1556 I0.0 J7.4976
G1 F300.0 X328.0083 Y109.9015
G2 F800.0 X318.6472 Y111.1733 I-3.1272 J12.0691
G2 X317.8067 Y111.7044 I6.2338 J10.7973
G2 X300.7916 Y111.0098 I-9.277 J18.5021
G2 X281.0478 Y99.5088 I-19.7437 J11.1967
G1 X257.0779
G2 X248.3803 Y108.2064 I0.0 J8.6976
G1 Y109.5088
G1 X241.1732
G2 X235.5087 Y111.6064 I0.0 J8.6976
G2 X225.8491 Y110.4806 I-5.6646 J6.6001
G2 X221.8541 Y109.5088 I-3.995 J7.7258
G1 X211.8541
G2 X209.2702 Y109.9015 I0.0 J8.6976
G2 X199.9092 Y111.1733 I-3.1272 J12.0691
G2 X199.0687 Y111.7044 I6.2338 J10.7973
G2 X181.6202 Y111.1901 I-9.277 J18.5021
G2 X185.0196 Y150.5188 I-25.511 J22.0163
G1 X199.6551 Y155.9885
G2 X217.9843 Y148.2153 I5.0651 J-13.5531
G1 X220.1576 Y152.2954
G2 X227.8341 Y156.904 I7.6765 J-4.089
G1 X237.8341
G2 X239.5625 Y156.7306 I0.0 J-8.6976
G2 X241.2909 Y156.904 I1.7284 J-8.5241
G1 X248.3803
G1 Y158.2064
G2 X257.0779 Y166.904 I8.6976 J0.0
G1 X276.1482
G2 X297.5241 Y147.7355 I0.2738 J-21.1976
G2 X301.2839 Y149.5943 I11.0056 J-17.5291
G1 X318.3932 Y155.9885
G2 X336.7223 Y148.2153 I5.0651 J-13.5531
G1 X338.8957 Y152.2954
G2 X346.5721 Y156.904 I7.6765 J-4.089
G1 X356.5721
G2 X358.3005 Y156.7306 I0.0 J-8.6976
G2 X360.0289 Y156.904 I1.7284 J-8.5241
G1 X369.9113
G2 X378.6089 Y148.2064 I0.0 J-8.6976
G1 Y118.2064
G2 X369.9113 Y109.5088 I-8.6976 J0.0
G1 X359.9113
G2 X354.2467 Y111.6064 I0.0 J8.6976
G2 X344.5872 Y110.4806 I-5.6646 J6.6001
G2 X340.5922 Y109.5088 I-3.995 J7.7258
G1 X330.5922
G2 X328.0083 Y109.9015 I0.0 J8.6976
G1 F300.0 X327.9817 Y108.6593
G2 F800.0 X318.0472 Y110.1341 I-3.1006 J13.3113
G2 X317.7185 Y110.3301 I6.8338 J11.8366
G2 X301.3086 Y109.5337 I-9.1888 J19.8764
G2 X281.0478 Y98.3088 I-20.2607 J12.6727
G1 X257.0779
G2 X247.1803 Y108.2064 I0.0 J9.8976
G1 Y108.3088
G1 X241.1732
G2 X235.5087 Y110.0901 I0.0 J9.8976
G2 X225.8491 Y109.1509 I-5.6646 J8.1164
G2 X221.8541 Y108.3088 I-3.995 J9.0555
G1 X211.8541
G2 X209.2436 Y108.6593 I0.0 J9.8976
G2 X199.3092 Y110.1341 I-3.1006 J13.3113
G2 X198.9804 Y110.3301 I6.8338 J11.8366
G2 X181.9559 Y109.7588 I-9.1888 J19.8764
G2 X185.522 Y151.9876 I-25.8467 J23.4477
G1 X199.235 Y157.1125
G2 X217.9868 Y150.7725 I5.4852 J-14.6772
G1 X219.0985 Y152.8596
G2 X227.8341 Y158.104 I8.7356 J-4.6531
G1 X237.8341
G2 X239.5625 Y157.952 I0.0 J-9.8976
G2 X241.2909 Y158.104 I1.7284 J-9.7455
G1 X247.1803
G1 Y158.2064
G2 X257.0779 Y168.104 I9.8976 J0.0
G1 X276.1406
G2 X298.4703 Y149.6567 I0.2814 J-22.3976
G2 X300.8638 Y150.7184 I10.0593 J-19.4503
G1 X317.9731 Y157.1125
G2 X336.7248 Y150.7725 I5.4852 J-14.6772
G1 X337.8365 Y152.8596
G2 X346.5721 Y158.104 I8.7356 J-4.6531
G1 X356.5721
G2 X358.3005 Y157.952 I0.0 J-9.8976
G2 X360.0289 Y158.104 I1.7284 J-9.7455
G1 X369.9113
G2 X379.8089 Y148.2064 I0.0 J-9.8976
G1 Y118.2064
G2 X369.9113 Y108.3088 I-9.8976 J0.0
G1 X359.9113
G2 X354.2467 Y110.0901 I0.0 J9.8976
G2 X344.5872 Y109.1509 I-5.6646 J8.1164
G2 X340.5922 Y108.3088 I-3.995 J9.0555
G1 X330.5922
G2 X327.9817 Y108.6593 I0.0 J9.8976
G0 Z3.0
G0 X336.2562 Y89.4795
G0 Z0.2
G1 F300.0 Z-0.4
G3 F800.0 X330.6399 Y83.0423 I3.9217 J-9.0901
G1 X317.4768 Y35.7179
G1 X300.5359 Y66.8226
G3 X282.8371 Y66.2015 I-8.6941 J-4.7352
G1 X269.9659 Y38.0305
G1 X262.5261 Y69.5254
G3 X244.0365 Y71.6769 I-9.6348 J-2.2759
G1 X228.9698 Y41.5436
G1 X213.2627 Y80.3495
G3 X194.7952 Y80.0546 I-9.1768 J-3.7144
G1 X178.5863 Y36.0155
G1 X162.9942 Y72.9747
G3 X144.924 Y73.3612 I-9.1215 J-3.8481
G1 X134.1425 Y50.5777
G1 X130.8234 Y73.8116
G3 X115.9701 Y80.9251 I-9.8005 J-1.4001
G1 X88.6758 Y64.726
G1 X102.5418 Y90.7513
G3 X96.8737 Y104.8186 I-8.7373 J4.6551
G1 X68.9641 Y113.9196
G1 X96.094 Y118.9943
G3 X99.9441 Y136.8408 I-1.8202 J9.7312
G1 X60.3657 Y164.4949
G1 X101.845 Y158.8063
G3 X112.4144 Y172.2093 I1.3451 J9.8082
G1 X101.3892 Y200.5004
G1 X137.2376 Y170.8416
G3 X153.3068 Y180.138 I6.3108 J7.6278
G1 X146.7506 Y218.482
G1 X169.7778 Y179.9599
G3 X187.8962 Y182.7049 I8.4975 J5.0795
G1 X196.9041 Y219.8287
G1 X212.5508 Y187.7397
G3 X230.5532 Y188.1888 I8.8985 J4.3389
G1 X241.3249 Y213.3992
G1 X249.4249 Y182.9626
G3 X268.0119 Y181.4282 I9.567 J2.5461
G1 X282.2273 Y212.8517
G1 X286.3719 Y192.8825
G3 X303.4501 Y188.3008 I9.6934 J2.0118
G1 X331.6733 Y219.9108
G1 X329.8215 Y183.6674
G3 X345.9563 Y175.4827 I9.8871 J-0.5052
G1 X380.8556 Y203.8754
G1 X375.0027 Y169.8222
G3 X388.7804 Y159.0985 I9.7569 J-1.677
G1 X429.8792 Y177.3646
G1 X393.6022 Y134.1523
G3 X395.0001 Y120.0563 I7.5823 J-6.3654
G1 X432.6579 Y89.9301
G1 X382.7625 Y91.6911
G3 X372.5174 Y81.5118 I-0.3492 J-9.8938
G1 X373.1615 Y59.1838
G1 X347.4607 Y87.0954
G3 X336.2562 Y89.4795 I-7.2828 J-6.706
G1 F300.0 X336.7315 Y88.3777
G3 F800.0 X331.796 Y82.7207 I3.4463 J-7.9883
G1 X317.8394 Y32.5433
G1 X299.482 Y66.2486
G3 X283.9286 Y65.7029 I-7.6403 J-4.1612
G1 X269.6027 Y34.3481
G1 X261.3583 Y69.2495
G3 X245.1098 Y71.1402 I-8.467 J-2.0001
G1 X228.8546 Y38.6299
G1 X212.1503 Y79.8993
G3 X195.9213 Y79.6401 I-8.0644 J-3.2642
G1 X178.6624 Y32.748
G1 X161.8885 Y72.5083
G3 X146.0087 Y72.8479 I-8.0159 J-3.3817
G1 X133.5193 Y46.4551
G1 X129.6354 Y73.6419
G3 X116.5826 Y79.8931 I-8.6126 J-1.2304
G1 X85.6001 Y61.5052
G1 X101.4827 Y91.3156
G3 X96.5017 Y103.6778 I-7.6782 J4.0909
G1 X64.1252 Y114.2353
G1 X95.8734 Y120.1738
G3 X99.2568 Y135.8571 I-1.5996 J8.5517
G1 X55.602 Y166.3594
G1 X102.0081 Y159.9952
G3 X111.2963 Y171.7735 I1.1821 J8.6193
G1 X98.5927 Y204.3715
G1 X138.0026 Y171.7662
G3 X152.124 Y179.9357 I5.5459 J6.7032
G1 X144.4853 Y224.6104
G1 X170.8078 Y180.5756
G3 X186.73 Y182.9879 I7.4675 J4.4638
G1 X196.5232 Y223.3478
G1 X213.6294 Y188.2656
G3 X229.4497 Y188.6603 I7.8199 J3.813
G1 X241.5892 Y217.072
G1 X250.5846 Y183.2712
G3 X266.9186 Y181.9228 I8.4074 J2.2374
G1 X282.6532 Y216.7046
G1 X287.5468 Y193.1263
G3 X302.5549 Y189.1 I8.5185 J1.768
G1 X333.0455 Y223.2494
G1 X331.0199 Y183.6062
G3 X345.199 Y176.4136 I8.6887 J-0.4439
G1 X382.5803 Y206.8254
G1 X376.1854 Y169.6189
G3 X388.2931 Y160.1951 I8.5743 J-1.4737
G1 X434.1371 Y180.5702
G1 X394.5213 Y133.3808
G3 X395.7497 Y120.9934 I6.6633 J-5.5938
G1 X436.2377 Y88.603
G1 X382.7201 Y90.4918
G3 X373.7169 Y81.5464 I-0.3069 J-8.6946
G1 X374.4535 Y56.009
G1 X346.5779 Y86.2825
G3 X336.7315 Y88.3777 I-6.4001 J-5.8931
G1 F300.0 X337.2069 Y87.2758
G3 F800.0 X332.9521 Y82.3992 I2.971 J-6.8865
G1 X318.2019 Y29.3687
G1 X298.4282 Y65.6746
G3 X285.02 Y65.2042 I-6.5865 J-3.5873
G1 X269.2395 Y30.6657
G1 X260.1904 Y68.9737
G3 X246.1831 Y70.6036 I-7.2991 J-1.7242
G1 X228.7394 Y35.7162
G1 X211.038 Y79.4491
G3 X197.0475 Y79.2256 I-6.9521 J-2.8139
G1 X178.7385 Y29.4804
G1 X160.7829 Y72.0419
G3 X147.0934 Y72.3346 I-6.9102 J-2.9153
G1 X132.896 Y42.3326
G1 X128.4475 Y73.4722
G3 X117.1951 Y78.8612 I-7.4246 J-1.0607
G1 X82.5244 Y58.2843
G1 X100.4236 Y91.8798
G3 X96.1296 Y102.5369 I-6.6191 J3.5266
G1 X59.2864 Y114.551
G1 X95.6527 Y121.3533
G3 X98.5695 Y134.8734 I-1.379 J7.3721
G1 X50.8384 Y168.224
G1 X102.1711 Y161.1841
G3 X110.1782 Y171.3378 I1.019 J7.4304
G1 X95.7963 Y208.2426
G1 X138.7675 Y172.6908
G3 X150.9412 Y179.7335 I4.7809 J5.7787
G1 X142.22 Y230.7387
G1 X171.8378 Y181.1913
G3 X185.5639 Y183.2709 I6.4375 J3.8481
G1 X196.1423 Y226.867
G1 X214.708 Y188.7915
G3 X228.3462 Y189.1318 I6.7413 J3.2871
G1 X241.8535 Y220.7448
G1 X251.7442 Y183.5798
G3 X265.8253 Y182.4174 I7.2477 J1.9288
G1 X283.0791 Y220.5575
G1 X288.7218 Y193.3702
G3 X301.6598 Y189.8992 I7.3435 J1.5241
G1 X334.4176 Y226.5879
G1 X332.2183 Y183.545
G3 X344.4417 Y177.3444 I7.4902 J-0.3827
G1 X384.3049 Y209.7755
G1 X377.3681 Y169.4157
G3 X387.8057 Y161.2916 I7.3916 J-1.2704
G1 X438.395 Y183.7758
G1 X395.4404 Y132.6092
G3 X396.4994 Y121.9304 I5.7442 J-4.8223
G1 X439.8175 Y87.2759
G1 X382.6778 Y89.2926
G3 X374.9164 Y81.581 I-0.2645 J-7.4953
G1 X375.7456 Y52.8342
G1 X345.6951 Y85.4697
G3 X337.2069 Y87.2758 I-5.5173 J-5.0803
G1 F300.0 X337.6822 Y86.174
G3 F800.0 X334.1082 Y82.0776 I2.4956 J-5.7846
G1 X318.5645 Y26.1942
G1 X297.3744 Y65.1007
G3 X286.1115 Y64.7055 I-5.5326 J-3.0133
G1 X268.8764 Y26.9833
G1 X259.0225 Y68.6978
G3 X247.2564 Y70.0669 I-6.1313 J-1.4483
G1 X228.6242 Y32.8025
G1 X209.9257 Y78.9988
G3 X198.1736 Y78.8112 I-5.8398 J-2.3637
G1 X178.8146 Y26.2129
G1 X159.6773 Y71.5754
G3 X148.1781 Y71.8214 I-5.8046 J-2.4488
G1 X132.2728 Y38.2101
G1 X127.2596 Y73.3025
G3 X117.8075 Y77.8293 I-6.2367 J-0.891
G1 X79.4487 Y55.0635
G1 X99.3646 Y92.4441
G3 X95.7576 Y101.396 I-5.5601 J2.9623
G1 X54.4475 Y114.8667
G1 X95.4321 Y122.5329
G3 X97.8821 Y133.8898 I-1.1583 J6.1926
G1 X46.0748 Y170.0885
G1 X102.3342 Y162.3729
G3 X109.0602 Y170.9021 I0.856 J6.2416
G1 X92.9998 Y212.1137
G1 X139.5325 Y173.6154
G3 X149.7583 Y179.5312 I4.016 J4.8541
G1 X139.9548 Y236.8671
G1 X172.8678 Y181.807
G3 X184.3977 Y183.5538 I5.4075 J3.2324
G1 X195.7614 Y230.3862
G1 X215.7867 Y189.3175
G3 X227.2427 Y189.6033 I5.6627 J2.7611
G1 X242.1179 Y224.4176
G1 X252.9039 Y183.8885
G3 X264.7319 Y182.912 I6.0881 J1.6202
G1 X283.505 Y224.4104
G1 X289.8967 Y193.6141
G3 X300.7647 Y190.6984 I6.1685 J1.2803
G1 X335.7897 Y229.9265
G1 X333.4168 Y183.4837
G3 X343.6844 Y178.2753 I6.2918 J-0.3215
G1 X386.0295 Y212.7256
G1 X378.5507 Y169.2124
G3 X387.3184 Y162.3882 I6.209 J-1.0672
G1 X442.653 Y186.9814
G1 X396.3595 Y131.8376
G3 X397.249 Y122.8674 I4.8251 J-4.0507
G1 X443.3973 Y85.9488
G1 X382.6355 Y88.0933
G3 X376.1159 Y81.6156 I-0.2222 J-6.2961
G1 X377.0377 Y49.6594
G1 X344.8124 Y84.6568
G3 X337.6822 Y86.174 I-4.6345 J-4.2674
G1 F300.0 X338.1576 Y85.0722
G3 F800.0 X335.2644 Y81.756 I2.0202 J-4.6828
G1 X318.9271 Y23.0196
G1 X296.3205 Y64.5267
G3 X287.203 Y64.2068 I-4.4788 J-2.4393
G1 X268.5132 Y23.3009
G1 X257.8547 Y68.4219
G3 X248.3297 Y69.5303 I-4.9634 J-1.1725
G1 X228.509 Y29.8888
G1 X208.8133 Y78.5486
G3 X199.2998 Y78.3967 I-4.7274 J-1.9135
G1 X178.8906 Y22.9454
G1 X158.5716 Y71.109
G3 X149.2628 Y71.3081 I-4.699 J-1.9824
G1 X131.6495 Y34.0876
G1 X126.0716 Y73.1328
G3 X118.42 Y76.7973 I-5.0487 J-0.7212
G1 X76.3729 Y51.8426
G1 X98.3055 Y93.0083
G3 X95.3856 Y100.2551 I-4.501 J2.3981
G1 X49.6087 Y115.1824
G1 X95.2115 Y123.7124
G3 X97.1948 Y132.9061 I-0.9377 J5.0131
G1 X41.3111 Y171.953
G1 X102.4972 Y163.5618
G3 X107.9421 Y170.4663 I0.6929 J5.0527
G1 X90.2033 Y215.9848
G1 X140.2974 Y174.5399
G3 X148.5755 Y179.329 I3.251 J3.9295
G1 X137.6895 Y242.9955
G1 X173.8978 Y182.4227
G3 X183.2315 Y183.8368 I4.3775 J2.6167
G1 X195.3805 Y233.9053
G1 X216.8653 Y189.8434
G3 X226.1392 Y190.0748 I4.5841 J2.2352
G1 X242.3822 Y228.0904
G1 X254.0635 Y184.1971
G3 X263.6386 Y183.4066 I4.9285 J1.3116
G1 X283.9309 Y228.2634
G1 X291.0717 Y193.8579
G3 X299.8696 Y191.4976 I4.9936 J1.0364
G1 X337.1619 Y233.2651
G1 X334.6152 Y183.4225
G3 X342.9271 Y179.2061 I5.0934 J-0.2602
G1 X387.7542 Y215.6756
G1 X379.7334 Y169.0091
G3 X386.831 Y163.4848 I5.0263 J-0.8639
G1 X446.9109 Y190.187
G1 X397.2785 Y131.0661
G3 X397.9986 Y123.8045 I3.906 J-3.2791
G1 X446.9771 Y84.6217
G1 X382.5932 Y86.8941
G3 X377.3154 Y81.6502 I-0.1799 J-5.0968
G1 X378.3298 Y46.4846
G1 X343.9296 Y83.844
G3 X338.1576 Y85.0722 I-3.7518 J-3.4546
G1 F300.0 X338.6329 Y83.9703
G3 F800.0 X336.4205 Y81.4345 I1.5449 J-3.581
G1 X319.2896 Y19.845
G1 X295.2667 Y63.9527
G3 X288.2945 Y63.7081 I-3.425 J-1.8654
G1 X268.15 Y19.6184
G1 X256.6868 Y68.1461
G3 X249.403 Y68.9936 I-3.7955 J-0.8966
G1 X228.3937 Y26.9751
G1 X207.701 Y78.0984
G3 X200.4259 Y77.9822 I-3.6151 J-1.4633
G1 X178.9667 Y19.6779
G1 X157.466 Y70.6425
G3 X150.3474 Y70.7948 I-3.5933 J-1.5159
G1 X131.0263 Y29.9651
G1 X124.8837 Y72.9631
G3 X119.0324 Y75.7654 I-3.8608 J-0.5515
G1 X73.2972 Y48.6217
G1 X97.2465 Y93.5726
G3 X95.0136 Y99.1143 I-3.442 J1.8338
G1 X44.7698 Y115.4981
G1 X94.9908 Y124.892
G3 X96.5075 Y131.9224 I-0.7171 J3.8335
G1 X36.5475 Y173.8176
G1 X102.6602 Y164.7507
G3 X106.824 Y170.0306 I0.5299 J3.8638
G1 X87.4068 Y219.8559
G1 X141.0624 Y175.4645
G3 X147.3927 Y179.1267 I2.4861 J3.0049
G1 X135.4242 Y249.1238
G1 X174.9278 Y183.0384
G3 X182.0654 Y184.1198 I3.3475 J2.001
G1 X194.9996 Y237.4245
G1 X217.9439 Y190.3693
G3 X225.0357 Y190.5463 I3.5055 J1.7093
G1 X242.6465 Y231.7632
G1 X255.2231 Y184.5057
G3 X262.5453 Y183.9012 I3.7688 J1.003
G1 X284.3569 Y232.1163
G1 X292.2467 Y194.1018
G3 X298.9744 Y192.2969 I3.8186 J0.7925
G1 X338.534 Y236.6036
G1 X335.8136 Y183.3613
G3 X342.1698 Y180.137 I3.8949 J-0.199
G1 X389.4788 Y218.6257
G1 X380.916 Y168.8058
G3 X386.3436 Y164.5814 I3.8436 J-0.6606
G1 X451.1688 Y193.3925
G1 X398.1976 Y130.2945
G3 X398.7483 Y124.7415 I2.987 J-2.5076
G1 X450.5569 Y83.2946
G1 X382.5508 Y85.6948
G3 X378.5149 Y81.6848 I-0.1376 J-3.8976
G1 X379.6219 Y43.3099
G1 X343.0468 Y83.0311
G3 X338.6329 Y83.9703 I-2.869 J-2.6418
G1 F300.0 X339.1083 Y82.8685
G3 F800.0 X337.5766 Y81.1129 I1.0695 J-2.4791
G1 X319.6522 Y16.6705
G1 X294.2129 Y63.3788
G3 X289.3859 Y63.2094 I-2.3711 J-1.2914
G1 X267.7869 Y15.936
G1 X255.519 Y67.8702
G3 X250.4763 Y68.4569 I-2.6277 J-0.6207
G1 X228.2785 Y24.0614
G1 X206.5887 Y77.6481
G3 X201.5521 Y77.5677 I-2.5028 J-1.013
G1 X179.0428 Y16.4104
G1 X156.3603 Y70.1761
G3 X151.4321 Y70.2815 I-2.4877 J-1.0495
G1 X130.403 Y25.8426
G1 X123.6957 Y72.7934
G3 X119.6449 Y74.7334 I-2.6729 J-0.3818
G1 X70.2215 Y45.4009
G1 X96.1874 Y94.1368
G3 X94.6415 Y97.9734 I-2.3829 J1.2696
G1 X39.9309 Y115.8138
G1 X94.7702 Y126.0715
G3 X95.8202 Y130.9387 I-0.4964 J2.654
G1 X31.7839 Y175.6821
G1 X102.8233 Y165.9395
G3 X105.7059 Y169.5949 I0.3669 J2.675
G1 X84.6103 Y223.727
G1 X141.8273 Y176.3891
G3 X146.2098 Y178.9245 I1.7211 J2.0803
G1 X133.159 Y255.2522
G1 X175.9578 Y183.6541
G3 X180.8992 Y184.4027 I2.3175 J1.3853
G1 X194.6187 Y240.9437
G1 X219.0225 Y190.8953
G3 X223.9322 Y191.0178 I2.4269 J1.1833
G1 X242.9109 Y235.4359
G1 X256.3828 Y184.8143
G3 X261.4519 Y184.3958 I2.6092 J0.6944
G1 X284.7828 Y235.9692
G1 X293.4216 Y194.3456
G3 X298.0793 Y193.0961 I2.6437 J0.5487
G1 X339.9062 Y239.9422
G1 X337.0121 Y183.3
G3 X341.4125 Y181.0678 I2.6965 J-0.1378
G1 X391.2035 Y221.5757
G1 X382.0987 Y168.6026
G3 X385.8563 Y165.6779 I2.661 J-0.4574
G1 X455.4267 Y196.5981
G1 X399.1167 Y129.5229
G3 X399.4979 Y125.6786 I2.0679 J-1.736
G1 X454.1367 Y81.9675
G1 X382.5085 Y84.4955
G3 X379.7144 Y81.7194 I-0.0952 J-2.6983
G1 X380.9139 Y40.1351
G1 X342.1641 Y82.2183
G3 X339.1083 Y82.8685 I-1.9862 J-1.8289
G1 F300.0 X339.5836 Y81.7667
G3 F800.0 X338.7327 Y80.7913 I0.5942 J-1.3773
G1 X320.0148 Y13.4959
G1 X293.159 Y62.8048
G3 X290.4774 Y62.7107 I-1.3173 J-0.7175
G1 X267.4237 Y12.2536
G1 X254.3511 Y67.5943
G3 X251.5496 Y67.9203 I-1.4598 J-0.3448
G1 X228.1633 Y21.1477
G1 X205.4763 Y77.1979
G3 X202.6782 Y77.1532 I-1.3904 J-0.5628
G1 X179.1188 Y13.1428
G1 X155.2547 Y69.7096
G3 X152.5168 Y69.7682 I-1.382 J-0.5831
G1 X129.7798 Y21.7201
G1 X122.5078 Y72.6237
G3 X120.2573 Y73.7015 I-1.4849 J-0.2121
G1 X67.1458 Y42.18
G1 X95.1283 Y94.7011
G3 X94.2695 Y96.8325 I-1.3238 J0.7053
G1 X35.0921 Y116.1295
G1 X94.5496 Y127.2511
G3 X95.1329 Y129.9551 I-0.2758 J1.4744
G1 X27.0202 Y177.5466
G1 X102.9863 Y167.1284
G3 X104.5878 Y169.1592 I0.2038 J1.4861
G1 X81.8138 Y227.5981
G1 X142.5923 Y177.3137
G3 X145.027 Y178.7222 I0.9562 J1.1557
G1 X130.8937 Y261.3805
G1 X176.9878 Y184.2698
G3 X179.7331 Y184.6857 I1.2875 J0.7696
G1 X194.2378 Y244.4629
G1 X220.1011 Y191.4212
G3 X222.8287 Y191.4893 I1.3483 J0.6574
G1 X243.1752 Y239.1087
G1 X257.5424 Y185.1229
G3 X260.3586 Y184.8904 I1.4495 J0.3858
G1 X285.2087 Y239.8221
G1 X294.5966 Y194.5895
G3 X297.1842 Y193.8953 I1.4687 J0.3048
G1 X341.2783 Y243.2808
G1 X338.2105 Y183.2388
G3 X340.6552 Y181.9987 I1.498 J-0.0765
G1 X392.9281 Y224.5258
G1 X383.2814 Y168.3993
G3 X385.3689 Y166.7745 I1.4783 J-0.2541
G1 X459.6846 Y199.8037
G1 X400.0357 Y128.7514
G3 X400.2475 Y126.6156 I1.1488 J-0.9645
G1 X457.7165 Y80.6404
G1 X382.4662 Y83.2963
G3 X380.9139 Y81.754 I-0.0529 J-1.4991
G1 X382.206 Y36.9603
G1 X341.2813 Y81.4054
G3 X339.5836 Y81.7667 I-1.1035 J-1.0161
G0 Z3.0
G0 X308.7834 Y129.8107
G0 Z0.2
G1 F300.0 Z-0.4
G2 F800.0 X308.2946 Y129.7993 I-0.2537 J0.3957
G2 Y130.6135 I0.235 J0.4071
G2 X308.9998 Y130.2064 I0.235 J-0.4071
G2 X308.7834 Y129.8107 I-0.4701 J0.0
G1 F300.0 X309.1072 Y129.3056
G2 F800.0 X307.9946 Y129.2797 I-0.5775 J0.9009
G2 Y131.1332 I0.535 J0.9267
G2 X309.5998 Y130.2064 I0.535 J-0.9267
G2 X309.1072 Y129.3056 I-1.0701 J0.0
G1 F300.0 X309.7548 Y128.2953
G2 F800.0 X307.3946 Y128.2405 I-1.2252 J1.9111
G2 Y132.1724 I1.135 J1.966
G2 X310.7998 Y130.2064 I1.135 J-1.966
G2 X309.7548 Y128.2953 I-2.2701 J0.0
G0 Z3.0
G0 X277.519 Y124.1139
G0 Z0.2
G1 F300.0 Z-0.4
G2 F800.0 X277.5229 Y124.0534 I-0.4662 J-0.0605
G2 X276.8178 Y123.6463 I-0.4701 J0.0
G2 Y124.4605 I0.2351 J0.4071
G2 X277.519 Y124.1139 I0.2351 J-0.4071
G1 F300.0 X278.114 Y124.1911
G2 F800.0 X278.1229 Y124.0534 I-1.0612 J-0.1377
G2 X276.5178 Y123.1267 I-1.0701 J0.0
G2 Y124.9802 I0.5351 J0.9267
G2 X278.114 Y124.1911 I0.5351 J-0.9267
G1 F300.0 X279.3041 Y124.3454
G2 F800.0 X279.3229 Y124.0534 I-2.2512 J-0.292
G2 X275.9178 Y122.0875 I-2.2701 J0.0
G2 Y126.0194 I1.135 J1.966
G2 X279.3041 Y124.3454 I1.135 J-1.966
G0 Z3.0
G0 X271.7515 Y144.4214
G0 Z0.2
G1 F300.0 Z-0.4
G2 F800.0 X271.351 Y144.4542 I-0.1655 J0.44
G2 Y145.2685 I0.2351 J0.4071
G2 X272.0561 Y144.8614 I0.2351 J-0.4071
G2 X271.7515 Y144.4214 I-0.4701 J0.0
G1 F300.0 X271.9628 Y143.8598
G2 F800.0 X271.051 Y143.9346 I-0.3768 J1.0016
G2 Y145.7881 I0.5351 J0.9267
G2 X272.6561 Y144.8614 I0.5351 J-0.9267
G2 X271.9628 Y143.8598 I-1.0701 J0.0
G1 F300.0 X272.3853 Y142.7366
G2 F800.0 X270.451 Y142.8954 I-0.7993 J2.1247
G2 Y146.8273 I1.135 J1.966
G2 X273.8561 Y144.8614 I1.135 J-1.966
G2 X272.3853 Y142.7366 I-2.2701 J0.0
G0 Z3.0
G0 X190.2564 Y130.2769
G0 Z0.2
G1 F300.0 Z-0.4
G2 F800.0 X190.2617 Y130.2064 I-0.4648 J-0.0705
G2 X189.5566 Y129.7993 I-0.4701 J0.0
G2 Y130.6135 I0.235 J0.4071
G2 X190.2564 Y130.2769 I0.235 J-0.4071
G1 F300.0 X190.8496 Y130.3669
G2 F800.0 X190.8617 Y130.2064 I-1.058 J-0.1605
G2 X189.2566 Y129.2797 I-1.0701 J0.0
G2 Y131.1332 I0.535 J0.9267
G2 X190.8496 Y130.3669 I0.535 J-0.9267
G1 F300.0 X192.036 Y130.5469
G2 F800.0 X192.0617 Y130.2064 I-2.2444 J-0.3405
G2 X188.6566 Y128.2405 I-2.2701 J0.0
G2 Y132.1724 I1.135 J1.966
G2 X192.036 Y130.5469 I1.135 J-1.966
( Pocket1 )
S1000
G0 Z3.0
G0 X294.0498 Y128.625
G0 Z0.2
G1 F300.0 Z-0.4
G3 F800.0 X294.6744 Y128.6089 I2.0154 J66.2694
G3 X294.3894 Y128.3384 I45.5035 J-48.2195
G3 X294.1839 Y128.346 I-2.5477 J-66.251
G1 F300.0 X294.2771 Y128.1425
G2 F800.0 X294.4663 Y128.1352 I-2.4353 J-66.0551
G2 X295.1713 Y128.8004 I45.7115 J-47.7459
G2 X293.9475 Y128.8283 I0.894 J66.094
G1 F300.0 X293.73 Y129.2358
G3 F800.0 X296.0707 Y129.1943 I2.3353 J65.6585
G1 F300.0 X296.0796 Y129.0908
G3 F800.0 X294.6203 Y127.7286 I44.0983 J-48.7015
G3 X294.4523 Y127.7355 I-2.7786 J-65.6412
G1 F300.0 X294.613 Y127.3285
G2 F800.0 X294.7744 Y127.3215 I-2.7713 J-65.2412
G2 X296.1334 Y128.5991 I45.4034 J-46.9321
G0 Z3.0
G0 X296.0447 Y129.5943
G0 Z0.2
G1 F300.0 Z-0.4
G2 F800.0 X293.4944 Y129.6449 I0.0206 J65.3
G1 F300.0 X293.2395 Y130.0559
G3 F800.0 X296.0315 Y129.9943 I2.8258 J64.8385
G0 Z3.0
G0 X296.2047 Y128.1217
G0 Z0.2
G1 F300.0 Z-0.4
G3 F800.0 X294.9288 Y126.9139 I43.9731 J-47.7323
G3 X294.7597 Y126.9217 I-3.087 J-64.8265
G1 F300.0 X294.8929 Y126.5152
G2 F800.0 X295.0833 Y126.5059 I-3.0511 J-64.4278
G2 X296.2922 Y127.6578 I45.0946 J-46.1165
G0 Z3.0
G0 X296.0311 Y130.3943
G0 Z0.2
G1 F300.0 Z-0.4
G2 F800.0 X292.9634 Y130.469 I0.0342 J64.5
G1 F300.0 X292.6641 Y130.8846
G3 F800.0 X296.0435 Y130.7943 I3.4011 J64.0097
G0 Z3.0
G0 X296.3949 Y127.2068
G0 Z0.2
G1 F300.0 Z-0.4
G3 F800.0 X295.2379 Y126.0973 I43.7829 J-46.8174
G3 X295.0128 Y126.1089 I-3.3962 J-64.01
G1 F300.0 X295.1199 Y125.703
G2 F800.0 X295.3928 Y125.6883 I-3.2782 J-63.6156
G2 X296.5119 Y126.768 I44.785 J-45.2989
G0 Z3.0
G0 X296.0688 Y131.1943
G0 Z0.2
G1 F300.0 Z-0.4
G2 F800.0 X292.441 Y131.2975 I-0.0035 J63.7
G2 X292.376 Y131.2575 I-33.4491 J54.2112
G1 F300.0 X292.1196 Y131.5694
G3 F800.0 X292.3381 Y131.7042 I-33.1277 J53.9393
G3 X296.107 Y131.5943 I3.7272 J63.1902
G0 Z3.0
G0 X296.6423 Y126.341
G0 Z0.2
G1 F300.0 Z-0.4
G3 F800.0 X295.5479 Y125.2788 I43.5355 J-45.9516
G3 X295.2145 Y125.2974 I-3.7062 J-63.1914
G1 F300.0 X295.2969 Y124.8924
G2 F800.0 X295.7031 Y124.8687 I-3.4551 J-62.805
G2 X296.7856 Y125.9254 I44.4747 J-44.4793
G0 Z3.0
G0 X296.1582 Y131.9944
G0 Z0.2
G1 F300.0 Z-0.4
G2 F800.0 X292.2351 Y132.1111 I-0.0929 J62.8999
G2 X291.8535 Y131.8754 I-33.2431 J53.3976
G1 F300.0 X291.5773 Y132.1754
G3 F800.0 X292.132 Y132.5182 I-32.5854 J53.3333
G3 X296.2227 Y132.3945 I3.9333 J62.3761
G0 Z3.0
G0 X296.9411 Y125.5207
G0 Z0.2
G1 F300.0 Z-0.4
G3 F800.0 X295.8586 Y124.4581 I43.2367 J-45.1313
G3 X295.3672 Y124.4878 I-4.0169 J-62.3708
G1 F300.0 X295.4258 Y124.0838
G2 F800.0 X296.0143 Y124.047 I-3.584 J-61.9965
G2 X297.1084 Y125.1267 I44.1636 J-43.6576
G0 Z3.0
G0 X296.3006 Y132.7948
G0 Z0.2
G1 F300.0 Z-0.4
G2 F800.0 X292.0288 Y132.9256 I-0.2353 J62.0996
G2 X291.2911 Y132.4693 I-33.0369 J52.583
G1 F300.0 X290.9944 Y132.7571
G3 F800.0 X291.9256 Y133.3334 I-32.0024 J52.7516
G3 X296.3922 Y133.1952 I4.1397 J61.561
G0 Z3.0
G0 X297.2868 Y124.7431
G0 Z0.2
G1 F300.0 Z-0.4
G3 F800.0 X296.1702 Y123.6353 I42.891 J-44.3537
G3 X295.4727 Y123.6804 I-4.3284 J-61.548
G1 F300.0 X295.5082 Y123.2776
G2 F800.0 X296.3262 Y123.2231 I-3.6665 J-61.1903
G2 X297.4761 Y124.3695 I43.8516 J-42.8337
G0 Z3.0
G0 X296.498 Y133.5959
G0 Z0.2
G1 F300.0 Z-0.4
G2 F800.0 X291.8223 Y133.7413 I-0.4327 J61.2985
G2 X290.687 Y133.0386 I-32.8304 J51.7673
G0 Z3.0
G0 X237.8768 Y127.9601
G0 Z0.2
G1 F300.0 Z-0.4
G3 F800.0 X240.0858 Y127.197 I21.1151 J57.5486
G3 X239.0711 Y126.9713 I12.8055 J-59.9476
G3 X237.786 Y127.8405 I-34.9852 J-50.3361
G1 F300.0 X237.5436 Y127.5212
G2 F800.0 X238.9884 Y126.5413 I-33.4577 J-50.8861
G2 X240.7074 Y126.9182 I13.9029 J-59.2918
G1 F300.0 X240.7094 Y127.4177
G2 F800.0 X238.1299 Y128.2934 I18.2826 J58.0909
G0 Z3.0
G0 X290.3687 Y133.3137
G0 Z0.2
G1 F300.0 Z-0.4
G3 F800.0 X291.719 Y134.1496 I-31.3767 J52.1949
G3 X296.6182 Y133.9968 I4.3463 J60.7447
G0 Z3.0
G0 X297.6759 Y124.0059
G0 Z0.2
G1 F300.0 Z-0.4
G3 F800.0 X296.4826 Y122.8103 I42.5019 J-43.6165
G3 X295.5324 Y122.8754 I-4.6408 J-60.7229
G1 F300.0 X295.5454 Y122.4739
G2 F800.0 X296.6391 Y122.3969 I-3.7036 J-60.3865
G2 X297.886 Y123.6519 I43.5387 J-42.0075
G0 Z3.0
G0 X296.7535 Y134.3982
G0 Z0.2
G1 F300.0 Z-0.4
G2 F800.0 X291.6155 Y134.5582 I-0.6882 J60.4961
G2 X290.0388 Y133.5824 I-32.6236 J50.9505
G0 Z3.0
G0 X240.711 Y127.8367
G0 Z0.2
G1 F300.0 Z-0.4
G2 F800.0 X238.3831 Y128.627 I18.281 J57.672
G0 Z3.0
G0 X237.3012 Y127.2019
G0 Z0.2
G1 F300.0 Z-0.4
G2 F800.0 X238.9056 Y126.1108 I-33.2153 J-50.5667
G2 X240.7058 Y126.5096 I13.9857 J-58.8613
G1 F300.0 X240.7042 Y126.1008
G3 F800.0 X238.8227 Y125.6796 I12.1871 J-58.8514
G3 X237.0587 Y126.8825 I-34.7368 J-49.0445
G0 Z3.0
G0 X238.6365 Y128.9608
G0 Z0.2
G1 F300.0 Z-0.4
G3 F800.0 X240.7126 Y128.2559 I20.3554 J56.5479
G0 Z3.0
G0 X229.3441 Y131.1698
G0 Z0.2
G1 F300.0 Z-0.4
G3 F800.0 X229.3294 Y131.1766 I-25.2582 J-54.5347
G0 Z3.0
G0 X289.6971 Y133.8443
G0 Z0.2
G1 F300.0 Z-0.4
G3 F800.0 X291.512 Y134.9671 I-30.7051 J51.6644
G3 X296.9044 Y134.8002 I4.5533 J59.9273
G0 Z3.0
G0 X298.1059 Y123.3075
G0 Z0.2
G1 F300.0 Z-0.4
G3 F800.0 X296.7959 Y121.9828 I42.0719 J-42.9181
G3 X295.5472 Y122.073 I-4.9541 J-59.8955
G1 F300.0 X295.538 Y121.6728
G2 F800.0 X296.9529 Y121.5682 I-3.6963 J-59.5855
G2 X298.3356 Y122.9724 I43.225 J-41.1788
G0 Z3.0
G0 X297.0716 Y135.2028
G0 Z0.2
G1 F300.0 Z-0.4
G2 F800.0 X291.4084 Y135.3762 I-1.0064 J59.6915
G2 X289.3428 Y134.0994 I-32.4165 J50.1324
G0 Z3.0
G0 X240.7143 Y128.6754
G0 Z0.2
G1 F300.0 Z-0.4
G2 F800.0 X238.8901 Y129.2947 I18.2777 J56.8332
G0 Z3.0
G0 X236.8163 Y126.5632
G0 Z0.2
G1 F300.0 Z-0.4
G2 F800.0 X238.7397 Y125.2479 I-32.7304 J-49.9281
G2 X240.7026 Y125.692 I14.1516 J-57.9985
G0 Z3.0
G0 X229.3441 Y130.7287
G0 Z0.2
G1 F300.0 Z-0.4
G3 F800.0 X229.1411 Y130.823 I-25.2582 J-54.0936
G1 F300.0 X228.9527 Y130.4694
G2 F800.0 X229.3441 Y130.2869 I-24.8668 J-53.8343
G0 Z3.0
G0 X236.5738 Y126.2438
G0 Z0.2
G1 F300.0 Z-0.4
G2 F800.0 X238.6565 Y124.8156 I-32.4879 J-49.6087
G2 X240.701 Y125.283 I14.2347 J-57.5662
G0 Z3.0
G0 X240.7159 Y129.0952
G0 Z0.2
G1 F300.0 Z-0.4
G2 F800.0 X239.1438 Y129.629 I18.276 J56.4134
G0 Z3.0
G0 X251.6732 Y126.662
G0 Z0.2
G1 F300.0 Z-0.4
G3 F800.0 X252.6482 Y126.549 I7.3187 J58.8466
G3 X251.6732 Y126.537 I0.2431 J-59.2995
G0 Z3.0
G0 X288.9755 Y134.3474
G0 Z0.2
G1 F300.0 Z-0.4
G3 F800.0 X291.3048 Y135.7857 I-29.9835 J51.1613
G3 X297.2562 Y135.6063 I4.7605 J59.1086
G0 Z3.0
G0 X298.5748 Y122.6466
G0 Z0.2
G1 F300.0 Z-0.4
G3 F800.0 X297.1101 Y121.1529 I41.603 J-42.2573
G3 X295.5178 Y121.2733 I-5.2684 J-59.0655
G1 F300.0 X295.4865 Y120.8745
G2 F800.0 X297.2676 Y120.7369 I-3.6448 J-58.7871
G2 X298.8234 Y122.33 I42.9102 J-40.3475
G0 Z3.0
G0 X297.459 Y136.0108
G0 Z0.2
G1 F300.0 Z-0.4
G2 F800.0 X291.201 Y136.1955 I-1.3937 J58.8835
G2 X288.5942 Y134.588 I-32.2091 J49.3131
G0 Z3.0
G0 X256.5779 Y126.6582
G0 Z0.2
G1 F300.0 Z-0.4
G2 F800.0 X251.6732 Y127.0651 I2.4141 J58.8505
G0 Z3.0
G0 Y126.1369
G0 Z0.2
G1 F300.0 Z-0.4
G2 F800.0 X256.5779 Y126.034 I1.218 J-58.8874
G0 Z3.0
G0 X240.6994 Y124.8738
G0 Z0.2
G1 F300.0 Z-0.4
G3 F800.0 X238.5733 Y124.3827 I12.1919 J-57.6244
G3 X236.3314 Y125.9245 I-34.4874 J-47.7476
G0 Z3.0
G0 X239.3977 Y129.9634
G0 Z0.2
G1 F300.0 Z-0.4
G3 F800.0 X240.7176 Y129.5153 I19.5942 J55.5453
G0 Z3.0
G0 X229.3441 Y129.8444
G0 Z0.2
G1 F300.0 Z-0.4
G3 F800.0 X228.7644 Y130.1158 I-25.2582 J-53.2093
G0 Z3.0
G0 X169.96 Y125.7871
G0 Z0.2
G1 F300.0 Z-0.4
G2 F800.0 X171.1192 Y125.445 I-16.0873 J-56.6605
G2 X172.6005 Y126.4134 I32.9667 J-48.8099
G2 X171.3565 Y126.5472 I5.6749 J58.626
G2 X169.9266 Y125.8063 I-27.8081 J51.9223
G1 F300.0 X169.5111 Y126.0462
G3 F800.0 X171.2785 Y126.9593 I-25.9626 J52.4232
G3 X173.8376 Y126.708 I6.9968 J58.0801
G3 X171.2434 Y125.0461 I30.2483 J-50.0728
G0 Z3.0
G0 X219.2411 Y133.1379
G0 Z0.2
G1 F300.0 Z-0.4
G3 F800.0 X216.6073 Y133.7794 I-15.1552 J-56.5028
G3 X219.4933 Y133.6113 I4.842 J58.2993
G0 Z3.0
G0 X228.576 Y129.7622
G0 Z0.2
G1 F300.0 Z-0.4
G2 F800.0 X229.3441 Y129.4013 I-24.4901 J-53.1271
G0 Z3.0
G0 X236.0889 Y125.6051
G0 Z0.2
G1 F300.0 Z-0.4
G2 F800.0 X238.4899 Y123.9491 I-32.003 J-48.97
G2 X240.6978 Y124.4646 I14.4014 J-56.6996
G0 Z3.0
G0 X240.7192 Y129.9357
G0 Z0.2
G1 F300.0 Z-0.4
G2 F800.0 X239.6518 Y130.2981 I18.2727 J55.573
G0 Z3.0
G0 X251.6732 Y127.4683
G0 Z0.2
G1 F300.0 Z-0.4
G3 F800.0 X256.5779 Y127.0585 I7.3187 J58.0404
G0 Z3.0
G0 Y125.6332
G0 Z0.2
G1 F300.0 Z-0.4
G3 F800.0 X251.6732 Y125.7368 I-3.6866 J-58.3837
G0 Z3.0
G0 X288.1981 Y134.8209
G0 Z0.2
G1 F300.0 Z-0.4
G3 F800.0 X291.0972 Y136.6057 I-29.2061 J50.6878
G3 X297.6815 Y136.4167 I4.9681 J58.2887
G0 Z3.0
G0 X299.0812 Y122.0225
G0 Z0.2
G1 F300.0 Z-0.4
G3 F800.0 X297.4254 Y120.3203 I41.0966 J-41.6331
G3 X295.4442 Y120.4763 I-5.5836 J-58.2329
G1 F300.0 X295.3909 Y120.0789
G2 F800.0 X297.5834 Y119.903 I-3.5491 J-57.9915
G2 X299.3482 Y121.724 I42.5944 J-39.5136
G0 Z3.0
G0 X297.9251 Y136.8241
G0 Z0.2
G1 F300.0 Z-0.4
G2 F800.0 X290.9933 Y137.0161 I-1.8598 J58.0702
G2 X287.786 Y135.0457 I-32.0013 J48.4925
G0 Z3.0
G0 X256.5779 Y127.4588
G0 Z0.2
G1 F300.0 Z-0.4
G2 F800.0 X251.6732 Y127.8715 I2.4141 J58.0498
G0 Z3.0
G0 Y125.3367
G0 Z0.2
G1 F300.0 Z-0.4
G2 F800.0 X256.5779 Y125.2324 I1.218 J-58.0872
G0 Z3.0
G0 X240.6962 Y124.0552
G0 Z0.2
G1 F300.0 Z-0.4
G3 F800.0 X238.4064 Y123.5149 I12.1951 J-56.8057
G3 X235.8464 Y125.2857 I-34.3205 J-46.8798
G0 Z3.0
G0 X239.9061 Y130.633
G0 Z0.2
G1 F300.0 Z-0.4
G3 F800.0 X240.7209 Y130.3564 I19.0859 J54.8757
G0 Z3.0
G0 X229.3441 Y128.9575
G0 Z0.2
G1 F300.0 Z-0.4
G3 F800.0 X228.3876 Y129.4086 I-25.2582 J-52.3224
G0 Z3.0
G0 X219.7029 Y134.0049
G0 Z0.2
G1 F300.0 Z-0.4
G2 F800.0 X208.5239 Y135.4346 I1.7464 J58.0737
G2 X207.3051 Y134.7116 I-30.2486 J49.6048
G1 F300.0 X207.2656 Y134.648
G2 F800.0 X219.0481 Y132.7755 I-3.1797 J-58.0129
G0 Z3.0
G0 X171.6286 Y124.8237
G0 Z0.2
G1 F300.0 Z-0.4
G2 F800.0 X175.1605 Y127.0229 I32.4573 J-48.1885
G2 X171.2005 Y127.3718 I3.1148 J58.0164
G2 X169.0943 Y126.2869 I-27.6521 J51.0977
G1 F300.0 X168.6762 Y126.5283
G3 F800.0 X171.1224 Y127.7845 I-25.1278 J51.9412
G3 X176.5927 Y127.3639 I7.1529 J57.2549
G3 X172.0145 Y124.6009 I27.4932 J-50.7288
G0 Z3.0
G0 X207.0247 Y134.2602
G0 Z0.2
G1 F300.0 Z-0.4
G2 F800.0 X218.8549 Y132.4129 I-2.9388 J-57.6251
G0 Z3.0
G0 X219.9129 Y134.3991
G0 Z0.2
G1 F300.0 Z-0.4
G2 F800.0 X208.4544 Y135.861 I1.5365 J57.6795
G2 X207.7576 Y135.4401 I-30.1791 J49.1784
G0 Z3.0
G0 X228.1993 Y129.0549
G0 Z0.2
G1 F300.0 Z-0.4
G2 F800.0 X229.3441 Y128.513 I-24.1134 J-52.4198
G0 Z3.0
G0 X235.6039 Y124.9663
G0 Z0.2
G1 F300.0 Z-0.4
G2 F800.0 X238.3228 Y123.08 I-31.5181 J-48.3312
G2 X240.6946 Y123.6457 I14.5685 J-55.8305
G0 Z3.0
G0 X240.7225 Y130.7773
G0 Z0.2
G1 F300.0 Z-0.4
G2 F800.0 X240.1605 Y130.9682 I18.2694 J54.7313
G0 Z3.0
G0 X251.6732 Y128.2747
G0 Z0.2
G1 F300.0 Z-0.4
G3 F800.0 X256.5779 Y127.8592 I7.3187 J57.234
G0 Z3.0
G0 Y124.8316
G0 Z0.2
G1 F300.0 Z-0.4
G3 F800.0 X251.6732 Y124.9366 I-3.6866 J-57.5821
G0 Z3.0
G0 X287.3567 Y135.262
G0 Z0.2
G1 F300.0 Z-0.4
G3 F800.0 X290.8893 Y137.427 I-28.3648 J50.2467
G3 X298.1919 Y137.2335 I5.176 J57.4674
G0 Z3.0
G0 X299.6244 Y121.4346
G0 Z0.2
G1 F300.0 Z-0.4
G3 F800.0 X297.7417 Y119.4849 I40.5535 J-41.0452
G3 X295.3264 Y119.682 I-5.8999 J-57.3976
G1 F300.0 X295.2506 Y119.2859
G2 F800.0 X297.9002 Y119.0662 I-3.4089 J-57.1985
G2 X299.9096 Y121.1541 I42.2776 J-38.6768
G0 Z3.0
G0 X298.4842 Y137.6454
G0 Z0.2
G1 F300.0 Z-0.4
G2 F800.0 X290.7852 Y137.8381 I-2.4189 J57.2489
G2 X286.9086 Y135.4692 I-31.7932 J47.6706
G0 Z3.0
G0 X256.5779 Y128.2595
G0 Z0.2
G1 F300.0 Z-0.4
G2 F800.0 X251.6732 Y128.678 I2.4141 J57.2491
G0 Z3.0
G0 Y124.5365
G0 Z0.2
G1 F300.0 Z-0.4
G2 F800.0 X256.5779 Y124.4307 I1.218 J-57.2871
G0 Z3.0
G0 X240.693 Y123.236
G0 Z0.2
G1 F300.0 Z-0.4
G3 F800.0 X238.239 Y122.6444 I12.1983 J-55.9865
G3 X235.3615 Y124.6469 I-34.1531 J-46.0093
G0 Z3.0
G0 X229.3441 Y128.0677
G0 Z0.2
G1 F300.0 Z-0.4
G3 F800.0 X228.0109 Y128.7013 I-25.2582 J-51.4326
G0 Z3.0
G0 X218.6617 Y132.0502
G0 Z0.2
G1 F300.0 Z-0.4
G3 F800.0 X206.7833 Y133.8716 I-14.5758 J-55.4151
G0 Z3.0
G0 X208.2219 Y136.1876
G0 Z0.2
G1 F300.0 Z-0.4
G3 F800.0 X208.3848 Y136.2879 I-29.9465 J48.8518
G3 X220.1232 Y134.794 I13.0645 J55.7908
G0 Z3.0
G0 X240.4152 Y131.3036
G0 Z0.2
G1 F300.0 Z-0.4
G3 F800.0 X240.7242 Y131.1986 I18.5768 J54.2051
G0 Z3.0
G0 X177.6001 Y127.4465
G0 Z0.2
G1 F300.0 Z-0.4
G3 F800.0 X172.401 Y124.3777 I26.4858 J-50.8114
G0 Z3.0
G0 X168.2568 Y126.7704
G0 Z0.2
G1 F300.0 Z-0.4
G3 F800.0 X171.0443 Y128.1975 I-24.7083 J51.699
G3 X177.5365 Y127.7442 I7.2311 J56.8419
G1 F300.0 X177.4627 Y128.1452
G2 F800.0 X170.9661 Y128.6108 I0.8126 J56.8942
G2 X167.836 Y127.0134 I-27.4176 J49.8586
G0 Z3.0
G0 X172.7882 Y124.1542
G0 Z0.2
G1 F300.0 Z-0.4
G2 F800.0 X177.6977 Y127.0462 I31.2977 J-47.5191
G0 Z3.0
G0 X206.5414 Y133.4821
G0 Z0.2
G1 F300.0 Z-0.4
G2 F800.0 X218.4685 Y131.6874 I-2.4555 J-56.847
G0 Z3.0
G0 X220.3339 Y135.1896
G0 Z0.2
G1 F300.0 Z-0.4
G2 F800.0 X208.5197 Y136.6671 I1.1154 J56.8891
G0 Z3.0
G0 X227.8225 Y128.3476
G0 Z0.2
G1 F300.0 Z-0.4
G2 F800.0 X229.3441 Y127.6217 I-23.7366 J-51.7125
G0 Z3.0
G0 X235.1189 Y124.3275
G0 Z0.2
G1 F300.0 Z-0.4
G2 F800.0 X238.1551 Y122.2081 I-31.0331 J-47.6923
G2 X240.6913 Y122.8262 I14.7362 J-54.9587
G0 Z3.0
G0 X240.7258 Y131.6203
G0 Z0.2
G1 F300.0 Z-0.4
G2 F800.0 X240.67 Y131.6392 I18.2661 J53.8884
G0 Z3.0
G0 X251.6732 Y129.0813
G0 Z0.2
G1 F300.0 Z-0.4
G3 F800.0 X256.5779 Y128.6599 I7.3187 J56.4274
G0 Z3.0
G0 Y124.0299
G0 Z0.2
G1 F300.0 Z-0.4
G3 F800.0 X251.6732 Y124.1364 I-3.6866 J-56.7804
G0 Z3.0
G0 X286.4398 Y135.6666
G0 Z0.2
G1 F300.0 Z-0.4
G3 F800.0 X290.681 Y138.2496 I-27.4478 J49.842
G3 X298.8051 Y138.0603 I5.3843 J56.6447
G0 Z3.0
G0 X300.204 Y120.8826
G0 Z0.2
G1 F300.0 Z-0.4
G3 F800.0 X298.0591 Y118.6467 I39.9738 J-40.4932
G3 X295.1635 Y118.8903 I-6.2173 J-56.5593
G1 F300.0 X295.0649 Y118.4954
G2 F800.0 X298.2182 Y118.2264 I-3.2231 J-56.408
G2 X300.5076 Y120.6202 I41.9596 J-37.837
G0 Z3.0
G0 X299.1588 Y138.4791
G0 Z0.2
G1 F300.0 Z-0.4
G2 F800.0 X290.5767 Y138.6615 I-3.0935 J56.4152
G2 X285.9477 Y135.8535 I-31.5848 J46.8471
G0 Z3.0
G0 X256.5779 Y129.0603
G0 Z0.2
G1 F300.0 Z-0.4
G2 F800.0 X251.6732 Y129.4847 I2.4141 J56.4484
G0 Z3.0
G0 Y123.7363
G0 Z0.2
G1 F300.0 Z-0.4
G2 F800.0 X256.5779 Y123.6291 I1.218 J-56.4869
G0 Z3.0
G0 X240.6897 Y122.4162
G0 Z0.2
G1 F300.0 Z-0.4
G3 F800.0 X238.0711 Y121.7711 I12.2015 J-55.1668
G3 X234.8764 Y124.008 I-33.9852 J-45.136
G0 Z3.0
G0 X229.3441 Y127.1749
G0 Z0.2
G1 F300.0 Z-0.4
G3 F800.0 X227.6341 Y127.994 I-25.2582 J-50.5398
G0 Z3.0
G0 X218.2751 Y131.3244
G0 Z0.2
G1 F300.0 Z-0.4
G3 F800.0 X206.2989 Y133.0918 I-14.1892 J-54.6893
G0 Z3.0
G0 X208.7426 Y137.026
G0 Z0.2
G1 F300.0 Z-0.4
G3 F800.0 X220.545 Y135.5859 I12.7067 J55.0526
G0 Z3.0
G0 X177.8076 Y126.6521
G0 Z0.2
G1 F300.0 Z-0.4
G3 F800.0 X173.176 Y123.9303 I26.2783 J-50.017
G0 Z3.0
G0 X177.4024 Y128.5461
G0 Z0.2
G1 F300.0 Z-0.4
G2 F800.0 X170.8878 Y129.0244 I0.873 J56.4933
G2 X167.4137 Y127.2571 I-27.3394 J49.445
G1 F300.0 X166.99 Y127.5018
G3 F800.0 X170.8095 Y129.4384 I-23.4416 J50.9677
G3 X177.3552 Y128.9469 I7.4658 J55.601
G0 Z3.0
G0 X177.9295 Y126.2643
G0 Z0.2
G1 F300.0 Z-0.4
G3 F800.0 X173.5646 Y123.7059 I26.1564 J-49.6292
G0 Z3.0
G0 X206.0559 Y132.7005
G0 Z0.2
G1 F300.0 Z-0.4
G2 F800.0 X218.0817 Y130.9612 I-1.97 J-56.0654
G0 Z3.0
G0 X220.7565 Y135.9829
G0 Z0.2
G1 F300.0 Z-0.4
G2 F800.0 X208.9657 Y137.3852 I0.6928 J56.0957
G0 Z3.0
G0 X227.4457 Y127.6403
G0 Z0.2
G1 F300.0 Z-0.4
G2 F800.0 X229.3441 Y126.7274 I-23.3598 J-51.0052
G0 Z3.0
G0 X234.6339 Y123.6886
G0 Z0.2
G1 F300.0 Z-0.4
G2 F800.0 X237.9869 Y121.3334 I-30.548 J-47.0535
G2 X240.6881 Y122.0061 I14.9044 J-54.0839
G0 Z3.0
G0 X251.6732 Y123.3362
G0 Z0.2
G1 F300.0 Z-0.4
G2 F800.0 X256.5779 Y123.2282 I1.218 J-56.0868
G0 Z3.0
G0 Y129.4606
G0 Z0.2
G1 F300.0 Z-0.4
G2 F800.0 X251.6732 Y129.8881 I2.4141 J56.048
G0 Z3.0
G0 X285.4293 Y136.0286
G0 Z0.2
G1 F300.0 Z-0.4
G3 F800.0 X290.4723 Y139.0738 I-26.4374 J49.4801
G3 X299.5505 Y138.9027 I5.5929 J55.8205
G0 Z3.0
G0 X300.8204 Y120.3669
G0 Z0.2
G1 F300.0 Z-0.4
G3 F800.0 X298.3776 Y117.8053 I39.3575 J-39.9775
G3 X294.9545 Y118.1009 I-6.5359 J-55.718
G1 F300.0 X294.8321 Y117.707
G2 F800.0 X298.5374 Y117.3835 I-2.9903 J-55.6197
G2 X301.1426 Y120.1227 I41.6405 J-36.9941
G0 Z3.0
G0 X299.9878 Y139.3326
G0 Z0.2
G1 F300.0 Z-0.4
G2 F800.0 X290.3679 Y139.4865 I-3.9226 J55.5617
G2 X285.7661 Y136.6657 I-31.3759 J46.0222
G0 Z3.0
G0 X256.5779 Y129.861
G0 Z0.2
G1 F300.0 Z-0.4
G2 F800.0 X251.6732 Y130.2916 I2.4141 J55.6477
G0 Z3.0
G0 Y122.9361
G0 Z0.2
G1 F300.0 Z-0.4
G2 F800.0 X256.5779 Y122.8273 I1.218 J-55.6867
G0 Z3.0
G0 X240.6865 Y121.5959
G0 Z0.2
G1 F300.0 Z-0.4
G3 F800.0 X237.9025 Y120.8949 I12.2048 J-54.3464
G3 X234.3914 Y123.3691 I-33.8166 J-44.2597
G0 Z3.0
G0 X229.3441 Y126.279
G0 Z0.2
G1 F300.0 Z-0.4
G3 F800.0 X227.2573 Y127.2866 I-25.2582 J-49.6439
G0 Z3.0
G0 X217.8882 Y130.598
G0 Z0.2
G1 F300.0 Z-0.4
G3 F800.0 X205.8123 Y132.3084 I-13.8023 J-53.9628
G0 Z3.0
G0 X209.189 Y137.7447
G0 Z0.2
G1 F300.0 Z-0.4
G3 F800.0 X220.9684 Y136.3807 I12.2603 J54.3339
G0 Z3.0
G0 X178.0633 Y125.8826
G0 Z0.2
G1 F300.0 Z-0.4
G3 F800.0 X173.9539 Y123.4812 I26.0226 J-49.2475
G0 Z3.0
G0 X177.3212 Y129.3476
G0 Z0.2
G1 F300.0 Z-0.4
G2 F800.0 X170.7311 Y129.8527 I0.9542 J55.6918
G2 X166.5648 Y127.7473 I-27.1827 J48.6168
G1 F300.0 X166.138 Y127.9937
G3 F800.0 X170.6527 Y130.2673 I-22.5896 J50.4758
G3 X177.3 Y129.748 I7.6226 J54.7721
G0 Z3.0
G0 X178.2086 Y125.507
G0 Z0.2
G1 F300.0 Z-0.4
G3 F800.0 X174.3439 Y123.256 I25.8772 J-48.8719
G0 Z3.0
G0 X205.5681 Y131.9153
G0 Z0.2
G1 F300.0 Z-0.4
G2 F800.0 X217.6946 Y130.2345 I-1.4822 J-55.2801
G0 Z3.0
G0 X221.1807 Y136.7793
G0 Z0.2
G1 F300.0 Z-0.4
G2 F800.0 X209.4125 Y138.1045 I0.2686 J55.2993
G0 Z3.0
G0 X227.0689 Y126.9329
G0 Z0.2
G1 F300.0 Z-0.4
G2 F800.0 X229.3441 Y125.8298 I-22.9831 J-50.2978
G0 Z3.0
G0 X234.1488 Y123.0497
G0 Z0.2
G1 F300.0 Z-0.4
G2 F800.0 X237.8181 Y120.4556 I-30.0629 J-46.4145
G2 X240.6849 Y121.1855 I15.0732 J-53.2061
G0 Z3.0
G0 X251.6732 Y122.5361
G0 Z0.2
G1 F300.0 Z-0.4
G2 F800.0 X256.5779 Y122.4264 I1.218 J-55.2866
G0 Z3.0
G0 Y130.2614
G0 Z0.2
G1 F300.0 Z-0.4
G2 F800.0 X251.6732 Y130.6951 I2.4141 J55.2473
G0 Z3.0
G0 X286.5664 Y137.5739
G0 Z0.2
G1 F300.0 Z-0.4
G3 F800.0 X290.2633 Y139.8995 I-27.5745 J47.9347
G3 X300.4817 Y139.771 I5.802 J54.9948
G0 Z3.0
G0 X301.4744 Y119.8879
G0 Z0.2
G1 F300.0 Z-0.4
G3 F800.0 X298.6974 Y116.9608 I38.7035 J-39.4985
G3 X294.6974 Y117.3136 I-6.8557 J-54.8734
G1 F300.0 X294.55 Y116.9205
G2 F800.0 X298.8578 Y116.5372 I-2.7083 J-54.8332
G2 X301.8159 Y119.6624 I41.32 J-36.1478
G0 Z3.0
G0 X301.0491 Y140.221
G0 Z0.2
G1 F300.0 Z-0.4
G2 F800.0 X290.1586 Y140.313 I-4.9839 J54.6733
G2 X287.1717 Y138.3928 I-31.1667 J45.1957
G0 Z3.0
G0 X256.5779 Y130.6618
G0 Z0.2
G1 F300.0 Z-0.4
G2 F800.0 X251.6732 Y131.0987 I2.4141 J54.8469
G0 Z3.0
G0 Y122.136
G0 Z0.2
G1 F300.0 Z-0.4
G2 F800.0 X256.5779 Y122.0255 I1.218 J-54.8865
G0 Z3.0
G0 X240.6833 Y120.7749
G0 Z0.2
G1 F300.0 Z-0.4
G3 F800.0 X237.7334 Y120.0155 I12.208 J-53.5255
G3 X233.9063 Y122.7302 I-33.6475 J-43.3803
G0 Z3.0
G0 X229.3441 Y125.3797
G0 Z0.2
G1 F300.0 Z-0.4
G3 F800.0 X226.8805 Y126.5792 I-25.2582 J-48.7446
G0 Z3.0
G0 X217.5009 Y129.8709
G0 Z0.2
G1 F300.0 Z-0.4
G3 F800.0 X205.3233 Y131.5212 I-13.415 J-53.2358
G0 Z3.0
G0 X209.6362 Y138.4646
G0 Z0.2
G1 F300.0 Z-0.4
G3 F800.0 X221.3935 Y137.1787 I11.8131 J53.614
G0 Z3.0
G0 X177.2917 Y130.1482
G0 Z0.2
G1 F300.0 Z-0.4
G2 F800.0 X170.5742 Y130.6822 I0.9836 J54.8912
G2 X165.7096 Y128.241 I-27.0258 J47.7872
G0 Z3.0
G0 X174.7347 Y123.0304
G0 Z0.2
G1 F300.0 Z-0.4
G2 F800.0 X178.3655 Y125.1374 I29.3512 J-46.3952
G1 F300.0 X178.5338 Y124.7739
G3 F800.0 X175.1263 Y122.8043 I25.5521 J-48.1388
G0 Z3.0
G0 X177.2963 Y130.5482
G0 Z0.2
G1 F300.0 Z-0.4
G2 F800.0 X170.4956 Y131.0975 I0.9791 J54.4912
G2 X165.2795 Y128.4893 I-26.9472 J47.3719
G0 Z3.0
G0 X205.0779 Y131.1261
G0 Z0.2
G1 F300.0 Z-0.4
G2 F800.0 X217.3071 Y129.5071 I-0.992 J-54.491
G0 Z3.0
G0 X221.6066 Y137.5789
G0 Z0.2
G1 F300.0 Z-0.4
G2 F800.0 X209.8601 Y138.8251 I-0.1573 J54.4998
G0 Z3.0
G0 X226.6921 Y126.2255
G0 Z0.2
G1 F300.0 Z-0.4
G2 F800.0 X229.3441 Y124.9287 I-22.6062 J-49.5904
G0 Z3.0
G0 X233.6637 Y122.4107
G0 Z0.2
G1 F300.0 Z-0.4
G2 F800.0 X237.6486 Y119.5745 I-29.5778 J-45.7756
G2 X240.6817 Y120.3642 I15.2426 J-52.3251
G0 Z3.0
G0 X251.6732 Y121.7359
G0 Z0.2
G1 F300.0 Z-0.4
G2 F800.0 X256.5779 Y121.6246 I1.218 J-54.4864
G0 Z3.0
G0 Y131.0622
G0 Z0.2
G1 F300.0 Z-0.4
G2 F800.0 X251.6732 Y131.5023 I2.4141 J54.4465
G0 Z3.0
G0 X287.651 Y139.1524
G0 Z0.2
G1 F300.0 Z-0.4
G3 F800.0 X290.0538 Y140.7269 I-28.6591 J46.3563
G3 X301.7195 Y140.6884 I6.0114 J54.1674
G0 Z3.0
G0 X302.1676 Y119.4466
G0 Z0.2
G1 F300.0 Z-0.4
G3 F800.0 X299.0185 Y116.1128 I38.0103 J-39.0572
G3 X294.3896 Y116.5278 I-7.1768 J-54.0254
G1 F300.0 X294.2156 Y116.1353
G2 F800.0 X299.1796 Y115.6874 I-2.3739 J-54.0479
G2 X302.5296 Y119.2406 I40.9983 J-35.298
G0 Z3.0
G0 X302.5523 Y141.1847
G0 Z0.2
G1 F300.0 Z-0.4
G2 F800.0 X289.9489 Y141.1412 I-6.4871 J53.7097
G2 X288.0392 Y139.8681 I-30.957 J44.3675
G0 Z3.0
G0 X256.5779 Y131.4626
G0 Z0.2
G1 F300.0 Z-0.4
G2 F800.0 X251.6732 Y131.906 I2.4141 J54.0461
G0 Z3.0
G0 Y121.3358
G0 Z0.2
G1 F300.0 Z-0.4
G2 F800.0 X256.5779 Y121.2237 I1.218 J-54.0863
G0 Z3.0
G0 X240.6801 Y119.9533
G0 Z0.2
G1 F300.0 Z-0.4
G3 F800.0 X237.5637 Y119.1327 I12.2112 J-52.7039
G3 X233.4212 Y122.0912 I-33.4778 J-42.4976
G0 Z3.0
G0 X229.3441 Y124.4769
G0 Z0.2
G1 F300.0 Z-0.4
G3 F800.0 X226.5037 Y125.8718 I-25.2582 J-47.8417
G0 Z3.0
G0 X217.1133 Y129.1432
G0 Z0.2
G1 F300.0 Z-0.4
G3 F800.0 X204.8319 Y130.73 I-13.0274 J-52.5081
G0 Z3.0
G0 X210.0838 Y139.186
G0 Z0.2
G1 F300.0 Z-0.4
G3 F800.0 X221.8203 Y137.9799 I11.3655 J52.8927
G0 Z3.0
G0 X177.3136 Y130.9479
G0 Z0.2
G1 F300.0 Z-0.4
G2 F800.0 X170.417 Y131.5132 I0.9617 J54.0915
G2 X164.8477 Y128.7386 I-26.8686 J46.9563
G0 Z3.0
G0 X175.5187 Y122.5777
G0 Z0.2
G1 F300.0 Z-0.4
G2 F800.0 X178.7135 Y124.4164 I28.5672 J-45.9426
G1 F300.0 X178.9044 Y124.0649
G3 F800.0 X175.9119 Y122.3507 I25.1815 J-47.4298
G0 Z3.0
G0 X177.3438 Y131.3475
G0 Z0.2
G1 F300.0 Z-0.4
G2 F800.0 X170.3383 Y131.9292 I0.9316 J53.6919
G2 X164.4141 Y128.989 I-26.7898 J46.5402
G0 Z3.0
G0 X204.5852 Y130.3328
G0 Z0.2
G1 F300.0 Z-0.4
G2 F800.0 X216.9193 Y128.7791 I-0.4993 J-53.6977
G0 Z3.0
G0 X226.3153 Y125.5181
G0 Z0.2
G1 F300.0 Z-0.4
G2 F800.0 X229.3441 Y124.0241 I-22.2294 J-48.883
G0 Z3.0
G0 X233.1786 Y121.7716
G0 Z0.2
G1 F300.0 Z-0.4
G2 F800.0 X237.4785 Y118.6901 I-29.0927 J-45.1365
G2 X240.6785 Y119.5423 I15.4127 J-51.4406
G0 Z3.0
G0 X251.6732 Y120.9357
G0 Z0.2
G1 F300.0 Z-0.4
G2 F800.0 X256.5779 Y120.8228 I1.218 J-53.6862
G0 Z3.0
G0 Y131.863
G0 Z0.2
G1 F300.0 Z-0.4
G2 F800.0 X251.6732 Y132.3097 I2.4141 J53.6457
G0 Z3.0
G0 X222.0344 Y138.3818
G0 Z0.2
G1 F300.0 Z-0.4
G2 F800.0 X210.2887 Y139.5512 I-0.585 J53.6968
G0 Z3.0
G0 X288.3571 Y140.549
G0 Z0.2
G1 F300.0 Z-0.4
G3 F800.0 X289.8439 Y141.5559 I-29.3652 J44.9597
G3 X303.715 Y141.742 I6.2213 J53.3384
G0 Z3.0
G0 X302.9024 Y119.0447
G0 Z0.2
G1 F300.0 Z-0.4
G3 F800.0 X299.341 Y115.2611 I37.2754 J-38.6553
G3 X294.0275 Y115.7429 I-7.4992 J-53.1738
G0 Z3.0
G0 X324.1329 Y131.6363
G0 Z0.2
G1 F300.0 Z-0.4
G2 F800.0 X324.3527 Y131.7046 I16.0449 J-51.247
G2 X324.2032 Y131.7495 I15.3559 J51.4576
G1 F300.0 X324.4218 Y132.1015
G3 F800.0 X325.7917 Y131.7112 I15.2867 J51.0608
G3 X323.8081 Y131.1134 I14.3861 J-51.3218
G0 Z3.0
G0 X305.3927 Y142.3785
G0 Z0.2
G1 F300.0 Z-0.4
G2 F800.0 X305.3552 Y142.4102 I34.3158 J40.7838
G2 X289.7388 Y141.9711 I-9.2899 J52.4842
G2 X288.6182 Y141.2009 I-30.7469 J43.5376
G0 Z3.0
G0 X293.8246 Y115.3505
G0 Z0.2
G1 F300.0 Z-0.4
G2 F800.0 X299.5027 Y114.8339 I-1.9828 J-53.2631
G2 X303.2866 Y118.8592 I40.6751 J-34.4445
G0 Z3.0
G0 X256.5779 Y120.4218
G0 Z0.2
G1 F300.0 Z-0.4
G3 F800.0 X251.6732 Y120.5355 I-3.6866 J-53.1724
G0 Z3.0
G0 X240.6769 Y119.131
G0 Z0.2
G1 F300.0 Z-0.4
G3 F800.0 X237.3932 Y118.2465 I12.2144 J-51.8816
G3 X232.936 Y121.4521 I-33.3074 J-41.6114
G0 Z3.0
G0 X229.3441 Y123.5703
G0 Z0.2
G1 F300.0 Z-0.4
G3 F800.0 X226.1269 Y125.1643 I-25.2582 J-46.9352
G0 Z3.0
G0 X216.7253 Y128.4148
G0 Z0.2
G1 F300.0 Z-0.4
G3 F800.0 X204.3378 Y129.9345 I-12.6394 J-51.7797
G0 Z3.0
G0 X210.4659 Y139.9226
G0 Z0.2
G1 F300.0 Z-0.4
G3 F800.0 X222.2489 Y138.7846 I10.9835 J52.156
G0 Z3.0
G0 X251.6732 Y132.7135
G0 Z0.2
G1 F300.0 Z-0.4
G3 F800.0 X256.5779 Y132.2634 I7.3187 J52.7951
G0 Z3.0
G0 X179.1067 Y123.7194
G0 Z0.2
G1 F300.0 Z-0.4
G3 F800.0 X176.306 Y122.1232 I24.9792 J-47.0843
G0 Z3.0
G0 X177.3869 Y131.7468
G0 Z0.2
G1 F300.0 Z-0.4
G2 F800.0 X170.2595 Y132.3456 I0.8885 J53.2926
G2 X163.9786 Y129.2404 I-26.7111 J46.1238
G1 F300.0 X163.5412 Y129.4929
G3 F800.0 X170.1807 Y132.7624 I-19.9928 J48.9765
G3 X177.443 Y132.1459 I8.0947 J52.277
G0 Z3.0
G0 X179.3203 Y123.3799
G0 Z0.2
G1 F300.0 Z-0.4
G3 F800.0 X176.7009 Y121.8952 I24.7656 J-46.7448
G0 Z3.0
G0 X204.0897 Y129.5351
G0 Z0.2
G1 F300.0 Z-0.4
G2 F800.0 X216.5311 Y128.0503 I-0.0038 J-52.9
G0 Z3.0
G0 X225.9385 Y124.8106
G0 Z0.2
G1 F300.0 Z-0.4
G2 F800.0 X229.3441 Y123.1156 I-21.8526 J-48.1755
G0 Z3.0
G0 X232.6934 Y121.1326
G0 Z0.2
G1 F300.0 Z-0.4
G2 F800.0 X237.3078 Y117.8021 I-28.6075 J-44.4974
G2 X240.6752 Y118.7196 I15.5835 J-50.5526
G0 Z3.0
G0 X251.6732 Y120.1354
G0 Z0.2
G1 F300.0 Z-0.4
G2 F800.0 X256.5779 Y120.0209 I1.218 J-52.886
G0 Z3.0
G0 Y132.6638
G0 Z0.2
G1 F300.0 Z-0.4
G2 F800.0 X251.6732 Y133.1174 I2.4141 J52.8449
G0 Z3.0
G0 X222.464 Y139.1884
G0 Z0.2
G1 F300.0 Z-0.4
G2 F800.0 X210.6165 Y140.2997 I-1.0146 J52.8903
G0 Z3.0
G0 X288.8319 Y141.8282
G0 Z0.2
