; generated by Slic3r 0.9.11-dev on 2013-08-24 at 16:29:50

; layer_height = 0.2
; perimeters = 3
; top_solid_layers = 3
; bottom_solid_layers = 3
; fill_density = 0.2
; perimeter_speed = 50
; infill_speed = 60
; travel_speed = 130
; nozzle_diameter = 0.5
; filament_diameter = 2.97
; extrusion_multiplier = 1
; perimeters extrusion width = 0.50mm
; infill extrusion width = 1.02mm
; solid infill extrusion width = 0.85mm
; top infill extrusion width = 0.85mm
; first layer extrusion width = 1.00mm

G21 ; set units to millimeters
M107
M190 S100 ; wait for bed temperature to be reached
M104 S220 ; set temperature
G28 ; home all axes
M109 S220 ; wait for temperature to be reached
G90 ; use absolute coordinates
G92 E0
M82 ; use absolute distances for extrusion
G1 F1800.000 E-1.00000
G92 E0
G1 Z0.500 F7800.000
G1 X40.895 Y58.020
G1 F1800.000 E1.00000
G1 X42.055 Y57.370 F900.000 E1.08567
G1 X43.315 Y56.950 E1.17124
G1 X93.155 Y45.780 E4.46197
G1 X93.905 Y45.660 E4.51090
G1 X94.665 Y45.620 E4.55994
G1 X130.295 Y45.620 E6.85549
G1 X131.695 Y45.760 E6.94614
G1 X133.035 Y46.190 E7.03681
G1 X134.265 Y46.870 E7.12736
G1 X135.325 Y47.800 E7.21821
G1 F1800.000 E1.00000
G1 X127.575 Y53.653 F600.000 E1.01355
G1 X128.201 Y58.110 E1.07850
G1 X127.272 Y58.240 E1.09204
G1 X126.656 Y53.858 E1.15592
G1 X127.021 Y53.226 F7800.000
G1 X128.000 Y53.089 F600.000 E1.17019
G1 X128.766 Y58.535 E1.24958
G1 X126.846 Y58.805 E1.27756
G1 X126.081 Y53.358 E1.35694
G1 X126.947 Y53.237 E1.36957
G1 X127.033 Y53.242 F7800.000
G1 F1800.000 E0.36957
G92 E0
G1 X126.363 Y53.571 F7800.000
G1 X127.059 Y58.523
G1 X127.180 Y61.303
G1 F1800.000 E1.00000
G1 X127.057 Y60.481 F698.785 E1.01200
G1 X126.998 Y60.042 E1.01839
G1 X126.915 Y59.391 E1.02786
G1 X126.910 Y59.384 E1.02799
G1 X126.898 Y59.287 E1.02940
G1 F1800.000 E0.02940
G92 E0
M107
M104 S0 ; turn off temperature
M140 S0;
G28 X0  ; home X axis
M84     ; disable motors
; filament used = 2644.8mm (18.3cm3)
